(G-CODE GENERATED BY FLATCAM v8.991 - www.flatcam.org - Version Date: 2019/12/27)

(Name: fuente de voltaje - CADCAM Bottom Copper.GBR_ncc_cnc)
(Type: G-code from Geometry)
(Units: MM)

(Created on Saturday, 30 November 2024 at 17:20)

(TOOL DIAMETER: 0.11 mm)
(Feedrate: 45.0 mm/min)
(Feedrate_Z: 25.0 mm/min)
(Feedrate rapids 1500.0 mm/min)

(Z_Cut: -0.0187 mm)
(Z_Move: 2.0 mm)
(Z Toolchange: 15.0 mm)
(X,Y Toolchange: 0.0000, 0.0000 mm)
(Z Start: None mm)
(Z End: 15.0 mm)
(Steps per circle: 64)
(Preprocessor Geometry: default)

(X range:    1.0567 ...   65.9433  mm)
(Y range:    0.3567 ...  100.3433  mm)

(Spindle Speed: None RPM)
G21
G90
G94




G01 F45.00
G00 Z2.0000

M03
G00 X12.4438 Y11.7567
G01 F25.00
G01 Z-0.0187
G01 F45.00
G01 X12.4963 Y11.7593
G01 X12.5510 Y11.7671
G01 X12.6047 Y11.7803
G01 X12.6568 Y11.7986
G01 X12.7069 Y11.8220
G01 X12.7544 Y11.8502
G01 X12.7990 Y11.8829
G01 X12.8401 Y11.9199
G01 X13.3925 Y12.4721
G01 X13.4312 Y12.5152
G01 X13.4639 Y12.5597
G01 X13.4896 Y12.6025
G01 X13.5135 Y12.6524
G01 X13.5323 Y12.7043
G01 X13.5339 Y12.7095
G01 X13.5471 Y12.7631
G01 X13.5544 Y12.8125
G01 X13.5574 Y12.8704
G01 X13.5574 Y21.2058
G01 X13.5544 Y21.2637
G01 X13.5471 Y21.3131
G01 X13.5339 Y21.3667
G01 X13.5155 Y21.4189
G01 X13.4921 Y21.4689
G01 X13.4896 Y21.4737
G01 X13.4609 Y21.5210
G01 X13.4312 Y21.5610
G01 X13.3925 Y21.6041
G01 X10.4402 Y24.5563
G01 X10.4598 Y24.5983
G01 X10.5102 Y24.7391
G01 X10.5117 Y24.7442
G01 X10.5481 Y24.8893
G01 X10.5491 Y24.8946
G01 X10.5711 Y25.0426
G01 X10.5716 Y25.0479
G01 X10.5789 Y25.1973
G01 X10.5789 Y25.2027
G01 X10.5716 Y25.3521
G01 X10.5711 Y25.3574
G01 X10.5491 Y25.5054
G01 X10.5481 Y25.5107
G01 X10.5117 Y25.6558
G01 X10.5102 Y25.6609
G01 X10.4598 Y25.8017
G01 X10.4577 Y25.8067
G01 X10.3938 Y25.9419
G01 X10.3912 Y25.9467
G01 X10.3143 Y26.0750
G01 X10.3113 Y26.0795
G01 X10.2222 Y26.1996
G01 X10.2188 Y26.2038
G01 X10.1184 Y26.3146
G01 X10.1146 Y26.3184
G01 X10.0038 Y26.4188
G01 X9.9996 Y26.4222
G01 X9.8795 Y26.5113
G01 X9.8750 Y26.5143
G01 X9.7467 Y26.5912
G01 X9.7419 Y26.5938
G01 X9.6067 Y26.6577
G01 X9.6017 Y26.6598
G01 X9.4609 Y26.7102
G01 X9.4558 Y26.7117
G01 X9.3107 Y26.7481
G01 X9.3054 Y26.7491
G01 X9.1574 Y26.7711
G01 X9.1521 Y26.7716
G01 X9.0027 Y26.7789
G01 X8.9973 Y26.7789
G01 X8.8479 Y26.7716
G01 X8.8426 Y26.7711
G01 X8.6946 Y26.7491
G01 X8.6893 Y26.7481
G01 X8.5442 Y26.7117
G01 X8.5391 Y26.7102
G01 X8.3983 Y26.6598
G01 X8.3933 Y26.6577
G01 X8.2581 Y26.5938
G01 X8.2533 Y26.5912
G01 X8.1250 Y26.5143
G01 X8.1205 Y26.5113
G01 X8.0004 Y26.4222
G01 X7.9962 Y26.4188
G01 X7.8854 Y26.3184
G01 X7.8816 Y26.3146
G01 X7.7812 Y26.2038
G01 X7.7778 Y26.1996
G01 X7.6887 Y26.0795
G01 X7.6857 Y26.0750
G01 X7.6088 Y25.9467
G01 X7.6062 Y25.9419
G01 X7.5423 Y25.8067
G01 X7.5402 Y25.8017
G01 X7.4898 Y25.6609
G01 X7.4883 Y25.6558
G01 X7.4519 Y25.5107
G01 X7.4509 Y25.5054
G01 X7.4289 Y25.3574
G01 X7.4284 Y25.3521
G01 X7.4211 Y25.2027
G01 X7.4211 Y25.1973
G01 X7.4284 Y25.0479
G01 X7.4289 Y25.0426
G01 X7.4509 Y24.8946
G01 X7.4519 Y24.8893
G01 X7.4883 Y24.7442
G01 X7.4898 Y24.7391
G01 X7.5402 Y24.5983
G01 X7.5423 Y24.5933
G01 X7.6062 Y24.4581
G01 X7.6088 Y24.4533
G01 X7.6857 Y24.3250
G01 X7.6887 Y24.3205
G01 X7.7778 Y24.2004
G01 X7.7812 Y24.1962
G01 X7.8816 Y24.0854
G01 X7.8854 Y24.0816
G01 X7.9962 Y23.9812
G01 X8.0004 Y23.9778
G01 X8.1205 Y23.8887
G01 X8.1250 Y23.8857
G01 X8.2533 Y23.8088
G01 X8.2581 Y23.8062
G01 X8.3933 Y23.7423
G01 X8.3983 Y23.7402
G01 X8.5391 Y23.6898
G01 X8.5442 Y23.6883
G01 X8.6893 Y23.6519
G01 X8.6946 Y23.6509
G01 X8.8426 Y23.6289
G01 X8.8479 Y23.6284
G01 X8.9973 Y23.6211
G01 X9.0027 Y23.6211
G01 X9.1521 Y23.6284
G01 X9.1574 Y23.6289
G01 X9.3054 Y23.6509
G01 X9.3107 Y23.6519
G01 X9.4558 Y23.6883
G01 X9.4609 Y23.6898
G01 X9.6017 Y23.7402
G01 X9.6437 Y23.7598
G01 X12.4309 Y20.9725
G01 X12.4309 Y13.1037
G01 X12.2105 Y12.8833
G01 X10.2735 Y12.8833
G01 X10.2577 Y12.9267
G01 X10.1938 Y13.0619
G01 X10.1912 Y13.0667
G01 X10.1143 Y13.1950
G01 X10.1113 Y13.1995
G01 X10.0222 Y13.3196
G01 X10.0188 Y13.3238
G01 X9.9184 Y13.4346
G01 X9.9146 Y13.4384
G01 X9.8038 Y13.5388
G01 X9.7996 Y13.5422
G01 X9.6795 Y13.6313
G01 X9.6750 Y13.6343
G01 X9.5467 Y13.7112
G01 X9.5419 Y13.7138
G01 X9.4067 Y13.7777
G01 X9.4017 Y13.7798
G01 X9.2609 Y13.8302
G01 X9.2558 Y13.8317
G01 X9.1107 Y13.8681
G01 X9.1054 Y13.8691
G01 X8.9574 Y13.8911
G01 X8.9521 Y13.8916
G01 X8.8027 Y13.8989
G01 X8.7973 Y13.8989
G01 X8.6479 Y13.8916
G01 X8.6426 Y13.8911
G01 X8.4946 Y13.8691
G01 X8.4893 Y13.8681
G01 X8.3442 Y13.8317
G01 X8.3391 Y13.8302
G01 X8.1983 Y13.7798
G01 X8.1933 Y13.7777
G01 X8.0581 Y13.7138
G01 X8.0533 Y13.7112
G01 X7.9250 Y13.6343
G01 X7.9205 Y13.6313
G01 X7.8004 Y13.5422
G01 X7.7962 Y13.5388
G01 X7.6854 Y13.4384
G01 X7.6816 Y13.4346
G01 X7.5812 Y13.3238
G01 X7.5778 Y13.3196
G01 X7.4887 Y13.1995
G01 X7.4857 Y13.1950
G01 X7.4088 Y13.0667
G01 X7.4062 Y13.0619
G01 X7.3423 Y12.9267
G01 X7.3402 Y12.9217
G01 X7.2898 Y12.7809
G01 X7.2883 Y12.7758
G01 X7.2519 Y12.6307
G01 X7.2509 Y12.6254
G01 X7.2289 Y12.4774
G01 X7.2284 Y12.4721
G01 X7.2211 Y12.3227
G01 X7.2211 Y12.3173
G01 X7.2284 Y12.1679
G01 X7.2289 Y12.1626
G01 X7.2509 Y12.0146
G01 X7.2519 Y12.0093
G01 X7.2883 Y11.8642
G01 X7.2898 Y11.8591
G01 X7.3402 Y11.7183
G01 X7.3423 Y11.7133
G01 X7.4062 Y11.5781
G01 X7.4088 Y11.5733
G01 X7.4857 Y11.4450
G01 X7.4887 Y11.4405
G01 X7.5778 Y11.3204
G01 X7.5812 Y11.3162
G01 X7.6816 Y11.2054
G01 X7.6854 Y11.2016
G01 X7.7962 Y11.1012
G01 X7.8004 Y11.0978
G01 X7.9205 Y11.0087
G01 X7.9250 Y11.0057
G01 X8.0533 Y10.9288
G01 X8.0581 Y10.9262
G01 X8.1933 Y10.8623
G01 X8.1983 Y10.8602
G01 X8.3391 Y10.8098
G01 X8.3442 Y10.8083
G01 X8.4893 Y10.7719
G01 X8.4946 Y10.7709
G01 X8.6426 Y10.7489
G01 X8.6479 Y10.7484
G01 X8.7973 Y10.7411
G01 X8.8027 Y10.7411
G01 X8.9521 Y10.7484
G01 X8.9574 Y10.7489
G01 X9.1054 Y10.7709
G01 X9.1107 Y10.7719
G01 X9.2558 Y10.8083
G01 X9.2609 Y10.8098
G01 X9.4017 Y10.8602
G01 X9.4067 Y10.8623
G01 X9.5419 Y10.9262
G01 X9.5467 Y10.9288
G01 X9.6750 Y11.0057
G01 X9.6795 Y11.0087
G01 X9.7996 Y11.0978
G01 X9.8038 Y11.1012
G01 X9.9146 Y11.2016
G01 X9.9184 Y11.2054
G01 X10.0188 Y11.3162
G01 X10.0222 Y11.3204
G01 X10.1113 Y11.4405
G01 X10.1143 Y11.4450
G01 X10.1912 Y11.5733
G01 X10.1938 Y11.5781
G01 X10.2577 Y11.7133
G01 X10.2735 Y11.7567
G01 X12.4438 Y11.7567
G00 Z2.0000
G00 X19.3676 Y7.8622
G01 F25.00
G01 Z-0.0187
G01 F45.00
G01 X19.3086 Y7.7967
G01 X19.2566 Y7.7267
G01 X19.2088 Y7.6473
G01 X19.1690 Y7.5637
G01 X19.1669 Y7.5587
G01 X19.1359 Y7.4714
G01 X19.1137 Y7.3815
G01 X19.1009 Y7.2952
G01 X19.0961 Y7.2027
G01 X19.0961 Y7.1973
G01 X19.1009 Y7.1048
G01 X19.1147 Y7.0132
G01 X19.1375 Y6.9234
G01 X19.1690 Y6.8363
G01 X19.2063 Y6.7574
G01 X19.2536 Y6.6778
G01 X19.3086 Y6.6033
G01 X19.3120 Y6.5991
G01 X19.3744 Y6.5306
G01 X19.4391 Y6.4720
G01 X19.5133 Y6.4166
G01 X19.5927 Y6.3688
G01 X19.6763 Y6.3290
G01 X19.6813 Y6.3269
G01 X19.7686 Y6.2959
G01 X19.8585 Y6.2737
G01 X19.9502 Y6.2603
G01 X20.0427 Y6.2561
G01 X20.1298 Y6.2603
G01 X20.2215 Y6.2737
G01 X20.3114 Y6.2959
G01 X20.3166 Y6.2975
G01 X20.4037 Y6.3290
G01 X20.4826 Y6.3663
G01 X20.5104 Y6.3826
G01 X24.9086 Y6.3826
G01 X25.5660 Y5.7252
G01 X25.6178 Y5.6777
G01 X25.6717 Y5.6361
G01 X25.7268 Y5.6003
G01 X26.0890 Y5.3852
G01 X26.0890 Y4.6840
G01 X26.0893 Y4.6786
G01 X26.0901 Y4.6733
G01 X26.0914 Y4.6680
G01 X26.0932 Y4.6630
G01 X26.0955 Y4.6581
G01 X26.0983 Y4.6534
G01 X26.1015 Y4.6491
G01 X26.1051 Y4.6451
G01 X26.1091 Y4.6415
G01 X26.1134 Y4.6383
G01 X26.1181 Y4.6355
G01 X26.1230 Y4.6332
G01 X26.1280 Y4.6314
G01 X26.1333 Y4.6301
G01 X26.1386 Y4.6293
G01 X26.1440 Y4.6290
G01 X28.1760 Y4.6290
G01 X28.1814 Y4.6293
G01 X28.1867 Y4.6301
G01 X28.1920 Y4.6314
G01 X28.1970 Y4.6332
G01 X28.2019 Y4.6355
G01 X28.2066 Y4.6383
G01 X28.2109 Y4.6415
G01 X28.2149 Y4.6451
G01 X28.2185 Y4.6491
G01 X28.2217 Y4.6534
G01 X28.2245 Y4.6581
G01 X28.2268 Y4.6630
G01 X28.2286 Y4.6680
G01 X28.2299 Y4.6733
G01 X28.2307 Y4.6786
G01 X28.2310 Y4.6840
G01 X28.2310 Y6.7160
G01 X28.2307 Y6.7214
G01 X28.2299 Y6.7267
G01 X28.2286 Y6.7320
G01 X28.2268 Y6.7370
G01 X28.2245 Y6.7419
G01 X28.2217 Y6.7466
G01 X28.2185 Y6.7509
G01 X28.2149 Y6.7549
G01 X28.2109 Y6.7585
G01 X28.2066 Y6.7617
G01 X28.2019 Y6.7645
G01 X28.1970 Y6.7668
G01 X28.1920 Y6.7686
G01 X28.1867 Y6.7699
G01 X28.1814 Y6.7707
G01 X28.1760 Y6.7710
G01 X26.9571 Y6.7710
G01 X26.6494 Y6.9536
G01 X25.8251 Y7.7780
G01 X25.7677 Y7.8301
G01 X25.7636 Y7.8335
G01 X25.6990 Y7.8811
G01 X25.6348 Y7.9195
G01 X25.5624 Y7.9541
G01 X25.5574 Y7.9561
G01 X25.4818 Y7.9829
G01 X25.4039 Y8.0021
G01 X25.3246 Y8.0136
G01 X25.2471 Y8.0174
G01 X20.5104 Y8.0174
G01 X20.4941 Y8.0271
G01 X20.4940 Y9.2448
G01 X20.4911 Y9.3000
G01 X20.4827 Y9.3547
G01 X20.4690 Y9.4082
G01 X20.4501 Y9.4602
G01 X20.4263 Y9.5100
G01 X20.3976 Y9.5573
G01 X20.3645 Y9.6015
G01 X20.3310 Y9.6385
G01 X19.6572 Y10.3124
G01 X19.6141 Y10.3512
G01 X19.5696 Y10.3839
G01 X19.5268 Y10.4095
G01 X19.4769 Y10.4334
G01 X19.4250 Y10.4523
G01 X19.4198 Y10.4538
G01 X19.3714 Y10.4659
G01 X19.3168 Y10.4743
G01 X19.2589 Y10.4774
G01 X7.0333 Y10.4774
G01 X6.0633 Y11.4474
G01 X6.0633 Y15.3639
G01 X7.3906 Y16.6912
G01 X7.4088 Y16.6533
G01 X7.4857 Y16.5250
G01 X7.4887 Y16.5205
G01 X7.5778 Y16.4004
G01 X7.5812 Y16.3962
G01 X7.6816 Y16.2854
G01 X7.6854 Y16.2816
G01 X7.7962 Y16.1812
G01 X7.8004 Y16.1778
G01 X7.9205 Y16.0887
G01 X7.9250 Y16.0857
G01 X8.0533 Y16.0088
G01 X8.0581 Y16.0062
G01 X8.1933 Y15.9423
G01 X8.1983 Y15.9402
G01 X8.3391 Y15.8898
G01 X8.3442 Y15.8883
G01 X8.4893 Y15.8519
G01 X8.4946 Y15.8509
G01 X8.6426 Y15.8289
G01 X8.6479 Y15.8284
G01 X8.7973 Y15.8211
G01 X8.8027 Y15.8211
G01 X8.9521 Y15.8284
G01 X8.9574 Y15.8289
G01 X9.1054 Y15.8509
G01 X9.1107 Y15.8519
G01 X9.2558 Y15.8883
G01 X9.2609 Y15.8898
G01 X9.4017 Y15.9402
G01 X9.4067 Y15.9423
G01 X9.5419 Y16.0062
G01 X9.5467 Y16.0088
G01 X9.6750 Y16.0857
G01 X9.6795 Y16.0887
G01 X9.7996 Y16.1778
G01 X9.8038 Y16.1812
G01 X9.9146 Y16.2816
G01 X9.9184 Y16.2854
G01 X10.0188 Y16.3962
G01 X10.0222 Y16.4004
G01 X10.1113 Y16.5205
G01 X10.1143 Y16.5250
G01 X10.1912 Y16.6533
G01 X10.1938 Y16.6581
G01 X10.2577 Y16.7933
G01 X10.2598 Y16.7983
G01 X10.3102 Y16.9391
G01 X10.3117 Y16.9442
G01 X10.3481 Y17.0893
G01 X10.3491 Y17.0946
G01 X10.3711 Y17.2426
G01 X10.3716 Y17.2479
G01 X10.3789 Y17.3973
G01 X10.3789 Y17.4027
G01 X10.3716 Y17.5521
G01 X10.3711 Y17.5574
G01 X10.3491 Y17.7054
G01 X10.3481 Y17.7107
G01 X10.3117 Y17.8558
G01 X10.3102 Y17.8609
G01 X10.2598 Y18.0017
G01 X10.2577 Y18.0067
G01 X10.1938 Y18.1419
G01 X10.1912 Y18.1467
G01 X10.1143 Y18.2750
G01 X10.1113 Y18.2795
G01 X10.0222 Y18.3996
G01 X10.0188 Y18.4038
G01 X9.9184 Y18.5146
G01 X9.9146 Y18.5184
G01 X9.8038 Y18.6188
G01 X9.7996 Y18.6222
G01 X9.6795 Y18.7113
G01 X9.6750 Y18.7143
G01 X9.5467 Y18.7912
G01 X9.5419 Y18.7938
G01 X9.4067 Y18.8577
G01 X9.4017 Y18.8598
G01 X9.2609 Y18.9102
G01 X9.2558 Y18.9117
G01 X9.1107 Y18.9481
G01 X9.1054 Y18.9491
G01 X8.9574 Y18.9711
G01 X8.9521 Y18.9716
G01 X8.8027 Y18.9789
G01 X8.7973 Y18.9789
G01 X8.6479 Y18.9716
G01 X8.6426 Y18.9711
G01 X8.4946 Y18.9491
G01 X8.4893 Y18.9481
G01 X8.3442 Y18.9117
G01 X8.3391 Y18.9102
G01 X8.1983 Y18.8598
G01 X8.1933 Y18.8577
G01 X8.0581 Y18.7938
G01 X8.0533 Y18.7912
G01 X7.9250 Y18.7143
G01 X7.9205 Y18.7113
G01 X7.8004 Y18.6222
G01 X7.7962 Y18.6188
G01 X7.6854 Y18.5184
G01 X7.6816 Y18.5146
G01 X7.5812 Y18.4038
G01 X7.5778 Y18.3996
G01 X7.4887 Y18.2795
G01 X7.4857 Y18.2750
G01 X7.4088 Y18.1467
G01 X7.4062 Y18.1419
G01 X7.3423 Y18.0067
G01 X7.3265 Y17.9633
G01 X7.3001 Y17.9632
G01 X7.2449 Y17.9602
G01 X7.1903 Y17.9518
G01 X7.1368 Y17.9382
G01 X7.0848 Y17.9193
G01 X7.0350 Y17.8954
G01 X6.9877 Y17.8668
G01 X6.9435 Y17.8336
G01 X6.9045 Y17.7983
G01 X5.1017 Y15.9955
G01 X5.0629 Y15.9524
G01 X5.0302 Y15.9078
G01 X5.0046 Y15.8650
G01 X5.0020 Y15.8603
G01 X4.9786 Y15.8102
G01 X4.9603 Y15.7581
G01 X4.9471 Y15.7044
G01 X4.9398 Y15.6551
G01 X4.9367 Y15.5972
G01 X4.9367 Y11.2141
G01 X4.9398 Y11.1562
G01 X4.9482 Y11.1016
G01 X4.9603 Y11.0532
G01 X4.9786 Y11.0011
G01 X5.0020 Y10.9510
G01 X5.0046 Y10.9462
G01 X5.0302 Y10.9035
G01 X5.0629 Y10.8589
G01 X5.0999 Y10.8178
G01 X6.4017 Y9.5158
G01 X6.4448 Y9.4770
G01 X6.4894 Y9.4443
G01 X6.5321 Y9.4187
G01 X6.5820 Y9.3948
G01 X6.6339 Y9.3759
G01 X6.6391 Y9.3744
G01 X6.6875 Y9.3623
G01 X6.7421 Y9.3539
G01 X6.8000 Y9.3508
G01 X19.0256 Y9.3508
G01 X19.3676 Y9.0088
G01 X19.3676 Y7.8622
G00 Z2.0000
G00 X28.8826 Y19.2291
G01 F25.00
G01 Z-0.0187
G01 F45.00
G01 X28.8826 Y6.7710
G01 X28.6840 Y6.7710
G01 X28.6786 Y6.7707
G01 X28.6733 Y6.7699
G01 X28.6680 Y6.7686
G01 X28.6630 Y6.7668
G01 X28.6581 Y6.7645
G01 X28.6534 Y6.7617
G01 X28.6491 Y6.7585
G01 X28.6451 Y6.7549
G01 X28.6415 Y6.7509
G01 X28.6383 Y6.7466
G01 X28.6355 Y6.7419
G01 X28.6332 Y6.7370
G01 X28.6314 Y6.7320
G01 X28.6301 Y6.7267
G01 X28.6293 Y6.7214
G01 X28.6290 Y6.7160
G01 X28.6290 Y4.6840
G01 X28.6293 Y4.6786
G01 X28.6301 Y4.6733
G01 X28.6314 Y4.6680
G01 X28.6332 Y4.6630
G01 X28.6355 Y4.6581
G01 X28.6383 Y4.6534
G01 X28.6415 Y4.6491
G01 X28.6451 Y4.6451
G01 X28.6491 Y4.6415
G01 X28.6534 Y4.6383
G01 X28.6581 Y4.6355
G01 X28.6630 Y4.6332
G01 X28.6680 Y4.6314
G01 X28.6733 Y4.6301
G01 X28.6786 Y4.6293
G01 X28.6840 Y4.6290
G01 X30.7160 Y4.6290
G01 X30.7214 Y4.6293
G01 X30.7267 Y4.6301
G01 X30.7320 Y4.6314
G01 X30.7370 Y4.6332
G01 X30.7419 Y4.6355
G01 X30.7466 Y4.6383
G01 X30.7509 Y4.6415
G01 X30.7549 Y4.6451
G01 X30.7585 Y4.6491
G01 X30.7617 Y4.6534
G01 X30.7645 Y4.6581
G01 X30.7668 Y4.6630
G01 X30.7686 Y4.6680
G01 X30.7699 Y4.6733
G01 X30.7707 Y4.6786
G01 X30.7710 Y4.6840
G01 X30.7710 Y6.7160
G01 X30.7707 Y6.7214
G01 X30.7699 Y6.7267
G01 X30.7686 Y6.7320
G01 X30.7668 Y6.7370
G01 X30.7645 Y6.7419
G01 X30.7617 Y6.7466
G01 X30.7585 Y6.7509
G01 X30.7549 Y6.7549
G01 X30.7509 Y6.7585
G01 X30.7466 Y6.7617
G01 X30.7419 Y6.7645
G01 X30.7370 Y6.7668
G01 X30.7320 Y6.7686
G01 X30.7267 Y6.7699
G01 X30.7214 Y6.7707
G01 X30.7160 Y6.7710
G01 X30.5174 Y6.7710
G01 X30.5174 Y19.2290
G01 X30.9160 Y19.2290
G01 X30.9214 Y19.2293
G01 X30.9267 Y19.2301
G01 X30.9320 Y19.2314
G01 X30.9370 Y19.2332
G01 X30.9419 Y19.2355
G01 X30.9466 Y19.2383
G01 X30.9509 Y19.2415
G01 X30.9549 Y19.2451
G01 X30.9585 Y19.2491
G01 X30.9617 Y19.2534
G01 X30.9645 Y19.2581
G01 X30.9668 Y19.2630
G01 X30.9686 Y19.2680
G01 X30.9699 Y19.2733
G01 X30.9707 Y19.2786
G01 X30.9710 Y19.2840
G01 X30.9710 Y21.3160
G01 X30.9707 Y21.3214
G01 X30.9699 Y21.3267
G01 X30.9686 Y21.3320
G01 X30.9668 Y21.3370
G01 X30.9645 Y21.3419
G01 X30.9617 Y21.3466
G01 X30.9585 Y21.3509
G01 X30.9549 Y21.3549
G01 X30.9509 Y21.3585
G01 X30.9466 Y21.3617
G01 X30.9419 Y21.3645
G01 X30.9370 Y21.3668
G01 X30.9320 Y21.3686
G01 X30.9267 Y21.3699
G01 X30.9214 Y21.3707
G01 X30.9160 Y21.3710
G01 X30.7174 Y21.3710
G01 X30.7174 Y23.3559
G01 X31.3441 Y23.9826
G01 X34.2614 Y23.9826
G01 X37.6820 Y20.5620
G01 X37.7394 Y20.5099
G01 X37.8037 Y20.4619
G01 X37.8723 Y20.4205
G01 X37.8771 Y20.4179
G01 X37.9497 Y20.3839
G01 X38.0202 Y20.3587
G01 X38.0979 Y20.3389
G01 X38.1772 Y20.3269
G01 X38.2573 Y20.3227
G01 X41.2258 Y20.3226
G01 X41.2548 Y20.2910
G01 X41.3380 Y20.2157
G01 X41.3421 Y20.2123
G01 X41.4322 Y20.1455
G01 X41.4367 Y20.1425
G01 X41.5329 Y20.0848
G01 X41.5377 Y20.0822
G01 X41.6391 Y20.0343
G01 X41.6441 Y20.0322
G01 X41.7497 Y19.9944
G01 X41.7548 Y19.9929
G01 X41.8636 Y19.9656
G01 X41.8689 Y19.9646
G01 X41.9799 Y19.9481
G01 X41.9853 Y19.9476
G01 X42.0973 Y19.9421
G01 X42.1027 Y19.9421
G01 X42.2147 Y19.9476
G01 X42.2201 Y19.9481
G01 X42.3311 Y19.9646
G01 X42.3364 Y19.9656
G01 X42.4452 Y19.9929
G01 X42.4503 Y19.9944
G01 X42.5559 Y20.0322
G01 X42.5609 Y20.0343
G01 X42.6623 Y20.0822
G01 X42.6671 Y20.0848
G01 X42.7633 Y20.1425
G01 X42.7678 Y20.1455
G01 X42.8579 Y20.2123
G01 X42.8620 Y20.2157
G01 X42.9452 Y20.2910
G01 X42.9490 Y20.2948
G01 X43.0243 Y20.3780
G01 X43.0277 Y20.3821
G01 X43.0945 Y20.4722
G01 X43.0975 Y20.4767
G01 X43.1552 Y20.5729
G01 X43.1578 Y20.5777
G01 X43.2057 Y20.6791
G01 X43.2078 Y20.6841
G01 X43.2456 Y20.7897
G01 X43.2471 Y20.7948
G01 X43.2744 Y20.9036
G01 X43.2754 Y20.9089
G01 X43.2919 Y21.0199
G01 X43.2924 Y21.0253
G01 X43.2979 Y21.1373
G01 X43.2979 Y21.1427
G01 X43.2924 Y21.2547
G01 X43.2919 Y21.2601
G01 X43.2754 Y21.3711
G01 X43.2744 Y21.3764
G01 X43.2459 Y21.4893
G01 X49.0367 Y27.2802
G01 X49.0367 Y26.3449
G01 X49.0398 Y26.2871
G01 X49.0482 Y26.2324
G01 X49.0603 Y26.1840
G01 X49.0786 Y26.1319
G01 X49.0807 Y26.1269
G01 X49.1046 Y26.0771
G01 X49.1302 Y26.0343
G01 X49.1332 Y26.0298
G01 X49.1664 Y25.9856
G01 X49.2017 Y25.9467
G01 X55.3287 Y19.8197
G01 X55.3287 Y12.2045
G01 X54.7606 Y11.6365
G01 X53.1995 Y11.6365
G01 X53.0482 Y11.6416
G01 X52.9956 Y11.6994
G01 X52.9381 Y11.7514
G01 X52.9339 Y11.7549
G01 X52.8672 Y11.8040
G01 X52.7959 Y11.8464
G01 X52.7258 Y11.8796
G01 X52.6479 Y11.9078
G01 X52.5675 Y11.9282
G01 X52.4855 Y11.9406
G01 X52.4801 Y11.9411
G01 X52.4027 Y11.9449
G01 X52.3199 Y11.9411
G01 X52.2378 Y11.9292
G01 X52.2325 Y11.9282
G01 X52.1521 Y11.9078
G01 X52.0792 Y11.8816
G01 X52.0041 Y11.8464
G01 X51.9993 Y11.8439
G01 X51.9283 Y11.8010
G01 X51.8661 Y11.7549
G01 X51.8044 Y11.6994
G01 X51.8006 Y11.6956
G01 X51.7486 Y11.6381
G01 X51.6990 Y11.5717
G01 X51.6561 Y11.5007
G01 X51.6204 Y11.4258
G01 X51.6184 Y11.4208
G01 X51.5907 Y11.3427
G01 X51.5718 Y11.2675
G01 X51.5594 Y11.1855
G01 X51.5589 Y11.1801
G01 X51.5551 Y11.0973
G01 X51.5594 Y11.0145
G01 X51.5708 Y10.9378
G01 X51.5907 Y10.8573
G01 X51.5922 Y10.8521
G01 X51.6204 Y10.7742
G01 X51.6536 Y10.7041
G01 X51.6960 Y10.6328
G01 X51.6990 Y10.6283
G01 X51.7486 Y10.5619
G01 X51.8006 Y10.5044
G01 X51.8367 Y10.4714
G01 X51.8367 Y7.9602
G01 X51.8292 Y7.9288
G01 X51.8218 Y7.8795
G01 X51.8189 Y7.8243
G01 X51.8213 Y7.7691
G01 X51.8218 Y7.7637
G01 X51.8302 Y7.7091
G01 X51.8423 Y7.6607
G01 X51.8607 Y7.6086
G01 X51.8841 Y7.5585
G01 X51.9123 Y7.5110
G01 X51.9450 Y7.4664
G01 X51.9819 Y7.4253
G01 X52.0227 Y7.3880
G01 X52.0669 Y7.3548
G01 X52.1142 Y7.3262
G01 X52.1640 Y7.3023
G01 X52.2160 Y7.2835
G01 X52.2695 Y7.2698
G01 X52.3242 Y7.2614
G01 X52.3794 Y7.2584
G01 X52.4346 Y7.2609
G01 X52.4893 Y7.2687
G01 X52.4946 Y7.2698
G01 X52.5481 Y7.2835
G01 X52.5951 Y7.3003
G01 X52.6452 Y7.3237
G01 X52.6927 Y7.3518
G01 X52.6972 Y7.3548
G01 X52.7414 Y7.3880
G01 X52.7784 Y7.4215
G01 X52.8001 Y7.4432
G01 X52.8336 Y7.4802
G01 X52.8668 Y7.5244
G01 X52.8698 Y7.5289
G01 X52.8954 Y7.5717
G01 X52.9193 Y7.6215
G01 X52.9382 Y7.6735
G01 X52.9397 Y7.6787
G01 X52.9529 Y7.7323
G01 X52.9602 Y7.7817
G01 X52.9633 Y7.8396
G01 X52.9633 Y10.4714
G01 X52.9956 Y10.5006
G01 X53.0096 Y10.5158
G01 X53.1709 Y10.5103
G01 X53.1900 Y10.5100
G01 X54.9939 Y10.5100
G01 X55.0464 Y10.5125
G01 X55.1012 Y10.5203
G01 X55.1548 Y10.5335
G01 X55.2070 Y10.5519
G01 X55.2570 Y10.5753
G01 X55.3046 Y10.6035
G01 X55.3491 Y10.6362
G01 X55.3903 Y10.6731
G01 X56.2902 Y11.5729
G01 X56.3290 Y11.6160
G01 X56.3617 Y11.6606
G01 X56.3899 Y11.7081
G01 X56.4133 Y11.7582
G01 X56.4301 Y11.8052
G01 X56.4437 Y11.8587
G01 X56.4448 Y11.8640
G01 X56.4527 Y11.9187
G01 X56.4552 Y11.9712
G01 X56.4552 Y20.0530
G01 X56.4521 Y20.1109
G01 X56.4437 Y20.1656
G01 X56.4316 Y20.2139
G01 X56.4133 Y20.2661
G01 X56.3899 Y20.3161
G01 X56.3873 Y20.3209
G01 X56.3587 Y20.3682
G01 X56.3255 Y20.4124
G01 X56.2902 Y20.4513
G01 X50.1633 Y26.5783
G01 X50.1633 Y27.7827
G01 X50.2633 Y27.8425
G01 X50.2678 Y27.8455
G01 X50.3579 Y27.9123
G01 X50.3620 Y27.9157
G01 X50.4452 Y27.9910
G01 X50.4490 Y27.9948
G01 X50.5243 Y28.0780
G01 X50.5277 Y28.0821
G01 X50.5945 Y28.1722
G01 X50.5975 Y28.1767
G01 X50.6573 Y28.2767
G01 X57.5706 Y28.2767
G01 X57.6380 Y28.2157
G01 X57.6421 Y28.2123
G01 X57.7322 Y28.1455
G01 X57.7367 Y28.1425
G01 X57.8329 Y28.0848
G01 X57.8377 Y28.0822
G01 X57.9391 Y28.0343
G01 X57.9441 Y28.0322
G01 X58.0497 Y27.9944
G01 X58.0548 Y27.9929
G01 X58.1636 Y27.9656
G01 X58.1689 Y27.9646
G01 X58.2799 Y27.9481
G01 X58.2853 Y27.9476
G01 X58.3973 Y27.9421
G01 X58.4027 Y27.9421
G01 X58.5147 Y27.9476
G01 X58.5201 Y27.9481
G01 X58.6311 Y27.9646
G01 X58.6364 Y27.9656
G01 X58.7452 Y27.9929
G01 X58.7503 Y27.9944
G01 X58.8559 Y28.0322
G01 X58.8609 Y28.0343
G01 X58.9623 Y28.0822
G01 X58.9671 Y28.0848
G01 X59.0633 Y28.1425
G01 X59.0678 Y28.1455
G01 X59.1579 Y28.2123
G01 X59.1620 Y28.2157
G01 X59.2452 Y28.2910
G01 X59.2490 Y28.2948
G01 X59.3243 Y28.3780
G01 X59.3277 Y28.3821
G01 X59.3945 Y28.4722
G01 X59.3975 Y28.4767
G01 X59.4552 Y28.5729
G01 X59.4578 Y28.5777
G01 X59.5057 Y28.6791
G01 X59.5078 Y28.6841
G01 X59.5456 Y28.7897
G01 X59.5471 Y28.7948
G01 X59.5744 Y28.9036
G01 X59.5754 Y28.9089
G01 X59.5919 Y29.0199
G01 X59.5924 Y29.0253
G01 X59.5979 Y29.1373
G01 X59.5979 Y29.1427
G01 X59.5924 Y29.2547
G01 X59.5919 Y29.2601
G01 X59.5754 Y29.3711
G01 X59.5744 Y29.3764
G01 X59.5471 Y29.4852
G01 X59.5456 Y29.4903
G01 X59.5078 Y29.5959
G01 X59.5057 Y29.6009
G01 X59.4578 Y29.7023
G01 X59.4552 Y29.7071
G01 X59.3975 Y29.8033
G01 X59.3945 Y29.8078
G01 X59.3277 Y29.8979
G01 X59.3243 Y29.9020
G01 X59.2490 Y29.9852
G01 X59.2452 Y29.9890
G01 X59.1620 Y30.0643
G01 X59.1579 Y30.0677
G01 X59.0678 Y30.1345
G01 X59.0633 Y30.1375
G01 X58.9671 Y30.1952
G01 X58.9623 Y30.1978
G01 X58.8609 Y30.2457
G01 X58.8559 Y30.2478
G01 X58.7503 Y30.2856
G01 X58.7452 Y30.2871
G01 X58.6364 Y30.3144
G01 X58.6311 Y30.3154
G01 X58.5201 Y30.3319
G01 X58.5147 Y30.3324
G01 X58.4027 Y30.3379
G01 X58.3973 Y30.3379
G01 X58.2853 Y30.3324
G01 X58.2799 Y30.3319
G01 X58.1689 Y30.3154
G01 X58.1636 Y30.3144
G01 X58.0548 Y30.2871
G01 X58.0497 Y30.2856
G01 X57.9441 Y30.2478
G01 X57.9391 Y30.2457
G01 X57.8377 Y30.1978
G01 X57.8329 Y30.1952
G01 X57.7367 Y30.1375
G01 X57.7322 Y30.1345
G01 X57.6421 Y30.0677
G01 X57.6380 Y30.0643
G01 X57.5548 Y29.9890
G01 X57.5510 Y29.9852
G01 X57.4757 Y29.9020
G01 X57.4723 Y29.8979
G01 X57.4055 Y29.8078
G01 X57.4025 Y29.8033
G01 X57.3448 Y29.7071
G01 X57.3422 Y29.7023
G01 X57.2943 Y29.6009
G01 X57.2922 Y29.5959
G01 X57.2544 Y29.4903
G01 X57.2323 Y29.4033
G01 X50.6573 Y29.4033
G01 X50.5975 Y29.5033
G01 X50.5945 Y29.5078
G01 X50.5277 Y29.5979
G01 X50.5243 Y29.6020
G01 X50.4490 Y29.6852
G01 X50.4452 Y29.6890
G01 X50.3620 Y29.7643
G01 X50.3579 Y29.7677
G01 X50.2678 Y29.8345
G01 X50.2633 Y29.8375
G01 X50.1633 Y29.8973
G01 X50.1633 Y31.0071
G01 X50.1607 Y31.0596
G01 X50.1529 Y31.1143
G01 X50.1397 Y31.1680
G01 X50.1214 Y31.2201
G01 X50.1193 Y31.2251
G01 X50.0980 Y31.2702
G01 X50.0698 Y31.3177
G01 X50.0668 Y31.3222
G01 X50.0336 Y31.3664
G01 X49.9983 Y31.4054
G01 X43.1633 Y38.2404
G01 X43.1633 Y38.4827
G01 X43.2633 Y38.5425
G01 X43.2678 Y38.5455
G01 X43.3579 Y38.6123
G01 X43.3620 Y38.6157
G01 X43.4452 Y38.6910
G01 X43.4490 Y38.6948
G01 X43.5243 Y38.7780
G01 X43.5277 Y38.7821
G01 X43.5945 Y38.8722
G01 X43.5975 Y38.8767
G01 X43.6552 Y38.9729
G01 X43.6578 Y38.9777
G01 X43.7057 Y39.0791
G01 X43.7078 Y39.0841
G01 X43.7456 Y39.1897
G01 X43.7471 Y39.1948
G01 X43.7744 Y39.3036
G01 X43.7754 Y39.3089
G01 X43.7919 Y39.4199
G01 X43.7924 Y39.4253
G01 X43.7979 Y39.5373
G01 X43.7979 Y39.5427
G01 X43.7924 Y39.6547
G01 X43.7919 Y39.6601
G01 X43.7754 Y39.7711
G01 X43.7744 Y39.7764
G01 X43.7471 Y39.8852
G01 X43.7456 Y39.8903
G01 X43.7078 Y39.9959
G01 X43.7057 Y40.0009
G01 X43.6578 Y40.1023
G01 X43.6552 Y40.1071
G01 X43.5975 Y40.2033
G01 X43.5945 Y40.2078
G01 X43.5277 Y40.2979
G01 X43.5243 Y40.3020
G01 X43.4490 Y40.3852
G01 X43.4452 Y40.3890
G01 X43.3620 Y40.4643
G01 X43.3579 Y40.4677
G01 X43.2678 Y40.5345
G01 X43.2633 Y40.5375
G01 X43.1671 Y40.5952
G01 X43.1623 Y40.5978
G01 X43.0609 Y40.6457
G01 X43.0559 Y40.6478
G01 X42.9503 Y40.6856
G01 X42.9452 Y40.6871
G01 X42.8364 Y40.7144
G01 X42.8311 Y40.7154
G01 X42.7201 Y40.7319
G01 X42.7147 Y40.7324
G01 X42.6027 Y40.7379
G01 X42.5973 Y40.7379
G01 X42.4853 Y40.7324
G01 X42.4799 Y40.7319
G01 X42.3689 Y40.7154
G01 X42.3636 Y40.7144
G01 X42.2548 Y40.6871
G01 X42.1913 Y40.6647
G01 X37.4840 Y45.3719
G01 X37.4267 Y45.4240
G01 X37.3624 Y45.4720
G01 X37.2937 Y45.5135
G01 X37.2213 Y45.5480
G01 X37.1459 Y45.5753
G01 X37.0682 Y45.5950
G01 X36.9889 Y45.6070
G01 X36.9835 Y45.6076
G01 X36.9061 Y45.6113
G01 X32.0288 Y45.6113
G01 X31.9514 Y45.6076
G01 X31.8720 Y45.5961
G01 X31.8667 Y45.5950
G01 X31.7890 Y45.5753
G01 X31.7135 Y45.5480
G01 X31.6459 Y45.5160
G01 X31.5770 Y45.4750
G01 X31.5124 Y45.4274
G01 X31.5082 Y45.4240
G01 X31.4508 Y45.3719
G01 X29.9202 Y43.8412
G01 X29.8665 Y43.7816
G01 X29.8189 Y43.7170
G01 X29.7779 Y43.6480
G01 X29.7439 Y43.5754
G01 X29.7187 Y43.5050
G01 X29.6989 Y43.4272
G01 X29.6979 Y43.4219
G01 X29.6864 Y43.3426
G01 X29.6826 Y43.2651
G01 X29.6826 Y41.5709
G01 X29.6733 Y41.5699
G01 X29.6680 Y41.5686
G01 X29.6630 Y41.5668
G01 X29.6581 Y41.5645
G01 X29.6534 Y41.5617
G01 X29.6491 Y41.5585
G01 X29.6451 Y41.5549
G01 X29.6415 Y41.5509
G01 X29.6383 Y41.5466
G01 X29.6355 Y41.5419
G01 X29.6332 Y41.5370
G01 X29.6314 Y41.5320
G01 X29.6301 Y41.5267
G01 X29.6293 Y41.5214
G01 X29.6290 Y41.5160
G01 X29.6290 Y39.4840
G01 X29.6293 Y39.4786
G01 X29.6301 Y39.4733
G01 X29.6314 Y39.4680
G01 X29.6332 Y39.4630
G01 X29.6355 Y39.4581
G01 X29.6383 Y39.4534
G01 X29.6415 Y39.4491
G01 X29.6451 Y39.4451
G01 X29.6491 Y39.4415
G01 X29.6534 Y39.4383
G01 X29.6581 Y39.4355
G01 X29.6630 Y39.4332
G01 X29.6680 Y39.4314
G01 X29.6733 Y39.4301
G01 X29.6786 Y39.4293
G01 X29.6840 Y39.4290
G01 X31.7160 Y39.4290
G01 X31.7214 Y39.4293
G01 X31.7267 Y39.4301
G01 X31.7320 Y39.4314
G01 X31.7370 Y39.4332
G01 X31.7419 Y39.4355
G01 X31.7466 Y39.4383
G01 X31.7509 Y39.4415
G01 X31.7549 Y39.4451
G01 X31.7585 Y39.4491
G01 X31.7617 Y39.4534
G01 X31.7645 Y39.4581
G01 X31.7668 Y39.4630
G01 X31.7686 Y39.4680
G01 X31.7699 Y39.4733
G01 X31.7707 Y39.4786
G01 X31.7710 Y39.4840
G01 X31.7710 Y41.5160
G01 X31.7707 Y41.5214
G01 X31.7699 Y41.5267
G01 X31.7686 Y41.5320
G01 X31.7668 Y41.5370
G01 X31.7645 Y41.5419
G01 X31.7617 Y41.5466
G01 X31.7585 Y41.5509
G01 X31.7549 Y41.5549
G01 X31.7509 Y41.5585
G01 X31.7466 Y41.5617
G01 X31.7419 Y41.5645
G01 X31.7370 Y41.5668
G01 X31.7320 Y41.5686
G01 X31.7267 Y41.5699
G01 X31.7214 Y41.5707
G01 X31.7160 Y41.5710
G01 X31.3174 Y41.5710
G01 X31.3174 Y42.9266
G01 X32.3674 Y43.9765
G01 X36.5675 Y43.9765
G01 X41.5206 Y39.0235
G01 X41.5448 Y38.9729
G01 X41.6025 Y38.8767
G01 X41.6055 Y38.8722
G01 X41.6723 Y38.7821
G01 X41.6757 Y38.7780
G01 X41.7510 Y38.6948
G01 X41.7548 Y38.6910
G01 X41.8380 Y38.6157
G01 X41.8421 Y38.6123
G01 X41.9322 Y38.5455
G01 X41.9367 Y38.5425
G01 X42.0367 Y38.4827
G01 X42.0367 Y38.0071
G01 X42.0393 Y37.9546
G01 X42.0471 Y37.8998
G01 X42.0482 Y37.8946
G01 X42.0618 Y37.8410
G01 X42.0786 Y37.7940
G01 X42.1020 Y37.7440
G01 X42.1046 Y37.7392
G01 X42.1332 Y37.6919
G01 X42.1664 Y37.6477
G01 X42.1999 Y37.6107
G01 X49.0367 Y30.7738
G01 X49.0367 Y29.8973
G01 X48.9367 Y29.8375
G01 X48.9322 Y29.8345
G01 X48.8421 Y29.7677
G01 X48.8380 Y29.7643
G01 X48.7548 Y29.6890
G01 X48.7510 Y29.6852
G01 X48.6757 Y29.6020
G01 X48.6723 Y29.5979
G01 X48.6055 Y29.5078
G01 X48.6025 Y29.5033
G01 X48.5448 Y29.4071
G01 X48.5422 Y29.4023
G01 X48.4943 Y29.3009
G01 X48.4922 Y29.2959
G01 X48.4544 Y29.1903
G01 X48.4529 Y29.1852
G01 X48.4256 Y29.0764
G01 X48.4246 Y29.0711
G01 X48.4081 Y28.9601
G01 X48.4076 Y28.9547
G01 X48.4021 Y28.8427
G01 X48.4021 Y28.8373
G01 X48.4076 Y28.7253
G01 X48.4081 Y28.7199
G01 X48.4246 Y28.6089
G01 X48.4256 Y28.6036
G01 X48.4529 Y28.4948
G01 X48.4544 Y28.4897
G01 X48.4922 Y28.3841
G01 X48.5098 Y28.3463
G01 X42.4493 Y22.2859
G01 X42.3364 Y22.3144
G01 X42.3311 Y22.3154
G01 X42.2201 Y22.3319
G01 X42.2147 Y22.3324
G01 X42.1027 Y22.3379
G01 X42.0973 Y22.3379
G01 X41.9853 Y22.3324
G01 X41.9799 Y22.3319
G01 X41.8689 Y22.3154
G01 X41.8636 Y22.3144
G01 X41.7548 Y22.2871
G01 X41.7497 Y22.2856
G01 X41.6441 Y22.2478
G01 X41.6391 Y22.2457
G01 X41.5377 Y22.1978
G01 X41.5329 Y22.1952
G01 X41.4367 Y22.1375
G01 X41.4322 Y22.1345
G01 X41.3421 Y22.0677
G01 X41.3380 Y22.0643
G01 X41.2548 Y21.9890
G01 X41.2258 Y21.9574
G01 X38.5986 Y21.9574
G01 X35.1780 Y25.3780
G01 X35.1206 Y25.4301
G01 X35.1164 Y25.4335
G01 X35.0518 Y25.4811
G01 X34.9877 Y25.5195
G01 X34.9153 Y25.5541
G01 X34.8398 Y25.5813
G01 X34.8347 Y25.5829
G01 X34.7568 Y25.6021
G01 X34.6774 Y25.6136
G01 X34.6000 Y25.6174
G01 X31.0056 Y25.6174
G01 X30.9281 Y25.6136
G01 X30.9228 Y25.6131
G01 X30.8435 Y25.6011
G01 X30.7657 Y25.5813
G01 X30.6953 Y25.5561
G01 X30.6227 Y25.5221
G01 X30.6179 Y25.5195
G01 X30.5492 Y25.4781
G01 X30.4850 Y25.4301
G01 X30.4276 Y25.3780
G01 X29.3202 Y24.2705
G01 X29.2665 Y24.2109
G01 X29.2189 Y24.1463
G01 X29.1805 Y24.0821
G01 X29.1459 Y24.0097
G01 X29.1439 Y24.0047
G01 X29.1171 Y23.9291
G01 X29.0989 Y23.8565
G01 X29.0869 Y23.7772
G01 X29.0864 Y23.7719
G01 X29.0826 Y23.6944
G01 X29.0826 Y21.3710
G01 X28.8840 Y21.3710
G01 X28.8786 Y21.3707
G01 X28.8733 Y21.3699
G01 X28.8680 Y21.3686
G01 X28.8630 Y21.3668
G01 X28.8581 Y21.3645
G01 X28.8534 Y21.3617
G01 X28.8491 Y21.3585
G01 X28.8451 Y21.3549
G01 X28.8415 Y21.3509
G01 X28.8383 Y21.3466
G01 X28.8355 Y21.3419
G01 X28.8332 Y21.3370
G01 X28.8314 Y21.3320
G01 X28.8301 Y21.3267
G01 X28.8293 Y21.3214
G01 X28.8290 Y21.3160
G01 X28.8290 Y19.2840
G01 X28.8293 Y19.2786
G01 X28.8301 Y19.2733
G01 X28.8314 Y19.2680
G01 X28.8332 Y19.2630
G01 X28.8355 Y19.2581
G01 X28.8383 Y19.2534
G01 X28.8415 Y19.2491
G01 X28.8451 Y19.2451
G01 X28.8491 Y19.2415
G01 X28.8534 Y19.2383
G01 X28.8581 Y19.2355
G01 X28.8630 Y19.2332
G01 X28.8680 Y19.2314
G01 X28.8733 Y19.2301
G01 X28.8826 Y19.2291
G00 Z2.0000
G00 X26.2891 Y21.3174
G01 F25.00
G01 Z-0.0187
G01 F45.00
G01 X21.3174 Y21.3174
G01 X21.3174 Y28.8000
G01 X21.3136 Y28.8774
G01 X21.3131 Y28.8828
G01 X21.3011 Y28.9621
G01 X21.2813 Y29.0398
G01 X21.2541 Y29.1153
G01 X21.2195 Y29.1877
G01 X21.1781 Y29.2563
G01 X21.1301 Y29.3206
G01 X21.0780 Y29.3780
G01 X16.6170 Y33.8390
G01 X16.6170 Y34.4652
G01 X16.6167 Y34.4706
G01 X16.6159 Y34.4759
G01 X16.6146 Y34.4812
G01 X16.6128 Y34.4862
G01 X16.6105 Y34.4911
G01 X16.6077 Y34.4958
G01 X16.6045 Y34.5001
G01 X16.6009 Y34.5041
G01 X16.2961 Y34.8089
G01 X16.2921 Y34.8125
G01 X16.2878 Y34.8157
G01 X16.2831 Y34.8185
G01 X16.2782 Y34.8208
G01 X16.2732 Y34.8226
G01 X16.2679 Y34.8239
G01 X16.2626 Y34.8247
G01 X16.2572 Y34.8250
G01 X15.3428 Y34.8250
G01 X15.3374 Y34.8247
G01 X15.3321 Y34.8239
G01 X15.3268 Y34.8226
G01 X15.3218 Y34.8208
G01 X15.3169 Y34.8185
G01 X15.3122 Y34.8157
G01 X15.3079 Y34.8125
G01 X15.3039 Y34.8089
G01 X14.9991 Y34.5041
G01 X14.9955 Y34.5001
G01 X14.9923 Y34.4958
G01 X14.9895 Y34.4911
G01 X14.9872 Y34.4862
G01 X14.9854 Y34.4812
G01 X14.9841 Y34.4759
G01 X14.9833 Y34.4706
G01 X14.9830 Y34.4652
G01 X14.9830 Y33.5091
G01 X14.9827 Y33.5027
G01 X14.9830 Y33.4909
G01 X14.9830 Y32.5348
G01 X14.9833 Y32.5294
G01 X14.9841 Y32.5241
G01 X14.9854 Y32.5188
G01 X14.9872 Y32.5138
G01 X14.9895 Y32.5089
G01 X14.9923 Y32.5042
G01 X14.9955 Y32.4999
G01 X14.9991 Y32.4959
G01 X15.3039 Y32.1911
G01 X15.3079 Y32.1875
G01 X15.3122 Y32.1843
G01 X15.3169 Y32.1815
G01 X15.3218 Y32.1792
G01 X15.3268 Y32.1774
G01 X15.3321 Y32.1761
G01 X15.3374 Y32.1753
G01 X15.3428 Y32.1750
G01 X15.9690 Y32.1750
G01 X19.6826 Y28.4614
G01 X19.6826 Y21.0704
G01 X19.6663 Y21.0426
G01 X19.6269 Y20.9587
G01 X19.5975 Y20.8766
G01 X19.5747 Y20.7868
G01 X19.5737 Y20.7815
G01 X19.5603 Y20.6898
G01 X19.5561 Y20.6027
G01 X19.5603 Y20.5102
G01 X19.5737 Y20.4185
G01 X19.5959 Y20.3286
G01 X19.6269 Y20.2413
G01 X19.6290 Y20.2363
G01 X19.6688 Y20.1527
G01 X19.7136 Y20.0778
G01 X19.7686 Y20.0033
G01 X19.8306 Y19.9344
G01 X19.8991 Y19.8720
G01 X19.9033 Y19.8686
G01 X19.9778 Y19.8136
G01 X20.0574 Y19.7663
G01 X20.1413 Y19.7269
G01 X20.2286 Y19.6959
G01 X20.3132 Y19.6747
G01 X20.4048 Y19.6609
G01 X20.4973 Y19.6561
G01 X20.5898 Y19.6603
G01 X20.6815 Y19.6737
G01 X20.7183 Y19.6826
G01 X26.2643 Y19.6826
G01 X26.2890 Y19.6778
G01 X26.2890 Y19.2840
G01 X26.2893 Y19.2786
G01 X26.2901 Y19.2733
G01 X26.2914 Y19.2680
G01 X26.2932 Y19.2630
G01 X26.2955 Y19.2581
G01 X26.2983 Y19.2534
G01 X26.3015 Y19.2491
G01 X26.3051 Y19.2451
G01 X26.3091 Y19.2415
G01 X26.3134 Y19.2383
G01 X26.3181 Y19.2355
G01 X26.3230 Y19.2332
G01 X26.3280 Y19.2314
G01 X26.3333 Y19.2301
G01 X26.3386 Y19.2293
G01 X26.3440 Y19.2290
G01 X28.3760 Y19.2290
G01 X28.3814 Y19.2293
G01 X28.3867 Y19.2301
G01 X28.3920 Y19.2314
G01 X28.3970 Y19.2332
G01 X28.4019 Y19.2355
G01 X28.4066 Y19.2383
G01 X28.4109 Y19.2415
G01 X28.4149 Y19.2451
G01 X28.4185 Y19.2491
G01 X28.4217 Y19.2534
G01 X28.4245 Y19.2581
G01 X28.4268 Y19.2630
G01 X28.4286 Y19.2680
G01 X28.4299 Y19.2733
G01 X28.4307 Y19.2786
G01 X28.4310 Y19.2840
G01 X28.4310 Y21.3160
G01 X28.4307 Y21.3214
G01 X28.4299 Y21.3267
G01 X28.4286 Y21.3320
G01 X28.4268 Y21.3370
G01 X28.4245 Y21.3419
G01 X28.4217 Y21.3466
G01 X28.4185 Y21.3509
G01 X28.4149 Y21.3549
G01 X28.4109 Y21.3585
G01 X28.4066 Y21.3617
G01 X28.4019 Y21.3645
G01 X28.3970 Y21.3668
G01 X28.3920 Y21.3686
G01 X28.3867 Y21.3699
G01 X28.3814 Y21.3707
G01 X28.3760 Y21.3710
G01 X28.1774 Y21.3710
G01 X28.1774 Y26.2214
G01 X32.7386 Y30.7826
G01 X41.0210 Y30.7826
G01 X41.0448 Y30.7329
G01 X41.1025 Y30.6367
G01 X41.1055 Y30.6322
G01 X41.1723 Y30.5421
G01 X41.1757 Y30.5380
G01 X41.2510 Y30.4548
G01 X41.2548 Y30.4510
G01 X41.3380 Y30.3757
G01 X41.3421 Y30.3723
G01 X41.4322 Y30.3055
G01 X41.4367 Y30.3025
G01 X41.5329 Y30.2448
G01 X41.5377 Y30.2422
G01 X41.6391 Y30.1943
G01 X41.6441 Y30.1922
G01 X41.7497 Y30.1544
G01 X41.7548 Y30.1529
G01 X41.8636 Y30.1256
G01 X41.8689 Y30.1246
G01 X41.9799 Y30.1081
G01 X41.9853 Y30.1076
G01 X42.0973 Y30.1021
G01 X42.1027 Y30.1021
G01 X42.2147 Y30.1076
G01 X42.2201 Y30.1081
G01 X42.3311 Y30.1246
G01 X42.3364 Y30.1256
G01 X42.4452 Y30.1529
G01 X42.4503 Y30.1544
G01 X42.5559 Y30.1922
G01 X42.5609 Y30.1943
G01 X42.6623 Y30.2422
G01 X42.6671 Y30.2448
G01 X42.7633 Y30.3025
G01 X42.7678 Y30.3055
G01 X42.8579 Y30.3723
G01 X42.8620 Y30.3757
G01 X42.9452 Y30.4510
G01 X42.9490 Y30.4548
G01 X43.0243 Y30.5380
G01 X43.0277 Y30.5421
G01 X43.0945 Y30.6322
G01 X43.0975 Y30.6367
G01 X43.1552 Y30.7329
G01 X43.1578 Y30.7377
G01 X43.2057 Y30.8391
G01 X43.2078 Y30.8441
G01 X43.2456 Y30.9497
G01 X43.2471 Y30.9548
G01 X43.2744 Y31.0636
G01 X43.2754 Y31.0689
G01 X43.2919 Y31.1799
G01 X43.2924 Y31.1853
G01 X43.2979 Y31.2973
G01 X43.2979 Y31.3027
G01 X43.2924 Y31.4147
G01 X43.2919 Y31.4201
G01 X43.2754 Y31.5311
G01 X43.2744 Y31.5364
G01 X43.2471 Y31.6452
G01 X43.2456 Y31.6503
G01 X43.2078 Y31.7559
G01 X43.2057 Y31.7609
G01 X43.1578 Y31.8623
G01 X43.1552 Y31.8671
G01 X43.0975 Y31.9633
G01 X43.0945 Y31.9678
G01 X43.0277 Y32.0579
G01 X43.0243 Y32.0620
G01 X42.9490 Y32.1452
G01 X42.9452 Y32.1490
G01 X42.8620 Y32.2243
G01 X42.8579 Y32.2277
G01 X42.7678 Y32.2945
G01 X42.7633 Y32.2975
G01 X42.6671 Y32.3552
G01 X42.6623 Y32.3578
G01 X42.5609 Y32.4057
G01 X42.5559 Y32.4078
G01 X42.4503 Y32.4456
G01 X42.4452 Y32.4471
G01 X42.3364 Y32.4744
G01 X42.3311 Y32.4754
G01 X42.2201 Y32.4919
G01 X42.2147 Y32.4924
G01 X42.1027 Y32.4979
G01 X42.0973 Y32.4979
G01 X41.9853 Y32.4924
G01 X41.9799 Y32.4919
G01 X41.8689 Y32.4754
G01 X41.8636 Y32.4744
G01 X41.7548 Y32.4471
G01 X41.6709 Y32.4174
G01 X32.4000 Y32.4174
G01 X32.3226 Y32.4136
G01 X32.3172 Y32.4131
G01 X32.2379 Y32.4011
G01 X32.1653 Y32.3829
G01 X32.0897 Y32.3561
G01 X32.0847 Y32.3541
G01 X32.0171 Y32.3221
G01 X31.9482 Y32.2811
G01 X31.8836 Y32.2335
G01 X31.8794 Y32.2301
G01 X31.8220 Y32.1780
G01 X26.7820 Y27.1380
G01 X26.7299 Y27.0806
G01 X26.6819 Y27.0163
G01 X26.6789 Y27.0118
G01 X26.6379 Y26.9429
G01 X26.6059 Y26.8753
G01 X26.5787 Y26.7998
G01 X26.5589 Y26.7221
G01 X26.5469 Y26.6428
G01 X26.5464 Y26.6374
G01 X26.5426 Y26.5600
G01 X26.5426 Y21.3710
G01 X26.3440 Y21.3710
G01 X26.3386 Y21.3707
G01 X26.3333 Y21.3699
G01 X26.3280 Y21.3686
G01 X26.3230 Y21.3668
G01 X26.3181 Y21.3645
G01 X26.3134 Y21.3617
G01 X26.3091 Y21.3585
G01 X26.3051 Y21.3549
G01 X26.3015 Y21.3509
G01 X26.2983 Y21.3466
G01 X26.2955 Y21.3419
G01 X26.2932 Y21.3370
G01 X26.2914 Y21.3320
G01 X26.2901 Y21.3267
G01 X26.2891 Y21.3174
G00 Z2.0000
G00 X21.1814 Y41.4627
G01 F25.00
G01 Z-0.0187
G01 F45.00
G01 X21.1814 Y42.9485
G01 X21.1777 Y43.0259
G01 X21.1662 Y43.1053
G01 X21.1651 Y43.1106
G01 X21.1454 Y43.1883
G01 X21.1181 Y43.2638
G01 X21.0836 Y43.3362
G01 X21.0451 Y43.4003
G01 X20.9975 Y43.4649
G01 X20.9941 Y43.4691
G01 X20.9420 Y43.5265
G01 X19.4189 Y45.0496
G01 X19.3615 Y45.1017
G01 X19.2972 Y45.1497
G01 X19.2286 Y45.1911
G01 X19.1562 Y45.2257
G01 X19.1512 Y45.2277
G01 X19.0756 Y45.2545
G01 X18.9977 Y45.2737
G01 X18.9183 Y45.2852
G01 X18.8409 Y45.2890
G01 X14.6748 Y45.2890
G01 X14.5973 Y45.2852
G01 X14.5180 Y45.2737
G01 X14.5127 Y45.2727
G01 X14.4349 Y45.2529
G01 X14.3595 Y45.2257
G01 X14.2919 Y45.1937
G01 X14.2229 Y45.1527
G01 X14.1584 Y45.1051
G01 X14.1542 Y45.1017
G01 X14.0968 Y45.0496
G01 X11.5846 Y42.5374
G01 X10.3488 Y42.5374
G01 X10.3113 Y42.5995
G01 X10.2222 Y42.7196
G01 X10.2188 Y42.7238
G01 X10.1184 Y42.8346
G01 X10.1146 Y42.8384
G01 X10.0038 Y42.9388
G01 X9.9996 Y42.9422
G01 X9.8795 Y43.0313
G01 X9.8750 Y43.0343
G01 X9.7467 Y43.1112
G01 X9.7419 Y43.1138
G01 X9.6067 Y43.1777
G01 X9.6017 Y43.1798
G01 X9.4609 Y43.2302
G01 X9.4558 Y43.2317
G01 X9.3107 Y43.2681
G01 X9.3054 Y43.2691
G01 X9.1574 Y43.2911
G01 X9.1521 Y43.2916
G01 X9.0027 Y43.2989
G01 X8.9973 Y43.2989
G01 X8.8479 Y43.2916
G01 X8.8426 Y43.2911
G01 X8.6946 Y43.2691
G01 X8.6893 Y43.2681
G01 X8.5442 Y43.2317
G01 X8.5391 Y43.2302
G01 X8.3983 Y43.1798
G01 X8.3933 Y43.1777
G01 X8.2581 Y43.1138
G01 X8.2533 Y43.1112
G01 X8.1250 Y43.0343
G01 X8.1205 Y43.0313
G01 X8.0004 Y42.9422
G01 X7.9962 Y42.9388
G01 X7.8854 Y42.8384
G01 X7.8816 Y42.8346
G01 X7.7812 Y42.7238
G01 X7.7778 Y42.7196
G01 X7.6887 Y42.5995
G01 X7.6857 Y42.5950
G01 X7.6088 Y42.4667
G01 X7.6062 Y42.4619
G01 X7.5423 Y42.3267
G01 X7.5402 Y42.3217
G01 X7.4898 Y42.1809
G01 X7.4883 Y42.1758
G01 X7.4519 Y42.0307
G01 X7.4509 Y42.0254
G01 X7.4289 Y41.8774
G01 X7.4284 Y41.8721
G01 X7.4211 Y41.7227
G01 X7.4211 Y41.7173
G01 X7.4284 Y41.5679
G01 X7.4289 Y41.5626
G01 X7.4509 Y41.4146
G01 X7.4519 Y41.4093
G01 X7.4883 Y41.2642
G01 X7.4898 Y41.2591
G01 X7.5402 Y41.1183
G01 X7.5423 Y41.1133
G01 X7.6062 Y40.9781
G01 X7.6088 Y40.9733
G01 X7.6857 Y40.8450
G01 X7.6887 Y40.8405
G01 X7.7778 Y40.7204
G01 X7.7812 Y40.7162
G01 X7.8816 Y40.6054
G01 X7.8854 Y40.6016
G01 X7.9962 Y40.5012
G01 X8.0004 Y40.4978
G01 X8.1205 Y40.4087
G01 X8.1250 Y40.4057
G01 X8.2533 Y40.3288
G01 X8.2581 Y40.3262
G01 X8.3933 Y40.2623
G01 X8.3983 Y40.2602
G01 X8.5391 Y40.2098
G01 X8.5442 Y40.2083
G01 X8.6893 Y40.1719
G01 X8.6946 Y40.1709
G01 X8.8426 Y40.1489
G01 X8.8479 Y40.1484
G01 X8.9973 Y40.1411
G01 X9.0027 Y40.1411
G01 X9.1521 Y40.1484
G01 X9.1574 Y40.1489
G01 X9.3054 Y40.1709
G01 X9.3107 Y40.1719
G01 X9.4558 Y40.2083
G01 X9.4609 Y40.2098
G01 X9.6017 Y40.2602
G01 X9.6067 Y40.2623
G01 X9.7419 Y40.3262
G01 X9.7467 Y40.3288
G01 X9.8750 Y40.4057
G01 X9.8795 Y40.4087
G01 X9.9996 Y40.4978
G01 X10.0038 Y40.5012
G01 X10.1146 Y40.6016
G01 X10.1184 Y40.6054
G01 X10.2188 Y40.7162
G01 X10.2222 Y40.7204
G01 X10.3113 Y40.8405
G01 X10.3488 Y40.9026
G01 X11.9232 Y40.9026
G01 X12.0006 Y40.9064
G01 X12.0800 Y40.9179
G01 X12.0853 Y40.9189
G01 X12.1630 Y40.9387
G01 X12.2384 Y40.9659
G01 X12.3061 Y40.9979
G01 X12.3750 Y41.0389
G01 X12.4396 Y41.0865
G01 X12.4438 Y41.0899
G01 X12.5011 Y41.1420
G01 X15.0133 Y43.6542
G01 X18.5023 Y43.6542
G01 X19.5466 Y42.6099
G01 X19.5466 Y41.0360
G01 X19.5504 Y40.9586
G01 X19.5619 Y40.8792
G01 X19.5811 Y40.8013
G01 X19.5827 Y40.7961
G01 X19.6100 Y40.7207
G01 X19.6419 Y40.6531
G01 X19.6445 Y40.6483
G01 X19.6859 Y40.5797
G01 X19.7339 Y40.5154
G01 X19.7860 Y40.4580
G01 X19.8894 Y40.3547
G01 X19.8975 Y40.3234
G01 X19.9269 Y40.2413
G01 X19.9663 Y40.1574
G01 X20.0136 Y40.0778
G01 X20.0686 Y40.0033
G01 X20.0720 Y39.9991
G01 X20.1344 Y39.9306
G01 X20.2033 Y39.8686
G01 X20.2778 Y39.8136
G01 X20.3527 Y39.7688
G01 X20.4363 Y39.7290
G01 X20.4413 Y39.7269
G01 X20.5286 Y39.6959
G01 X20.6185 Y39.6737
G01 X20.7102 Y39.6603
G01 X20.8027 Y39.6561
G01 X20.8952 Y39.6609
G01 X20.9868 Y39.6747
G01 X21.0714 Y39.6959
G01 X21.1587 Y39.7269
G01 X21.1637 Y39.7290
G01 X21.2426 Y39.7663
G01 X21.2704 Y39.7826
G01 X27.0890 Y39.7826
G01 X27.0890 Y39.4840
G01 X27.0893 Y39.4786
G01 X27.0901 Y39.4733
G01 X27.0914 Y39.4680
G01 X27.0932 Y39.4630
G01 X27.0955 Y39.4581
G01 X27.0983 Y39.4534
G01 X27.1015 Y39.4491
G01 X27.1051 Y39.4451
G01 X27.1091 Y39.4415
G01 X27.1134 Y39.4383
G01 X27.1181 Y39.4355
G01 X27.1230 Y39.4332
G01 X27.1280 Y39.4314
G01 X27.1333 Y39.4301
G01 X27.1386 Y39.4293
G01 X27.1440 Y39.4290
G01 X28.2296 Y39.4290
G01 X28.2411 Y39.4248
G01 X28.3139 Y39.4041
G01 X28.3192 Y39.4029
G01 X28.3938 Y39.3896
G01 X28.3992 Y39.3889
G01 X28.4746 Y39.3831
G01 X28.4801 Y39.3829
G01 X28.5558 Y39.3846
G01 X28.5612 Y39.3850
G01 X28.6364 Y39.3941
G01 X28.6418 Y39.3951
G01 X28.7156 Y39.4116
G01 X28.7689 Y39.4290
G01 X29.1760 Y39.4290
G01 X29.1814 Y39.4293
G01 X29.1867 Y39.4301
G01 X29.1920 Y39.4314
G01 X29.1970 Y39.4332
G01 X29.2019 Y39.4355
G01 X29.2066 Y39.4383
G01 X29.2109 Y39.4415
G01 X29.2149 Y39.4451
G01 X29.2185 Y39.4491
G01 X29.2217 Y39.4534
G01 X29.2245 Y39.4581
G01 X29.2268 Y39.4630
G01 X29.2286 Y39.4680
G01 X29.2299 Y39.4733
G01 X29.2307 Y39.4786
G01 X29.2310 Y39.4840
G01 X29.2310 Y39.8364
G01 X29.2518 Y39.8793
G01 X29.2782 Y39.9502
G01 X29.2799 Y39.9554
G01 X29.2992 Y40.0286
G01 X29.3003 Y40.0340
G01 X29.3122 Y40.1087
G01 X29.3128 Y40.1142
G01 X29.3173 Y40.1897
G01 X29.3173 Y40.1952
G01 X29.3142 Y40.2708
G01 X29.3138 Y40.2763
G01 X29.3032 Y40.3512
G01 X29.3022 Y40.3566
G01 X29.2843 Y40.4301
G01 X29.2827 Y40.4354
G01 X29.2576 Y40.5068
G01 X29.2310 Y40.5642
G01 X29.2310 Y41.5160
G01 X29.2307 Y41.5214
G01 X29.2299 Y41.5267
G01 X29.2286 Y41.5320
G01 X29.2268 Y41.5370
G01 X29.2245 Y41.5419
G01 X29.2217 Y41.5466
G01 X29.2185 Y41.5509
G01 X29.2149 Y41.5549
G01 X29.2109 Y41.5585
G01 X29.2066 Y41.5617
G01 X29.2019 Y41.5645
G01 X29.1970 Y41.5668
G01 X29.1920 Y41.5686
G01 X29.1867 Y41.5699
G01 X29.1814 Y41.5707
G01 X29.1760 Y41.5710
G01 X28.9774 Y41.5710
G01 X28.9774 Y44.4350
G01 X33.3936 Y48.8513
G01 X41.7546 Y48.8513
G01 X41.8380 Y48.7757
G01 X41.8421 Y48.7723
G01 X41.9322 Y48.7055
G01 X41.9367 Y48.7025
G01 X42.0329 Y48.6448
G01 X42.0377 Y48.6422
G01 X42.1391 Y48.5943
G01 X42.1441 Y48.5922
G01 X42.2497 Y48.5544
G01 X42.2548 Y48.5529
G01 X42.3636 Y48.5256
G01 X42.3689 Y48.5246
G01 X42.4799 Y48.5081
G01 X42.4853 Y48.5076
G01 X42.5973 Y48.5021
G01 X42.6027 Y48.5021
G01 X42.7147 Y48.5076
G01 X42.7201 Y48.5081
G01 X42.8311 Y48.5246
G01 X42.8364 Y48.5256
G01 X42.9452 Y48.5529
G01 X42.9503 Y48.5544
G01 X43.0559 Y48.5922
G01 X43.0609 Y48.5943
G01 X43.1623 Y48.6422
G01 X43.1671 Y48.6448
G01 X43.2633 Y48.7025
G01 X43.2678 Y48.7055
G01 X43.3579 Y48.7723
G01 X43.3620 Y48.7757
G01 X43.4452 Y48.8510
G01 X43.4490 Y48.8548
G01 X43.5243 Y48.9380
G01 X43.5277 Y48.9421
G01 X43.5945 Y49.0322
G01 X43.5975 Y49.0367
G01 X43.6552 Y49.1329
G01 X43.6578 Y49.1377
G01 X43.7057 Y49.2391
G01 X43.7078 Y49.2441
G01 X43.7456 Y49.3497
G01 X43.7471 Y49.3548
G01 X43.7744 Y49.4636
G01 X43.7754 Y49.4689
G01 X43.7919 Y49.5799
G01 X43.7924 Y49.5853
G01 X43.7979 Y49.6973
G01 X43.7979 Y49.7027
G01 X43.7924 Y49.8147
G01 X43.7919 Y49.8201
G01 X43.7754 Y49.9311
G01 X43.7744 Y49.9364
G01 X43.7471 Y50.0452
G01 X43.7456 Y50.0503
G01 X43.7078 Y50.1559
G01 X43.7057 Y50.1609
G01 X43.6578 Y50.2623
G01 X43.6552 Y50.2671
G01 X43.5975 Y50.3633
G01 X43.5945 Y50.3678
G01 X43.5277 Y50.4579
G01 X43.5243 Y50.4620
G01 X43.4490 Y50.5452
G01 X43.4452 Y50.5490
G01 X43.3620 Y50.6243
G01 X43.3579 Y50.6277
G01 X43.2678 Y50.6945
G01 X43.2633 Y50.6975
G01 X43.1671 Y50.7552
G01 X43.1623 Y50.7578
G01 X43.0609 Y50.8057
G01 X43.0559 Y50.8078
G01 X42.9503 Y50.8456
G01 X42.9452 Y50.8471
G01 X42.8364 Y50.8744
G01 X42.8311 Y50.8754
G01 X42.7201 Y50.8919
G01 X42.7147 Y50.8924
G01 X42.6027 Y50.8979
G01 X42.5973 Y50.8979
G01 X42.4853 Y50.8924
G01 X42.4799 Y50.8919
G01 X42.3689 Y50.8754
G01 X42.3636 Y50.8744
G01 X42.2548 Y50.8471
G01 X42.2497 Y50.8456
G01 X42.1441 Y50.8078
G01 X42.1391 Y50.8057
G01 X42.0377 Y50.7578
G01 X42.0329 Y50.7552
G01 X41.9367 Y50.6975
G01 X41.9322 Y50.6945
G01 X41.8421 Y50.6277
G01 X41.8380 Y50.6243
G01 X41.7548 Y50.5490
G01 X41.6975 Y50.4861
G01 X33.0551 Y50.4861
G01 X32.9776 Y50.4823
G01 X32.8983 Y50.4708
G01 X32.8204 Y50.4516
G01 X32.7448 Y50.4248
G01 X32.6722 Y50.3908
G01 X32.6032 Y50.3498
G01 X32.5386 Y50.3022
G01 X32.5345 Y50.2988
G01 X32.4771 Y50.2467
G01 X27.5820 Y45.3516
G01 X27.5299 Y45.2942
G01 X27.5265 Y45.2900
G01 X27.4789 Y45.2255
G01 X27.4405 Y45.1613
G01 X27.4059 Y45.0889
G01 X27.4039 Y45.0839
G01 X27.3771 Y45.0083
G01 X27.3589 Y44.9357
G01 X27.3469 Y44.8564
G01 X27.3427 Y44.7763
G01 X27.3426 Y41.5710
G01 X27.1440 Y41.5710
G01 X27.1386 Y41.5707
G01 X27.1333 Y41.5699
G01 X27.1280 Y41.5686
G01 X27.1230 Y41.5668
G01 X27.1181 Y41.5645
G01 X27.1134 Y41.5617
G01 X27.1091 Y41.5585
G01 X27.1051 Y41.5549
G01 X27.1015 Y41.5509
G01 X27.0983 Y41.5466
G01 X27.0955 Y41.5419
G01 X27.0932 Y41.5370
G01 X27.0914 Y41.5320
G01 X27.0901 Y41.5267
G01 X27.0893 Y41.5214
G01 X27.0890 Y41.5160
G01 X27.0890 Y41.4174
G01 X21.2704 Y41.4174
G01 X21.2426 Y41.4337
G01 X21.1814 Y41.4627
G00 Z2.0000
G00 X15.0400 Y46.2550
G01 F25.00
G01 Z-0.0187
G01 F45.00
G01 X15.1079 Y46.1875
G01 X15.1122 Y46.1843
G01 X15.1169 Y46.1815
G01 X15.1218 Y46.1792
G01 X15.1268 Y46.1774
G01 X15.1321 Y46.1761
G01 X15.1374 Y46.1753
G01 X15.1428 Y46.1750
G01 X16.0572 Y46.1750
G01 X16.0626 Y46.1753
G01 X16.0679 Y46.1761
G01 X16.0732 Y46.1774
G01 X16.0782 Y46.1792
G01 X16.0831 Y46.1815
G01 X16.0878 Y46.1843
G01 X16.0921 Y46.1875
G01 X16.0961 Y46.1911
G01 X16.4009 Y46.4959
G01 X16.4045 Y46.4999
G01 X16.4077 Y46.5042
G01 X16.4105 Y46.5089
G01 X16.4128 Y46.5138
G01 X16.4146 Y46.5188
G01 X16.4159 Y46.5241
G01 X16.4167 Y46.5294
G01 X16.4170 Y46.5348
G01 X16.4170 Y48.4652
G01 X16.4167 Y48.4706
G01 X16.4159 Y48.4759
G01 X16.4146 Y48.4812
G01 X16.4128 Y48.4862
G01 X16.4105 Y48.4911
G01 X16.4077 Y48.4958
G01 X16.4045 Y48.5001
G01 X16.4009 Y48.5041
G01 X16.0961 Y48.8089
G01 X16.0921 Y48.8125
G01 X16.0878 Y48.8157
G01 X16.0831 Y48.8185
G01 X16.0782 Y48.8208
G01 X16.0732 Y48.8226
G01 X16.0679 Y48.8239
G01 X16.0626 Y48.8247
G01 X16.0572 Y48.8250
G01 X15.1428 Y48.8250
G01 X15.1374 Y48.8247
G01 X15.1321 Y48.8239
G01 X15.1268 Y48.8226
G01 X15.1218 Y48.8208
G01 X15.1169 Y48.8185
G01 X15.1122 Y48.8157
G01 X15.1079 Y48.8125
G01 X15.1039 Y48.8089
G01 X14.7991 Y48.5041
G01 X14.7955 Y48.5001
G01 X14.7923 Y48.4958
G01 X14.7895 Y48.4911
G01 X14.7872 Y48.4862
G01 X14.7854 Y48.4812
G01 X14.7841 Y48.4759
G01 X14.7833 Y48.4706
G01 X14.7830 Y48.4652
G01 X14.7830 Y47.4796
G01 X14.6667 Y47.3633
G01 X10.4735 Y47.3633
G01 X10.4577 Y47.4067
G01 X10.3938 Y47.5419
G01 X10.3912 Y47.5467
G01 X10.3143 Y47.6750
G01 X10.3113 Y47.6795
G01 X10.2222 Y47.7996
G01 X10.2188 Y47.8038
G01 X10.1184 Y47.9146
G01 X10.1146 Y47.9184
G01 X10.0038 Y48.0188
G01 X9.9996 Y48.0222
G01 X9.8795 Y48.1113
G01 X9.8750 Y48.1143
G01 X9.7467 Y48.1912
G01 X9.7419 Y48.1938
G01 X9.6067 Y48.2577
G01 X9.6017 Y48.2598
G01 X9.4609 Y48.3102
G01 X9.4558 Y48.3117
G01 X9.3107 Y48.3481
G01 X9.3054 Y48.3491
G01 X9.1574 Y48.3711
G01 X9.1521 Y48.3716
G01 X9.0027 Y48.3789
G01 X8.9973 Y48.3789
G01 X8.8479 Y48.3716
G01 X8.8426 Y48.3711
G01 X8.6946 Y48.3491
G01 X8.6893 Y48.3481
G01 X8.5442 Y48.3117
G01 X8.5391 Y48.3102
G01 X8.3983 Y48.2598
G01 X8.3933 Y48.2577
G01 X8.2581 Y48.1938
G01 X8.2533 Y48.1912
G01 X8.1250 Y48.1143
G01 X8.1205 Y48.1113
G01 X8.0004 Y48.0222
G01 X7.9962 Y48.0188
G01 X7.8854 Y47.9184
G01 X7.8816 Y47.9146
G01 X7.7812 Y47.8038
G01 X7.7778 Y47.7996
G01 X7.6887 Y47.6795
G01 X7.6857 Y47.6750
G01 X7.6088 Y47.5467
G01 X7.6062 Y47.5419
G01 X7.5423 Y47.4067
G01 X7.5402 Y47.4017
G01 X7.4898 Y47.2609
G01 X7.4883 Y47.2558
G01 X7.4519 Y47.1107
G01 X7.4509 Y47.1054
G01 X7.4289 Y46.9574
G01 X7.4284 Y46.9521
G01 X7.4211 Y46.8027
G01 X7.4211 Y46.7973
G01 X7.4284 Y46.6479
G01 X7.4289 Y46.6426
G01 X7.4509 Y46.4946
G01 X7.4519 Y46.4893
G01 X7.4883 Y46.3442
G01 X7.4898 Y46.3391
G01 X7.5402 Y46.1983
G01 X7.5423 Y46.1933
G01 X7.6062 Y46.0581
G01 X7.6088 Y46.0533
G01 X7.6857 Y45.9250
G01 X7.6887 Y45.9205
G01 X7.7778 Y45.8004
G01 X7.7812 Y45.7962
G01 X7.8816 Y45.6854
G01 X7.8854 Y45.6816
G01 X7.9962 Y45.5812
G01 X8.0004 Y45.5778
G01 X8.1205 Y45.4887
G01 X8.1250 Y45.4857
G01 X8.2533 Y45.4088
G01 X8.2581 Y45.4062
G01 X8.3933 Y45.3423
G01 X8.3983 Y45.3402
G01 X8.5391 Y45.2898
G01 X8.5442 Y45.2883
G01 X8.6893 Y45.2519
G01 X8.6946 Y45.2509
G01 X8.8426 Y45.2289
G01 X8.8479 Y45.2284
G01 X8.9973 Y45.2211
G01 X9.0027 Y45.2211
G01 X9.1521 Y45.2284
G01 X9.1574 Y45.2289
G01 X9.3054 Y45.2509
G01 X9.3107 Y45.2519
G01 X9.4558 Y45.2883
G01 X9.4609 Y45.2898
G01 X9.6017 Y45.3402
G01 X9.6067 Y45.3423
G01 X9.7419 Y45.4062
G01 X9.7467 Y45.4088
G01 X9.8750 Y45.4857
G01 X9.8795 Y45.4887
G01 X9.9996 Y45.5778
G01 X10.0038 Y45.5812
G01 X10.1146 Y45.6816
G01 X10.1184 Y45.6854
G01 X10.2188 Y45.7962
G01 X10.2222 Y45.8004
G01 X10.3113 Y45.9205
G01 X10.3143 Y45.9250
G01 X10.3912 Y46.0533
G01 X10.3938 Y46.0581
G01 X10.4577 Y46.1933
G01 X10.4735 Y46.2367
G01 X14.9000 Y46.2367
G01 X14.9579 Y46.2398
G01 X15.0072 Y46.2471
G01 X15.0400 Y46.2550
G00 Z2.0000
G00 X16.9656 Y55.5097
G01 F25.00
G01 Z-0.0187
G01 F45.00
G01 X16.9926 Y55.4532
G01 X17.0341 Y55.3845
G01 X17.0821 Y55.3203
G01 X17.1342 Y55.2629
G01 X18.7876 Y53.6096
G01 X18.8430 Y53.5593
G01 X18.9073 Y53.5113
G01 X18.9759 Y53.4699
G01 X18.9807 Y53.4673
G01 X19.0483 Y53.4353
G01 X19.1238 Y53.4081
G01 X19.2015 Y53.3883
G01 X19.2808 Y53.3763
G01 X19.2862 Y53.3758
G01 X19.3636 Y53.3720
G01 X35.1494 Y53.3720
G01 X35.2268 Y53.3758
G01 X35.2322 Y53.3763
G01 X35.3115 Y53.3883
G01 X35.3892 Y53.4081
G01 X35.4597 Y53.4333
G01 X35.5323 Y53.4673
G01 X35.5371 Y53.4699
G01 X35.6057 Y53.5113
G01 X35.6658 Y53.5559
G01 X35.6700 Y53.5593
G01 X35.7274 Y53.6114
G01 X42.6599 Y60.5439
G01 X42.7027 Y60.5421
G01 X42.8147 Y60.5476
G01 X42.8201 Y60.5481
G01 X42.9311 Y60.5646
G01 X42.9364 Y60.5656
G01 X43.0452 Y60.5929
G01 X43.0503 Y60.5944
G01 X43.1559 Y60.6322
G01 X43.1609 Y60.6343
G01 X43.2623 Y60.6822
G01 X43.2671 Y60.6848
G01 X43.3633 Y60.7425
G01 X43.3678 Y60.7455
G01 X43.4579 Y60.8123
G01 X43.4620 Y60.8157
G01 X43.5452 Y60.8910
G01 X43.5490 Y60.8948
G01 X43.6243 Y60.9780
G01 X43.6277 Y60.9821
G01 X43.6945 Y61.0722
G01 X43.6975 Y61.0767
G01 X43.7552 Y61.1729
G01 X43.7578 Y61.1777
G01 X43.8057 Y61.2791
G01 X43.8078 Y61.2841
G01 X43.8456 Y61.3897
G01 X43.8471 Y61.3948
G01 X43.8744 Y61.5036
G01 X43.8754 Y61.5089
G01 X43.8919 Y61.6199
G01 X43.8924 Y61.6253
G01 X43.8979 Y61.7373
G01 X43.8979 Y61.7427
G01 X43.8924 Y61.8547
G01 X43.8919 Y61.8601
G01 X43.8754 Y61.9711
G01 X43.8744 Y61.9764
G01 X43.8471 Y62.0852
G01 X43.8456 Y62.0903
G01 X43.8078 Y62.1959
G01 X43.8057 Y62.2009
G01 X43.7578 Y62.3023
G01 X43.7552 Y62.3071
G01 X43.6975 Y62.4033
G01 X43.6945 Y62.4078
G01 X43.6277 Y62.4979
G01 X43.6243 Y62.5020
G01 X43.5490 Y62.5852
G01 X43.5452 Y62.5890
G01 X43.4620 Y62.6643
G01 X43.4579 Y62.6677
G01 X43.3678 Y62.7345
G01 X43.3633 Y62.7375
G01 X43.2671 Y62.7952
G01 X43.2623 Y62.7978
G01 X43.1609 Y62.8457
G01 X43.1559 Y62.8478
G01 X43.0503 Y62.8856
G01 X43.0452 Y62.8871
G01 X42.9364 Y62.9144
G01 X42.9311 Y62.9154
G01 X42.8201 Y62.9319
G01 X42.8147 Y62.9324
G01 X42.7027 Y62.9379
G01 X42.6973 Y62.9379
G01 X42.5853 Y62.9324
G01 X42.5799 Y62.9319
G01 X42.4689 Y62.9154
G01 X42.4636 Y62.9144
G01 X42.3548 Y62.8871
G01 X42.3497 Y62.8856
G01 X42.2441 Y62.8478
G01 X42.2391 Y62.8457
G01 X42.1377 Y62.7978
G01 X42.1329 Y62.7952
G01 X42.0367 Y62.7375
G01 X42.0322 Y62.7345
G01 X41.9421 Y62.6677
G01 X41.9380 Y62.6643
G01 X41.8548 Y62.5890
G01 X41.8510 Y62.5852
G01 X41.7757 Y62.5020
G01 X41.7723 Y62.4979
G01 X41.7055 Y62.4078
G01 X41.7025 Y62.4033
G01 X41.6448 Y62.3071
G01 X41.6422 Y62.3023
G01 X41.5943 Y62.2009
G01 X41.5922 Y62.1959
G01 X41.5544 Y62.0903
G01 X41.5529 Y62.0852
G01 X41.5256 Y61.9764
G01 X41.5246 Y61.9711
G01 X41.5081 Y61.8601
G01 X41.5076 Y61.8547
G01 X41.5021 Y61.7427
G01 X41.5039 Y61.6999
G01 X34.8108 Y55.0068
G01 X29.0606 Y55.0068
G01 X29.0606 Y56.6290
G01 X29.0760 Y56.6290
G01 X29.0814 Y56.6293
G01 X29.0867 Y56.6301
G01 X29.0920 Y56.6314
G01 X29.0970 Y56.6332
G01 X29.1019 Y56.6355
G01 X29.1066 Y56.6383
G01 X29.1109 Y56.6415
G01 X29.1149 Y56.6451
G01 X29.1185 Y56.6491
G01 X29.1217 Y56.6534
G01 X29.1245 Y56.6581
G01 X29.1268 Y56.6630
G01 X29.1286 Y56.6680
G01 X29.1299 Y56.6733
G01 X29.1307 Y56.6786
G01 X29.1310 Y56.6840
G01 X29.1310 Y58.7160
G01 X29.1307 Y58.7214
G01 X29.1299 Y58.7267
G01 X29.1286 Y58.7320
G01 X29.1268 Y58.7370
G01 X29.1245 Y58.7419
G01 X29.1217 Y58.7466
G01 X29.1185 Y58.7509
G01 X29.1149 Y58.7549
G01 X29.1109 Y58.7585
G01 X29.1066 Y58.7617
G01 X29.1019 Y58.7645
G01 X29.0970 Y58.7668
G01 X29.0920 Y58.7686
G01 X29.0867 Y58.7699
G01 X29.0814 Y58.7707
G01 X29.0760 Y58.7710
G01 X28.5698 Y58.7710
G01 X28.5306 Y58.8101
G01 X28.4751 Y58.8604
G01 X28.4109 Y58.9084
G01 X28.3422 Y58.9498
G01 X28.2698 Y58.9844
G01 X28.1944 Y59.0116
G01 X28.1167 Y59.0314
G01 X28.0374 Y59.0434
G01 X27.9573 Y59.0476
G01 X27.9519 Y59.0476
G01 X27.8718 Y59.0434
G01 X27.7925 Y59.0314
G01 X27.7147 Y59.0117
G01 X27.6393 Y58.9844
G01 X27.5669 Y58.9499
G01 X27.4983 Y58.9084
G01 X27.4340 Y58.8604
G01 X27.3786 Y58.8102
G01 X27.3427 Y58.7710
G01 X27.0440 Y58.7710
G01 X27.0386 Y58.7707
G01 X27.0333 Y58.7699
G01 X27.0280 Y58.7686
G01 X27.0230 Y58.7668
G01 X27.0181 Y58.7645
G01 X27.0134 Y58.7617
G01 X27.0091 Y58.7585
G01 X27.0051 Y58.7549
G01 X27.0015 Y58.7509
G01 X26.9983 Y58.7466
G01 X26.9955 Y58.7419
G01 X26.9932 Y58.7370
G01 X26.9914 Y58.7320
G01 X26.9901 Y58.7267
G01 X26.9893 Y58.7214
G01 X26.9890 Y58.7160
G01 X26.9890 Y56.6840
G01 X26.9893 Y56.6786
G01 X26.9901 Y56.6733
G01 X26.9914 Y56.6680
G01 X26.9932 Y56.6630
G01 X26.9955 Y56.6581
G01 X26.9983 Y56.6534
G01 X27.0015 Y56.6491
G01 X27.0051 Y56.6451
G01 X27.0091 Y56.6415
G01 X27.0134 Y56.6383
G01 X27.0181 Y56.6355
G01 X27.0230 Y56.6332
G01 X27.0280 Y56.6314
G01 X27.0333 Y56.6301
G01 X27.0386 Y56.6293
G01 X27.0440 Y56.6290
G01 X27.4258 Y56.6290
G01 X27.4258 Y55.0068
G01 X19.7022 Y55.0068
G01 X18.5295 Y56.1794
G01 X18.5295 Y56.9010
G01 X18.5834 Y56.9733
G01 X18.6312 Y57.0527
G01 X18.6337 Y57.0574
G01 X18.6731 Y57.1413
G01 X18.7025 Y57.2234
G01 X18.7253 Y57.3132
G01 X18.7263 Y57.3185
G01 X18.7397 Y57.4102
G01 X18.7439 Y57.5027
G01 X18.7397 Y57.5898
G01 X18.7391 Y57.5952
G01 X18.7253 Y57.6868
G01 X18.7041 Y57.7714
G01 X18.6731 Y57.8587
G01 X18.6337 Y57.9426
G01 X18.6312 Y57.9473
G01 X18.5834 Y58.0267
G01 X18.5314 Y58.0967
G01 X18.5280 Y58.1009
G01 X18.4656 Y58.1694
G01 X18.4009 Y58.2280
G01 X18.3267 Y58.2834
G01 X18.2473 Y58.3312
G01 X18.1637 Y58.3710
G01 X18.1587 Y58.3731
G01 X18.0714 Y58.4041
G01 X17.9868 Y58.4253
G01 X17.8952 Y58.4391
G01 X17.8898 Y58.4397
G01 X17.7973 Y58.4439
G01 X17.7048 Y58.4391
G01 X17.6132 Y58.4253
G01 X17.5286 Y58.4041
G01 X17.4413 Y58.3731
G01 X17.3574 Y58.3337
G01 X17.2778 Y58.2864
G01 X17.2033 Y58.2314
G01 X17.1344 Y58.1694
G01 X17.1306 Y58.1656
G01 X17.0686 Y58.0967
G01 X17.0166 Y58.0267
G01 X16.9688 Y57.9473
G01 X16.9663 Y57.9426
G01 X16.9269 Y57.8587
G01 X16.8975 Y57.7766
G01 X16.8894 Y57.7453
G01 X14.6014 Y55.4574
G01 X10.0488 Y55.4574
G01 X10.0113 Y55.5195
G01 X9.9222 Y55.6396
G01 X9.9188 Y55.6438
G01 X9.8184 Y55.7546
G01 X9.8146 Y55.7584
G01 X9.7038 Y55.8588
G01 X9.6996 Y55.8622
G01 X9.5795 Y55.9513
G01 X9.5750 Y55.9543
G01 X9.4467 Y56.0312
G01 X9.4419 Y56.0338
G01 X9.3067 Y56.0977
G01 X9.3017 Y56.0998
G01 X9.1609 Y56.1502
G01 X9.1558 Y56.1517
G01 X9.0107 Y56.1881
G01 X9.0054 Y56.1891
G01 X8.8574 Y56.2111
G01 X8.8521 Y56.2116
G01 X8.7027 Y56.2189
G01 X8.6973 Y56.2189
G01 X8.5479 Y56.2116
G01 X8.5426 Y56.2111
G01 X8.3946 Y56.1891
G01 X8.3893 Y56.1881
G01 X8.2442 Y56.1517
G01 X8.2391 Y56.1502
G01 X8.0983 Y56.0998
G01 X8.0933 Y56.0977
G01 X7.9581 Y56.0338
G01 X7.9533 Y56.0312
G01 X7.8250 Y55.9543
G01 X7.8205 Y55.9513
G01 X7.7004 Y55.8622
G01 X7.6962 Y55.8588
G01 X7.5854 Y55.7584
G01 X7.5816 Y55.7546
G01 X7.4812 Y55.6438
G01 X7.4778 Y55.6396
G01 X7.3887 Y55.5195
G01 X7.3857 Y55.5150
G01 X7.3088 Y55.3867
G01 X7.3062 Y55.3819
G01 X7.2423 Y55.2467
G01 X7.2402 Y55.2417
G01 X7.1898 Y55.1009
G01 X7.1883 Y55.0958
G01 X7.1519 Y54.9507
G01 X7.1509 Y54.9454
G01 X7.1289 Y54.7974
G01 X7.1284 Y54.7921
G01 X7.1211 Y54.6427
G01 X7.1211 Y54.6373
G01 X7.1284 Y54.4879
G01 X7.1289 Y54.4826
G01 X7.1509 Y54.3346
G01 X7.1519 Y54.3293
G01 X7.1883 Y54.1842
G01 X7.1898 Y54.1791
G01 X7.2402 Y54.0383
G01 X7.2423 Y54.0333
G01 X7.3062 Y53.8981
G01 X7.3088 Y53.8933
G01 X7.3857 Y53.7650
G01 X7.3887 Y53.7605
G01 X7.4778 Y53.6404
G01 X7.4812 Y53.6362
G01 X7.5816 Y53.5254
G01 X7.5854 Y53.5216
G01 X7.6962 Y53.4212
G01 X7.7004 Y53.4178
G01 X7.8205 Y53.3287
G01 X7.8250 Y53.3257
G01 X7.9533 Y53.2488
G01 X7.9581 Y53.2462
G01 X8.0933 Y53.1823
G01 X8.0983 Y53.1802
G01 X8.2391 Y53.1298
G01 X8.2442 Y53.1283
G01 X8.3893 Y53.0919
G01 X8.3946 Y53.0909
G01 X8.5426 Y53.0689
G01 X8.5479 Y53.0684
G01 X8.6973 Y53.0611
G01 X8.7027 Y53.0611
G01 X8.8521 Y53.0684
G01 X8.8574 Y53.0689
G01 X9.0054 Y53.0909
G01 X9.0107 Y53.0919
G01 X9.1558 Y53.1283
G01 X9.1609 Y53.1298
G01 X9.3017 Y53.1802
G01 X9.3067 Y53.1823
G01 X9.4419 Y53.2462
G01 X9.4467 Y53.2488
G01 X9.5750 Y53.3257
G01 X9.5795 Y53.3287
G01 X9.6996 Y53.4178
G01 X9.7038 Y53.4212
G01 X9.8146 Y53.5216
G01 X9.8184 Y53.5254
G01 X9.9188 Y53.6362
G01 X9.9222 Y53.6404
G01 X10.0113 Y53.7605
G01 X10.0488 Y53.8226
G01 X14.9400 Y53.8226
G01 X15.0174 Y53.8264
G01 X15.0228 Y53.8269
G01 X15.1021 Y53.8389
G01 X15.1747 Y53.8571
G01 X15.2503 Y53.8839
G01 X15.2553 Y53.8859
G01 X15.3277 Y53.9205
G01 X15.3963 Y53.9619
G01 X15.4564 Y54.0065
G01 X15.5160 Y54.0602
G01 X16.9656 Y55.5097
G00 Z2.0000
G00 X16.5170 Y65.4652
G01 F25.00
G01 Z-0.0187
G01 F45.00
G01 X16.5167 Y65.4706
G01 X16.5159 Y65.4759
G01 X16.5146 Y65.4812
G01 X16.5128 Y65.4862
G01 X16.5105 Y65.4911
G01 X16.5077 Y65.4958
G01 X16.5045 Y65.5001
G01 X16.5009 Y65.5041
G01 X16.1961 Y65.8089
G01 X16.1921 Y65.8125
G01 X16.1878 Y65.8157
G01 X16.1831 Y65.8185
G01 X16.1782 Y65.8208
G01 X16.1732 Y65.8226
G01 X16.1679 Y65.8239
G01 X16.1626 Y65.8247
G01 X16.1572 Y65.8250
G01 X15.2428 Y65.8250
G01 X15.2374 Y65.8247
G01 X15.2321 Y65.8239
G01 X15.2268 Y65.8226
G01 X15.2218 Y65.8208
G01 X15.2169 Y65.8185
G01 X15.2122 Y65.8157
G01 X15.2079 Y65.8125
G01 X15.2039 Y65.8089
G01 X14.8991 Y65.5041
G01 X14.8955 Y65.5001
G01 X14.8923 Y65.4958
G01 X14.8895 Y65.4911
G01 X14.8872 Y65.4862
G01 X14.8854 Y65.4812
G01 X14.8841 Y65.4759
G01 X14.8833 Y65.4706
G01 X14.8830 Y65.4652
G01 X14.8830 Y64.4796
G01 X10.6867 Y60.2833
G01 X10.1735 Y60.2833
G01 X10.1577 Y60.3267
G01 X10.0938 Y60.4619
G01 X10.0912 Y60.4667
G01 X10.0143 Y60.5950
G01 X10.0113 Y60.5995
G01 X9.9222 Y60.7196
G01 X9.9188 Y60.7238
G01 X9.8184 Y60.8346
G01 X9.8146 Y60.8384
G01 X9.7038 Y60.9388
G01 X9.6996 Y60.9422
G01 X9.5795 Y61.0313
G01 X9.5750 Y61.0343
G01 X9.4467 Y61.1112
G01 X9.4419 Y61.1138
G01 X9.3067 Y61.1777
G01 X9.3017 Y61.1798
G01 X9.1609 Y61.2302
G01 X9.1558 Y61.2317
G01 X9.0107 Y61.2681
G01 X9.0054 Y61.2691
G01 X8.8574 Y61.2911
G01 X8.8521 Y61.2916
G01 X8.7027 Y61.2989
G01 X8.6973 Y61.2989
G01 X8.5479 Y61.2916
G01 X8.5426 Y61.2911
G01 X8.3946 Y61.2691
G01 X8.3893 Y61.2681
G01 X8.2442 Y61.2317
G01 X8.2391 Y61.2302
G01 X8.0983 Y61.1798
G01 X8.0933 Y61.1777
G01 X7.9581 Y61.1138
G01 X7.9533 Y61.1112
G01 X7.8250 Y61.0343
G01 X7.8205 Y61.0313
G01 X7.7004 Y60.9422
G01 X7.6962 Y60.9388
G01 X7.5854 Y60.8384
G01 X7.5816 Y60.8346
G01 X7.4812 Y60.7238
G01 X7.4778 Y60.7196
G01 X7.3887 Y60.5995
G01 X7.3857 Y60.5950
G01 X7.3088 Y60.4667
G01 X7.3062 Y60.4619
G01 X7.2423 Y60.3267
G01 X7.2402 Y60.3217
G01 X7.1898 Y60.1809
G01 X7.1883 Y60.1758
G01 X7.1519 Y60.0307
G01 X7.1509 Y60.0254
G01 X7.1289 Y59.8774
G01 X7.1284 Y59.8721
G01 X7.1211 Y59.7227
G01 X7.1211 Y59.7173
G01 X7.1284 Y59.5679
G01 X7.1289 Y59.5626
G01 X7.1509 Y59.4146
G01 X7.1519 Y59.4093
G01 X7.1883 Y59.2642
G01 X7.1898 Y59.2591
G01 X7.2402 Y59.1183
G01 X7.2423 Y59.1133
G01 X7.3062 Y58.9781
G01 X7.3088 Y58.9733
G01 X7.3857 Y58.8450
G01 X7.3887 Y58.8405
G01 X7.4778 Y58.7204
G01 X7.4812 Y58.7162
G01 X7.5816 Y58.6054
G01 X7.5854 Y58.6016
G01 X7.6962 Y58.5012
G01 X7.7004 Y58.4978
G01 X7.8205 Y58.4087
G01 X7.8250 Y58.4057
G01 X7.9533 Y58.3288
G01 X7.9581 Y58.3262
G01 X8.0933 Y58.2623
G01 X8.0983 Y58.2602
G01 X8.2391 Y58.2098
G01 X8.2442 Y58.2083
G01 X8.3893 Y58.1719
G01 X8.3946 Y58.1709
G01 X8.5426 Y58.1489
G01 X8.5479 Y58.1484
G01 X8.6973 Y58.1411
G01 X8.7027 Y58.1411
G01 X8.8521 Y58.1484
G01 X8.8574 Y58.1489
G01 X9.0054 Y58.1709
G01 X9.0107 Y58.1719
G01 X9.1558 Y58.2083
G01 X9.1609 Y58.2098
G01 X9.3017 Y58.2602
G01 X9.3067 Y58.2623
G01 X9.4419 Y58.3262
G01 X9.4467 Y58.3288
G01 X9.5750 Y58.4057
G01 X9.5795 Y58.4087
G01 X9.6996 Y58.4978
G01 X9.7038 Y58.5012
G01 X9.8146 Y58.6016
G01 X9.8184 Y58.6054
G01 X9.9188 Y58.7162
G01 X9.9222 Y58.7204
G01 X10.0113 Y58.8405
G01 X10.0143 Y58.8450
G01 X10.0912 Y58.9733
G01 X10.0938 Y58.9781
G01 X10.1577 Y59.1133
G01 X10.1735 Y59.1567
G01 X10.9200 Y59.1567
G01 X10.9725 Y59.1593
G01 X11.0272 Y59.1671
G01 X11.0325 Y59.1682
G01 X11.0861 Y59.1818
G01 X11.1330 Y59.1986
G01 X11.1380 Y59.2007
G01 X11.1879 Y59.2246
G01 X11.2351 Y59.2532
G01 X11.2794 Y59.2864
G01 X11.3183 Y59.3217
G01 X15.1958 Y63.1992
G01 X15.2079 Y63.1875
G01 X15.2122 Y63.1843
G01 X15.2169 Y63.1815
G01 X15.2218 Y63.1792
G01 X15.2268 Y63.1774
G01 X15.2321 Y63.1761
G01 X15.2374 Y63.1753
G01 X15.2428 Y63.1750
G01 X16.1572 Y63.1750
G01 X16.1626 Y63.1753
G01 X16.1679 Y63.1761
G01 X16.1732 Y63.1774
G01 X16.1782 Y63.1792
G01 X16.1831 Y63.1815
G01 X16.1878 Y63.1843
G01 X16.1921 Y63.1875
G01 X16.1961 Y63.1911
G01 X16.5009 Y63.4959
G01 X16.5045 Y63.4999
G01 X16.5077 Y63.5042
G01 X16.5105 Y63.5089
G01 X16.5128 Y63.5138
G01 X16.5146 Y63.5188
G01 X16.5159 Y63.5241
G01 X16.5167 Y63.5294
G01 X16.5170 Y63.5348
G01 X16.5170 Y65.4652
G00 Z2.0000
G00 X19.6380 Y73.3220
G01 F25.00
G01 Z-0.0187
G01 F45.00
G01 X19.6690 Y73.2363
G01 X19.7063 Y73.1574
G01 X19.7536 Y73.0778
G01 X19.7566 Y73.0733
G01 X19.8086 Y73.0033
G01 X19.8706 Y72.9344
G01 X19.9391 Y72.8720
G01 X19.9433 Y72.8686
G01 X20.0133 Y72.8166
G01 X20.0927 Y72.7688
G01 X20.0974 Y72.7663
G01 X20.1813 Y72.7269
G01 X20.2634 Y72.6975
G01 X20.3532 Y72.6747
G01 X20.4448 Y72.6609
G01 X20.4502 Y72.6603
G01 X20.5427 Y72.6561
G01 X20.6298 Y72.6603
G01 X20.7215 Y72.6737
G01 X20.7280 Y72.6750
G01 X27.0353 Y72.6750
G01 X27.0530 Y72.6406
G01 X27.0925 Y72.5783
G01 X27.1409 Y72.5158
G01 X27.1444 Y72.5118
G01 X27.1990 Y72.4546
G01 X27.2547 Y72.4062
G01 X27.3190 Y72.3602
G01 X27.3235 Y72.3573
G01 X27.3922 Y72.3182
G01 X27.4594 Y72.2878
G01 X27.4644 Y72.2858
G01 X27.5393 Y72.2606
G01 X27.6164 Y72.2427
G01 X27.6895 Y72.2329
G01 X27.7685 Y72.2297
G01 X27.8474 Y72.2341
G01 X27.8527 Y72.2347
G01 X27.9256 Y72.2462
G01 X28.0022 Y72.2657
G01 X28.0766 Y72.2926
G01 X28.1481 Y72.3265
G01 X28.1527 Y72.3290
G01 X28.2203 Y72.3701
G01 X28.2836 Y72.4176
G01 X28.3401 Y72.4690
G01 X28.5001 Y72.6290
G01 X29.3760 Y72.6290
G01 X29.3814 Y72.6293
G01 X29.3867 Y72.6301
G01 X29.3920 Y72.6314
G01 X29.3970 Y72.6332
G01 X29.4019 Y72.6355
G01 X29.4066 Y72.6383
G01 X29.4109 Y72.6415
G01 X29.4149 Y72.6451
G01 X29.4185 Y72.6491
G01 X29.4217 Y72.6534
G01 X29.4245 Y72.6581
G01 X29.4268 Y72.6630
G01 X29.4286 Y72.6680
G01 X29.4299 Y72.6733
G01 X29.4307 Y72.6786
G01 X29.4310 Y72.6840
G01 X29.4310 Y74.7160
G01 X29.4307 Y74.7214
G01 X29.4299 Y74.7267
G01 X29.4286 Y74.7320
G01 X29.4268 Y74.7370
G01 X29.4245 Y74.7419
G01 X29.4217 Y74.7466
G01 X29.4185 Y74.7509
G01 X29.4149 Y74.7549
G01 X29.4109 Y74.7585
G01 X29.4066 Y74.7617
G01 X29.4019 Y74.7645
G01 X29.3970 Y74.7668
G01 X29.3920 Y74.7686
G01 X29.3867 Y74.7699
G01 X29.3814 Y74.7707
G01 X29.3760 Y74.7710
G01 X29.2530 Y74.7710
G01 X29.2530 Y77.5190
G01 X30.2566 Y78.5226
G01 X41.6258 Y78.5226
G01 X41.6548 Y78.4910
G01 X41.7380 Y78.4157
G01 X41.7421 Y78.4123
G01 X41.8322 Y78.3455
G01 X41.8367 Y78.3425
G01 X41.9329 Y78.2848
G01 X41.9377 Y78.2822
G01 X42.0391 Y78.2343
G01 X42.0441 Y78.2322
G01 X42.1497 Y78.1944
G01 X42.1548 Y78.1929
G01 X42.2636 Y78.1656
G01 X42.2689 Y78.1646
G01 X42.3799 Y78.1481
G01 X42.3853 Y78.1476
G01 X42.4973 Y78.1421
G01 X42.5027 Y78.1421
G01 X42.6147 Y78.1476
G01 X42.6201 Y78.1481
G01 X42.7311 Y78.1646
G01 X42.7364 Y78.1656
G01 X42.8452 Y78.1929
G01 X42.8503 Y78.1944
G01 X42.9559 Y78.2322
G01 X42.9609 Y78.2343
G01 X43.0623 Y78.2822
G01 X43.0671 Y78.2848
G01 X43.1633 Y78.3425
G01 X43.1678 Y78.3455
G01 X43.2579 Y78.4123
G01 X43.2620 Y78.4157
G01 X43.3452 Y78.4910
G01 X43.3490 Y78.4948
G01 X43.4243 Y78.5780
G01 X43.4277 Y78.5821
G01 X43.4945 Y78.6722
G01 X43.4975 Y78.6767
G01 X43.5552 Y78.7729
G01 X43.5578 Y78.7777
G01 X43.6057 Y78.8791
G01 X43.6078 Y78.8841
G01 X43.6456 Y78.9897
G01 X43.6471 Y78.9948
G01 X43.6744 Y79.1036
G01 X43.6754 Y79.1089
G01 X43.6919 Y79.2199
G01 X43.6924 Y79.2253
G01 X43.6979 Y79.3373
G01 X43.6979 Y79.3427
G01 X43.6924 Y79.4547
G01 X43.6919 Y79.4601
G01 X43.6754 Y79.5711
G01 X43.6744 Y79.5764
G01 X43.6471 Y79.6852
G01 X43.6456 Y79.6903
G01 X43.6078 Y79.7959
G01 X43.6057 Y79.8009
G01 X43.5578 Y79.9023
G01 X43.5552 Y79.9071
G01 X43.4975 Y80.0033
G01 X43.4945 Y80.0078
G01 X43.4277 Y80.0979
G01 X43.4243 Y80.1020
G01 X43.3490 Y80.1852
G01 X43.3452 Y80.1890
G01 X43.2620 Y80.2643
G01 X43.2579 Y80.2677
G01 X43.1678 Y80.3345
G01 X43.1633 Y80.3375
G01 X43.0671 Y80.3952
G01 X43.0623 Y80.3978
G01 X42.9609 Y80.4457
G01 X42.9559 Y80.4478
G01 X42.8503 Y80.4856
G01 X42.8452 Y80.4871
G01 X42.7364 Y80.5144
G01 X42.7311 Y80.5154
G01 X42.6201 Y80.5319
G01 X42.6147 Y80.5324
G01 X42.5027 Y80.5379
G01 X42.4973 Y80.5379
G01 X42.3853 Y80.5324
G01 X42.3799 Y80.5319
G01 X42.2689 Y80.5154
G01 X42.2636 Y80.5144
G01 X42.1548 Y80.4871
G01 X42.1497 Y80.4856
G01 X42.0441 Y80.4478
G01 X42.0391 Y80.4457
G01 X41.9377 Y80.3978
G01 X41.9329 Y80.3952
G01 X41.8367 Y80.3375
G01 X41.8322 Y80.3345
G01 X41.7421 Y80.2677
G01 X41.7380 Y80.2643
G01 X41.6548 Y80.1890
G01 X41.6258 Y80.1574
G01 X29.9180 Y80.1574
G01 X29.8406 Y80.1536
G01 X29.7612 Y80.1421
G01 X29.7559 Y80.1411
G01 X29.6782 Y80.1213
G01 X29.6028 Y80.0941
G01 X29.5351 Y80.0621
G01 X29.4662 Y80.0211
G01 X29.4016 Y79.9735
G01 X29.3975 Y79.9701
G01 X29.3401 Y79.9180
G01 X27.8558 Y78.4336
G01 X27.8021 Y78.3740
G01 X27.7545 Y78.3094
G01 X27.7135 Y78.2405
G01 X27.6795 Y78.1678
G01 X27.6527 Y78.0922
G01 X27.6335 Y78.0144
G01 X27.6220 Y77.9350
G01 X27.6182 Y77.8576
G01 X27.6182 Y74.7710
G01 X27.3440 Y74.7710
G01 X27.3386 Y74.7707
G01 X27.3333 Y74.7699
G01 X27.3280 Y74.7686
G01 X27.3230 Y74.7668
G01 X27.3181 Y74.7645
G01 X27.3134 Y74.7617
G01 X27.3091 Y74.7585
G01 X27.3051 Y74.7549
G01 X27.3015 Y74.7509
G01 X27.2983 Y74.7466
G01 X27.2955 Y74.7419
G01 X27.2932 Y74.7370
G01 X27.2914 Y74.7320
G01 X27.2901 Y74.7267
G01 X27.2893 Y74.7214
G01 X27.2890 Y74.7160
G01 X27.2890 Y74.3098
G01 X21.3574 Y74.3098
G01 X21.3574 Y75.2600
G01 X21.3536 Y75.3374
G01 X21.3531 Y75.3428
G01 X21.3421 Y75.4168
G01 X21.3229 Y75.4947
G01 X21.2961 Y75.5703
G01 X21.2621 Y75.6429
G01 X21.2211 Y75.7118
G01 X21.2181 Y75.7163
G01 X21.1701 Y75.7806
G01 X21.1180 Y75.8380
G01 X18.8780 Y78.0780
G01 X18.8206 Y78.1301
G01 X18.7563 Y78.1781
G01 X18.6877 Y78.2195
G01 X18.6829 Y78.2221
G01 X18.6103 Y78.2561
G01 X18.5398 Y78.2813
G01 X18.4621 Y78.3011
G01 X18.3828 Y78.3131
G01 X18.3774 Y78.3136
G01 X18.3000 Y78.3174
G01 X16.4170 Y78.3174
G01 X16.4170 Y78.4652
G01 X16.4167 Y78.4706
G01 X16.4159 Y78.4759
G01 X16.4146 Y78.4812
G01 X16.4128 Y78.4862
G01 X16.4105 Y78.4911
G01 X16.4077 Y78.4958
G01 X16.4045 Y78.5001
G01 X16.4009 Y78.5041
G01 X16.0961 Y78.8089
G01 X16.0921 Y78.8125
G01 X16.0878 Y78.8157
G01 X16.0831 Y78.8185
G01 X16.0782 Y78.8208
G01 X16.0732 Y78.8226
G01 X16.0679 Y78.8239
G01 X16.0626 Y78.8247
G01 X16.0572 Y78.8250
G01 X15.1428 Y78.8250
G01 X15.1374 Y78.8247
G01 X15.1321 Y78.8239
G01 X15.1268 Y78.8226
G01 X15.1218 Y78.8208
G01 X15.1169 Y78.8185
G01 X15.1122 Y78.8157
G01 X15.1079 Y78.8125
G01 X15.1039 Y78.8089
G01 X14.7991 Y78.5041
G01 X14.7955 Y78.5001
G01 X14.7923 Y78.4958
G01 X14.7895 Y78.4911
G01 X14.7872 Y78.4862
G01 X14.7854 Y78.4812
G01 X14.7841 Y78.4759
G01 X14.7833 Y78.4706
G01 X14.7830 Y78.4652
G01 X14.7830 Y77.5091
G01 X14.7827 Y77.5027
G01 X14.7830 Y77.4909
G01 X14.7830 Y76.5348
G01 X14.7833 Y76.5294
G01 X14.7841 Y76.5241
G01 X14.7854 Y76.5188
G01 X14.7872 Y76.5138
G01 X14.7895 Y76.5089
G01 X14.7923 Y76.5042
G01 X14.7955 Y76.4999
G01 X14.7991 Y76.4959
G01 X15.1039 Y76.1911
G01 X15.1079 Y76.1875
G01 X15.1122 Y76.1843
G01 X15.1169 Y76.1815
G01 X15.1218 Y76.1792
G01 X15.1268 Y76.1774
G01 X15.1321 Y76.1761
G01 X15.1374 Y76.1753
G01 X15.1428 Y76.1750
G01 X16.0572 Y76.1750
G01 X16.0626 Y76.1753
G01 X16.0679 Y76.1761
G01 X16.0732 Y76.1774
G01 X16.0782 Y76.1792
G01 X16.0831 Y76.1815
G01 X16.0878 Y76.1843
G01 X16.0921 Y76.1875
G01 X16.0961 Y76.1911
G01 X16.4009 Y76.4959
G01 X16.4045 Y76.4999
G01 X16.4077 Y76.5042
G01 X16.4105 Y76.5089
G01 X16.4128 Y76.5138
G01 X16.4146 Y76.5188
G01 X16.4159 Y76.5241
G01 X16.4167 Y76.5294
G01 X16.4170 Y76.5348
G01 X16.4170 Y76.6826
G01 X17.9614 Y76.6826
G01 X19.7226 Y74.9214
G01 X19.7226 Y74.3785
G01 X19.6718 Y74.3229
G01 X19.6235 Y74.2586
G01 X19.5817 Y74.1899
G01 X19.5469 Y74.1175
G01 X19.5193 Y74.0419
G01 X19.5177 Y74.0368
G01 X19.4982 Y73.9587
G01 X19.4865 Y73.8792
G01 X19.4827 Y73.7989
G01 X19.4862 Y73.7240
G01 X19.4976 Y73.6444
G01 X19.5168 Y73.5663
G01 X19.5436 Y73.4905
G01 X19.5776 Y73.4176
G01 X19.6187 Y73.3485
G01 X19.6380 Y73.3220
G00 Z2.0000
G00 X9.2633 Y70.1498
G01 F25.00
G01 Z-0.0187
G01 F45.00
G01 X9.4054 Y70.1709
G01 X9.4107 Y70.1719
G01 X9.5558 Y70.2083
G01 X9.5609 Y70.2098
G01 X9.7017 Y70.2602
G01 X9.7067 Y70.2623
G01 X9.8419 Y70.3262
G01 X9.8467 Y70.3288
G01 X9.9750 Y70.4057
G01 X9.9795 Y70.4087
G01 X10.0996 Y70.4978
G01 X10.1038 Y70.5012
G01 X10.2146 Y70.6016
G01 X10.2184 Y70.6054
G01 X10.3188 Y70.7162
G01 X10.3222 Y70.7204
G01 X10.4113 Y70.8405
G01 X10.4488 Y70.9026
G01 X15.8384 Y70.9026
G01 X15.9158 Y70.9064
G01 X15.9212 Y70.9069
G01 X16.0005 Y70.9189
G01 X16.0782 Y70.9387
G01 X16.1537 Y70.9659
G01 X16.2213 Y70.9979
G01 X16.2902 Y71.0389
G01 X16.2947 Y71.0419
G01 X16.3590 Y71.0899
G01 X16.4164 Y71.1420
G01 X17.1568 Y71.8824
G01 X17.1606 Y71.8100
G01 X17.1726 Y71.7307
G01 X17.1924 Y71.6530
G01 X17.2176 Y71.5826
G01 X17.2517 Y71.5099
G01 X17.2542 Y71.5052
G01 X17.2957 Y71.4365
G01 X17.3402 Y71.3764
G01 X17.3436 Y71.3723
G01 X17.3958 Y71.3149
G01 X18.0886 Y70.6220
G01 X18.1460 Y70.5699
G01 X18.1502 Y70.5665
G01 X18.2147 Y70.5189
G01 X18.2837 Y70.4779
G01 X18.3563 Y70.4439
G01 X18.4319 Y70.4171
G01 X18.5098 Y70.3979
G01 X18.5838 Y70.3869
G01 X18.5891 Y70.3864
G01 X18.6666 Y70.3826
G01 X19.5226 Y70.3826
G01 X19.5226 Y57.9704
G01 X19.5063 Y57.9426
G01 X19.4690 Y57.8637
G01 X19.4669 Y57.8587
G01 X19.4359 Y57.7714
G01 X19.4147 Y57.6868
G01 X19.4009 Y57.5952
G01 X19.3961 Y57.5027
G01 X19.3961 Y57.4973
G01 X19.4009 Y57.4048
G01 X19.4137 Y57.3185
G01 X19.4359 Y57.2286
G01 X19.4669 Y57.1413
G01 X19.5063 Y57.0574
G01 X19.5088 Y57.0527
G01 X19.5566 Y56.9733
G01 X19.6086 Y56.9033
G01 X19.6706 Y56.8344
G01 X19.7391 Y56.7720
G01 X19.7433 Y56.7686
G01 X19.8178 Y56.7136
G01 X19.8927 Y56.6688
G01 X19.9763 Y56.6290
G01 X19.9813 Y56.6269
G01 X20.0686 Y56.5959
G01 X20.1532 Y56.5747
G01 X20.2448 Y56.5609
G01 X20.3373 Y56.5561
G01 X20.3427 Y56.5561
G01 X20.4352 Y56.5609
G01 X20.5268 Y56.5747
G01 X20.6114 Y56.5959
G01 X20.6987 Y56.6269
G01 X20.7826 Y56.6663
G01 X20.7873 Y56.6688
G01 X20.8667 Y56.7166
G01 X20.9367 Y56.7686
G01 X21.0056 Y56.8306
G01 X21.0094 Y56.8344
G01 X21.0714 Y56.9033
G01 X21.1264 Y56.9778
G01 X21.1737 Y57.0574
G01 X21.2110 Y57.1363
G01 X21.2425 Y57.2234
G01 X21.2506 Y57.2547
G01 X24.4034 Y60.4074
G01 X28.1848 Y60.4074
G01 X29.8212 Y58.7710
G01 X29.5840 Y58.7710
G01 X29.5786 Y58.7707
G01 X29.5733 Y58.7699
G01 X29.5680 Y58.7686
G01 X29.5630 Y58.7668
G01 X29.5581 Y58.7645
G01 X29.5534 Y58.7617
G01 X29.5491 Y58.7585
G01 X29.5451 Y58.7549
G01 X29.5415 Y58.7509
G01 X29.5383 Y58.7466
G01 X29.5355 Y58.7419
G01 X29.5332 Y58.7370
G01 X29.5314 Y58.7320
G01 X29.5301 Y58.7267
G01 X29.5293 Y58.7214
G01 X29.5290 Y58.7160
G01 X29.5290 Y56.6840
G01 X29.5293 Y56.6786
G01 X29.5301 Y56.6733
G01 X29.5314 Y56.6680
G01 X29.5332 Y56.6630
G01 X29.5355 Y56.6581
G01 X29.5383 Y56.6534
G01 X29.5415 Y56.6491
G01 X29.5451 Y56.6451
G01 X29.5491 Y56.6415
G01 X29.5534 Y56.6383
G01 X29.5581 Y56.6355
G01 X29.5630 Y56.6332
G01 X29.5680 Y56.6314
G01 X29.5733 Y56.6301
G01 X29.5786 Y56.6293
G01 X29.5840 Y56.6290
G01 X31.6160 Y56.6290
G01 X31.6214 Y56.6293
G01 X31.6267 Y56.6301
G01 X31.6320 Y56.6314
G01 X31.6370 Y56.6332
G01 X31.6419 Y56.6355
G01 X31.6466 Y56.6383
G01 X31.6509 Y56.6415
G01 X31.6549 Y56.6451
G01 X31.6585 Y56.6491
G01 X31.6617 Y56.6534
G01 X31.6645 Y56.6581
G01 X31.6668 Y56.6630
G01 X31.6686 Y56.6680
G01 X31.6699 Y56.6733
G01 X31.6707 Y56.6786
G01 X31.6710 Y56.6840
G01 X31.6710 Y58.7160
G01 X31.6707 Y58.7214
G01 X31.6699 Y58.7267
G01 X31.6686 Y58.7320
G01 X31.6668 Y58.7370
G01 X31.6645 Y58.7419
G01 X31.6617 Y58.7466
G01 X31.6585 Y58.7509
G01 X31.6549 Y58.7549
G01 X31.6509 Y58.7585
G01 X31.6466 Y58.7617
G01 X31.6419 Y58.7645
G01 X31.6370 Y58.7668
G01 X31.6320 Y58.7686
G01 X31.6267 Y58.7699
G01 X31.6214 Y58.7707
G01 X31.6160 Y58.7710
G01 X31.5117 Y58.7710
G01 X31.5117 Y59.0538
G01 X31.5080 Y59.1313
G01 X31.5075 Y59.1366
G01 X31.4954 Y59.2159
G01 X31.4757 Y59.2937
G01 X31.4484 Y59.3691
G01 X31.4139 Y59.4415
G01 X31.3724 Y59.5102
G01 X31.3279 Y59.5703
G01 X31.3244 Y59.5744
G01 X31.2723 Y59.6318
G01 X29.1014 Y61.8028
G01 X29.0440 Y61.8549
G01 X29.0398 Y61.8583
G01 X28.9797 Y61.9029
G01 X28.9111 Y61.9443
G01 X28.8387 Y61.9788
G01 X28.7632 Y62.0061
G01 X28.7581 Y62.0077
G01 X28.6802 Y62.0269
G01 X28.6062 Y62.0379
G01 X28.6008 Y62.0384
G01 X28.5234 Y62.0422
G01 X24.0648 Y62.0422
G01 X23.9874 Y62.0384
G01 X23.9080 Y62.0269
G01 X23.9027 Y62.0259
G01 X23.8249 Y62.0061
G01 X23.7495 Y61.9788
G01 X23.6819 Y61.9469
G01 X23.6129 Y61.9059
G01 X23.5484 Y61.8583
G01 X23.4888 Y61.8046
G01 X21.1574 Y59.4733
G01 X21.1574 Y70.3826
G01 X30.2000 Y70.3826
G01 X30.2774 Y70.3864
G01 X30.3568 Y70.3979
G01 X30.4347 Y70.4171
G01 X30.5103 Y70.4439
G01 X30.5829 Y70.4779
G01 X30.6518 Y70.5189
G01 X30.7164 Y70.5665
G01 X30.7760 Y70.6202
G01 X31.4780 Y71.3220
G01 X31.5301 Y71.3794
G01 X31.5335 Y71.3836
G01 X31.5811 Y71.4482
G01 X31.6221 Y71.5171
G01 X31.6561 Y71.5897
G01 X31.6813 Y71.6602
G01 X31.7011 Y71.7379
G01 X31.7021 Y71.7432
G01 X31.7136 Y71.8226
G01 X31.7173 Y71.8973
G01 X31.7174 Y72.6290
G01 X31.9160 Y72.6290
G01 X31.9214 Y72.6293
G01 X31.9267 Y72.6301
G01 X31.9320 Y72.6314
G01 X31.9370 Y72.6332
G01 X31.9419 Y72.6355
G01 X31.9466 Y72.6383
G01 X31.9509 Y72.6415
G01 X31.9549 Y72.6451
G01 X31.9585 Y72.6491
G01 X31.9617 Y72.6534
G01 X31.9645 Y72.6581
G01 X31.9668 Y72.6630
G01 X31.9686 Y72.6680
G01 X31.9699 Y72.6733
G01 X31.9707 Y72.6786
G01 X31.9710 Y72.6840
G01 X31.9710 Y74.7160
G01 X31.9707 Y74.7214
G01 X31.9699 Y74.7267
G01 X31.9686 Y74.7320
G01 X31.9668 Y74.7370
G01 X31.9645 Y74.7419
G01 X31.9617 Y74.7466
G01 X31.9585 Y74.7509
G01 X31.9549 Y74.7549
G01 X31.9509 Y74.7585
G01 X31.9466 Y74.7617
G01 X31.9419 Y74.7645
G01 X31.9370 Y74.7668
G01 X31.9320 Y74.7686
G01 X31.9267 Y74.7699
G01 X31.9214 Y74.7707
G01 X31.9160 Y74.7710
G01 X29.8840 Y74.7710
G01 X29.8786 Y74.7707
G01 X29.8733 Y74.7699
G01 X29.8680 Y74.7686
G01 X29.8630 Y74.7668
G01 X29.8581 Y74.7645
G01 X29.8534 Y74.7617
G01 X29.8491 Y74.7585
G01 X29.8451 Y74.7549
G01 X29.8415 Y74.7509
G01 X29.8383 Y74.7466
G01 X29.8355 Y74.7419
G01 X29.8332 Y74.7370
G01 X29.8314 Y74.7320
G01 X29.8301 Y74.7267
G01 X29.8293 Y74.7214
G01 X29.8290 Y74.7160
G01 X29.8290 Y72.6840
G01 X29.8293 Y72.6786
G01 X29.8301 Y72.6733
G01 X29.8314 Y72.6680
G01 X29.8332 Y72.6630
G01 X29.8355 Y72.6581
G01 X29.8383 Y72.6534
G01 X29.8415 Y72.6491
G01 X29.8451 Y72.6451
G01 X29.8491 Y72.6415
G01 X29.8534 Y72.6383
G01 X29.8581 Y72.6355
G01 X29.8630 Y72.6332
G01 X29.8680 Y72.6314
G01 X29.8733 Y72.6301
G01 X29.8786 Y72.6293
G01 X29.8840 Y72.6290
G01 X30.0826 Y72.6290
G01 X30.0826 Y72.2386
G01 X29.8614 Y72.0174
G01 X19.0051 Y72.0174
G01 X18.7911 Y72.2314
G01 X18.7911 Y73.0858
G01 X18.8337 Y73.1574
G01 X18.8710 Y73.2363
G01 X18.9025 Y73.3234
G01 X18.9041 Y73.3286
G01 X18.9263 Y73.4185
G01 X18.9397 Y73.5102
G01 X18.9439 Y73.5973
G01 X18.9397 Y73.6898
G01 X18.9263 Y73.7815
G01 X18.9041 Y73.8714
G01 X18.8731 Y73.9587
G01 X18.8710 Y73.9637
G01 X18.8312 Y74.0473
G01 X18.7864 Y74.1222
G01 X18.7314 Y74.1967
G01 X18.7280 Y74.2009
G01 X18.6656 Y74.2694
G01 X18.6009 Y74.3280
G01 X18.5267 Y74.3834
G01 X18.4473 Y74.4312
G01 X18.4426 Y74.4337
G01 X18.3587 Y74.4731
G01 X18.2766 Y74.5025
G01 X18.1868 Y74.5253
G01 X18.1815 Y74.5263
G01 X18.0898 Y74.5397
G01 X17.9973 Y74.5439
G01 X17.9102 Y74.5397
G01 X17.8185 Y74.5263
G01 X17.7286 Y74.5041
G01 X17.6413 Y74.4731
G01 X17.5574 Y74.4337
G01 X17.4778 Y74.3864
G01 X17.4033 Y74.3314
G01 X17.3344 Y74.2694
G01 X17.2720 Y74.2009
G01 X17.2686 Y74.1967
G01 X17.2136 Y74.1222
G01 X17.1688 Y74.0473
G01 X17.1507 Y74.0097
G01 X16.6499 Y73.6675
G01 X16.5873 Y73.6201
G01 X16.5330 Y73.5706
G01 X15.4998 Y72.5374
G01 X10.4488 Y72.5374
G01 X10.4113 Y72.5995
G01 X10.3222 Y72.7196
G01 X10.3188 Y72.7238
G01 X10.2184 Y72.8346
G01 X10.2146 Y72.8384
G01 X10.1038 Y72.9388
G01 X10.0996 Y72.9422
G01 X9.9795 Y73.0313
G01 X9.9750 Y73.0343
G01 X9.8467 Y73.1112
G01 X9.8419 Y73.1138
G01 X9.7067 Y73.1777
G01 X9.7017 Y73.1798
G01 X9.5609 Y73.2302
G01 X9.5558 Y73.2317
G01 X9.4107 Y73.2681
G01 X9.4054 Y73.2691
G01 X9.2574 Y73.2911
G01 X9.2521 Y73.2916
G01 X9.1027 Y73.2989
G01 X9.0973 Y73.2989
G01 X8.9479 Y73.2916
G01 X8.9426 Y73.2911
G01 X8.7946 Y73.2691
G01 X8.7893 Y73.2681
G01 X8.6442 Y73.2317
G01 X8.6391 Y73.2302
G01 X8.4983 Y73.1798
G01 X8.4933 Y73.1777
G01 X8.3581 Y73.1138
G01 X8.3533 Y73.1112
G01 X8.2250 Y73.0343
G01 X8.2205 Y73.0313
G01 X8.1004 Y72.9422
G01 X8.0962 Y72.9388
G01 X7.9854 Y72.8384
G01 X7.9816 Y72.8346
G01 X7.8812 Y72.7238
G01 X7.8778 Y72.7196
G01 X7.7887 Y72.5995
G01 X7.7857 Y72.5950
G01 X7.7088 Y72.4667
G01 X7.7062 Y72.4619
G01 X7.6423 Y72.3267
G01 X7.6402 Y72.3217
G01 X7.5898 Y72.1809
G01 X7.5883 Y72.1758
G01 X7.5519 Y72.0307
G01 X7.5509 Y72.0254
G01 X7.5289 Y71.8774
G01 X7.5284 Y71.8721
G01 X7.5211 Y71.7227
G01 X7.5211 Y71.7173
G01 X7.5284 Y71.5679
G01 X7.5289 Y71.5626
G01 X7.5509 Y71.4146
G01 X7.5519 Y71.4093
G01 X7.5883 Y71.2642
G01 X7.5898 Y71.2591
G01 X7.6402 Y71.1183
G01 X7.6423 Y71.1133
G01 X7.7062 Y70.9781
G01 X7.7088 Y70.9733
G01 X7.7857 Y70.8450
G01 X7.7887 Y70.8405
G01 X7.8778 Y70.7204
G01 X7.8812 Y70.7162
G01 X7.9816 Y70.6054
G01 X7.9854 Y70.6016
G01 X8.0962 Y70.5012
G01 X8.1367 Y70.4708
G01 X8.1367 Y66.2735
G01 X8.0933 Y66.2577
G01 X7.9581 Y66.1938
G01 X7.9533 Y66.1912
G01 X7.8250 Y66.1143
G01 X7.8205 Y66.1113
G01 X7.7004 Y66.0222
G01 X7.6962 Y66.0188
G01 X7.5854 Y65.9184
G01 X7.5816 Y65.9146
G01 X7.4812 Y65.8038
G01 X7.4778 Y65.7996
G01 X7.3887 Y65.6795
G01 X7.3857 Y65.6750
G01 X7.3088 Y65.5467
G01 X7.3062 Y65.5419
G01 X7.2423 Y65.4067
G01 X7.2265 Y65.3633
G01 X3.7942 Y65.3633
G01 X3.7942 Y73.4367
G01 X11.2995 Y73.4367
G01 X11.3492 Y73.4130
G01 X11.3542 Y73.4109
G01 X11.4063 Y73.3926
G01 X11.4547 Y73.3804
G01 X11.5093 Y73.3721
G01 X11.5645 Y73.3691
G01 X11.5699 Y73.3691
G01 X11.6251 Y73.3721
G01 X11.6744 Y73.3794
G01 X11.7281 Y73.3926
G01 X11.7802 Y73.4109
G01 X11.8303 Y73.4343
G01 X11.8778 Y73.4625
G01 X11.8823 Y73.4655
G01 X11.9266 Y73.4986
G01 X11.9673 Y73.5360
G01 X12.0008 Y73.5729
G01 X12.0340 Y73.6171
G01 X12.0626 Y73.6644
G01 X12.0865 Y73.7143
G01 X12.1053 Y73.7662
G01 X12.1190 Y73.8198
G01 X12.1201 Y73.8251
G01 X12.1279 Y73.8798
G01 X12.1304 Y73.9323
G01 X12.1304 Y79.7783
G01 X12.1274 Y79.8362
G01 X12.1201 Y79.8855
G01 X12.1069 Y79.9392
G01 X12.0885 Y79.9913
G01 X12.0651 Y80.0414
G01 X12.0626 Y80.0462
G01 X12.0340 Y80.0934
G01 X12.0043 Y80.1335
G01 X11.9655 Y80.1766
G01 X11.1572 Y80.9848
G01 X11.1160 Y81.0217
G01 X11.0760 Y81.0514
G01 X11.0287 Y81.0801
G01 X11.0240 Y81.0826
G01 X10.9739 Y81.1060
G01 X10.9218 Y81.1244
G01 X10.8734 Y81.1365
G01 X10.8187 Y81.1449
G01 X10.7608 Y81.1479
G01 X6.8633 Y81.1479
G01 X6.8633 Y83.3176
G01 X7.6760 Y83.3176
G01 X7.7282 Y83.3201
G01 X7.7825 Y83.3279
G01 X7.7878 Y83.3289
G01 X7.8385 Y83.3416
G01 X7.9516 Y83.3757
G01 X7.9812 Y83.3362
G01 X8.0816 Y83.2254
G01 X8.0854 Y83.2216
G01 X8.1962 Y83.1212
G01 X8.2004 Y83.1178
G01 X8.3205 Y83.0287
G01 X8.3250 Y83.0257
G01 X8.4533 Y82.9488
G01 X8.4581 Y82.9462
G01 X8.5933 Y82.8823
G01 X8.5983 Y82.8802
G01 X8.7391 Y82.8298
G01 X8.7442 Y82.8283
G01 X8.8893 Y82.7919
G01 X8.8946 Y82.7909
G01 X9.0426 Y82.7689
G01 X9.0479 Y82.7684
G01 X9.1973 Y82.7611
G01 X9.2027 Y82.7611
G01 X9.3521 Y82.7684
G01 X9.3574 Y82.7689
G01 X9.5054 Y82.7909
G01 X9.5107 Y82.7919
G01 X9.6558 Y82.8283
G01 X9.6609 Y82.8298
G01 X9.8017 Y82.8802
G01 X9.8067 Y82.8823
G01 X9.9419 Y82.9462
G01 X9.9467 Y82.9488
G01 X10.0750 Y83.0257
G01 X10.0795 Y83.0287
G01 X10.1996 Y83.1178
G01 X10.2038 Y83.1212
G01 X10.3146 Y83.2216
G01 X10.3184 Y83.2254
G01 X10.4188 Y83.3362
G01 X10.4222 Y83.3404
G01 X10.5113 Y83.4605
G01 X10.5488 Y83.5226
G01 X11.3946 Y83.5226
G01 X11.4720 Y83.5264
G01 X11.4774 Y83.5269
G01 X11.5567 Y83.5389
G01 X11.6345 Y83.5587
G01 X11.7099 Y83.5859
G01 X11.7775 Y83.6179
G01 X11.8465 Y83.6589
G01 X11.9110 Y83.7065
G01 X11.9152 Y83.7099
G01 X11.9726 Y83.7620
G01 X20.7754 Y92.5649
G01 X23.0652 Y90.2752
G01 X23.1248 Y90.2215
G01 X23.1849 Y90.1769
G01 X23.2536 Y90.1355
G01 X23.2584 Y90.1329
G01 X23.3310 Y90.0989
G01 X23.4066 Y90.0721
G01 X23.4845 Y90.0529
G01 X23.5585 Y90.0419
G01 X23.5638 Y90.0414
G01 X23.6413 Y90.0376
G01 X29.7217 Y90.0376
G01 X29.7992 Y90.0414
G01 X29.8045 Y90.0419
G01 X29.8838 Y90.0539
G01 X29.9616 Y90.0737
G01 X30.0370 Y90.1009
G01 X30.1046 Y90.1329
G01 X30.1736 Y90.1739
G01 X30.1780 Y90.1769
G01 X30.2423 Y90.2249
G01 X30.2997 Y90.2770
G01 X31.2798 Y91.2573
G01 X31.3335 Y91.3169
G01 X31.3781 Y91.3770
G01 X31.4195 Y91.4456
G01 X31.4221 Y91.4504
G01 X31.4561 Y91.5230
G01 X31.4813 Y91.5934
G01 X31.5011 Y91.6712
G01 X31.5131 Y91.7505
G01 X31.5136 Y91.7559
G01 X31.5174 Y91.8333
G01 X31.5174 Y93.0290
G01 X31.7160 Y93.0290
G01 X31.7214 Y93.0293
G01 X31.7267 Y93.0301
G01 X31.7320 Y93.0314
G01 X31.7370 Y93.0332
G01 X31.7419 Y93.0355
G01 X31.7466 Y93.0383
G01 X31.7509 Y93.0415
G01 X31.7549 Y93.0451
G01 X31.7585 Y93.0491
G01 X31.7617 Y93.0534
G01 X31.7645 Y93.0581
G01 X31.7668 Y93.0630
G01 X31.7686 Y93.0680
G01 X31.7699 Y93.0733
G01 X31.7707 Y93.0786
G01 X31.7710 Y93.0840
G01 X31.7710 Y95.1160
G01 X31.7707 Y95.1214
G01 X31.7699 Y95.1267
G01 X31.7686 Y95.1320
G01 X31.7668 Y95.1370
G01 X31.7645 Y95.1419
G01 X31.7617 Y95.1466
G01 X31.7585 Y95.1509
G01 X31.7549 Y95.1549
G01 X31.7509 Y95.1585
G01 X31.7466 Y95.1617
G01 X31.7419 Y95.1645
G01 X31.7370 Y95.1668
G01 X31.7320 Y95.1686
G01 X31.7267 Y95.1699
G01 X31.7214 Y95.1707
G01 X31.7160 Y95.1710
G01 X31.1982 Y95.1710
G01 X33.1441 Y97.1170
G01 X37.7266 Y97.1170
G01 X43.4215 Y91.4220
G01 X43.4789 Y91.3699
G01 X43.4831 Y91.3665
G01 X43.5432 Y91.3219
G01 X43.6118 Y91.2805
G01 X43.6166 Y91.2779
G01 X43.6892 Y91.2439
G01 X43.7597 Y91.2187
G01 X43.8374 Y91.1989
G01 X43.9167 Y91.1869
G01 X43.9221 Y91.1864
G01 X43.9995 Y91.1826
G01 X54.4894 Y91.1826
G01 X54.5378 Y91.1708
G01 X54.6145 Y91.1594
G01 X54.6973 Y91.1551
G01 X54.7027 Y91.1551
G01 X54.7855 Y91.1594
G01 X54.8675 Y91.1718
G01 X54.9479 Y91.1922
G01 X55.0258 Y91.2204
G01 X55.1007 Y91.2561
G01 X55.1717 Y91.2990
G01 X55.2381 Y91.3486
G01 X55.2956 Y91.4006
G01 X55.3286 Y91.4367
G01 X56.3700 Y91.4367
G01 X60.0155 Y87.7912
G01 X60.0155 Y74.2121
G01 X55.7859 Y69.9825
G01 X55.6403 Y69.9057
G01 X55.5996 Y69.9422
G01 X55.4795 Y70.0313
G01 X55.4750 Y70.0343
G01 X55.3467 Y70.1112
G01 X55.3419 Y70.1138
G01 X55.2067 Y70.1777
G01 X55.2017 Y70.1798
G01 X55.0609 Y70.2302
G01 X55.0558 Y70.2317
G01 X54.9107 Y70.2681
G01 X54.9054 Y70.2691
G01 X54.7574 Y70.2911
G01 X54.7521 Y70.2916
G01 X54.6027 Y70.2989
G01 X54.5973 Y70.2989
G01 X54.4479 Y70.2916
G01 X54.4426 Y70.2911
G01 X54.2946 Y70.2691
G01 X54.2893 Y70.2681
G01 X54.1442 Y70.2317
G01 X54.1391 Y70.2302
G01 X53.9983 Y70.1798
G01 X53.9933 Y70.1777
G01 X53.8581 Y70.1138
G01 X53.8533 Y70.1112
G01 X53.7250 Y70.0343
G01 X53.7205 Y70.0313
G01 X53.6004 Y69.9422
G01 X53.5962 Y69.9388
G01 X53.4854 Y69.8384
G01 X53.4816 Y69.8346
G01 X53.3812 Y69.7238
G01 X53.3778 Y69.7196
G01 X53.2887 Y69.5995
G01 X53.2857 Y69.5950
G01 X53.2088 Y69.4667
G01 X53.2062 Y69.4619
G01 X53.1423 Y69.3267
G01 X53.1402 Y69.3217
G01 X53.0898 Y69.1809
G01 X53.0883 Y69.1758
G01 X53.0519 Y69.0307
G01 X53.0509 Y69.0254
G01 X53.0289 Y68.8774
G01 X53.0284 Y68.8721
G01 X53.0211 Y68.7227
G01 X53.0211 Y68.7173
G01 X53.0284 Y68.5679
G01 X53.0289 Y68.5626
G01 X53.0509 Y68.4146
G01 X53.0519 Y68.4093
G01 X53.0883 Y68.2642
G01 X53.0898 Y68.2591
G01 X53.1402 Y68.1183
G01 X53.1423 Y68.1133
G01 X53.2062 Y67.9781
G01 X53.2088 Y67.9733
G01 X53.2857 Y67.8450
G01 X53.2887 Y67.8405
G01 X53.3778 Y67.7204
G01 X53.3812 Y67.7162
G01 X53.4816 Y67.6054
G01 X53.4854 Y67.6016
G01 X53.5962 Y67.5012
G01 X53.6004 Y67.4978
G01 X53.7205 Y67.4087
G01 X53.7250 Y67.4057
G01 X53.8533 Y67.3288
G01 X53.8581 Y67.3262
G01 X53.9933 Y67.2623
G01 X53.9983 Y67.2602
G01 X54.1391 Y67.2098
G01 X54.1442 Y67.2083
G01 X54.2893 Y67.1719
G01 X54.2946 Y67.1709
G01 X54.4426 Y67.1489
G01 X54.4479 Y67.1484
G01 X54.5973 Y67.1411
G01 X54.6027 Y67.1411
G01 X54.7521 Y67.1484
G01 X54.7574 Y67.1489
G01 X54.9054 Y67.1709
G01 X54.9107 Y67.1719
G01 X55.0558 Y67.2083
G01 X55.0609 Y67.2098
G01 X55.2017 Y67.2602
G01 X55.2067 Y67.2623
G01 X55.3419 Y67.3262
G01 X55.3467 Y67.3288
G01 X55.4750 Y67.4057
G01 X55.4795 Y67.4087
G01 X55.5996 Y67.4978
G01 X55.6038 Y67.5012
G01 X55.7146 Y67.6016
G01 X55.7184 Y67.6054
G01 X55.8188 Y67.7162
G01 X55.8222 Y67.7204
G01 X55.9113 Y67.8405
G01 X55.9143 Y67.8450
G01 X55.9912 Y67.9733
G01 X55.9938 Y67.9781
G01 X56.0577 Y68.1133
G01 X56.0598 Y68.1183
G01 X56.1102 Y68.2591
G01 X56.1117 Y68.2642
G01 X56.1481 Y68.4093
G01 X56.1491 Y68.4146
G01 X56.1711 Y68.5626
G01 X56.1716 Y68.5679
G01 X56.1789 Y68.7173
G01 X56.1789 Y68.7227
G01 X56.1716 Y68.8721
G01 X56.1663 Y68.9095
G01 X56.3868 Y69.0258
G01 X56.4329 Y69.0531
G01 X56.4784 Y69.0863
G01 X56.4826 Y69.0897
G01 X56.5223 Y69.1257
G01 X60.9771 Y73.5805
G01 X61.0158 Y73.6236
G01 X61.0456 Y73.6636
G01 X61.0742 Y73.7109
G01 X61.0981 Y73.7608
G01 X61.1169 Y73.8127
G01 X61.1185 Y73.8179
G01 X61.1306 Y73.8663
G01 X61.1390 Y73.9209
G01 X61.1420 Y73.9788
G01 X61.1420 Y88.0245
G01 X61.1395 Y88.0770
G01 X61.1317 Y88.1317
G01 X61.1306 Y88.1370
G01 X61.1169 Y88.1906
G01 X61.0981 Y88.2425
G01 X61.0767 Y88.2876
G01 X61.0486 Y88.3351
G01 X61.0158 Y88.3797
G01 X60.9771 Y88.4228
G01 X57.0016 Y92.3983
G01 X56.9585 Y92.4371
G01 X56.9184 Y92.4668
G01 X56.8711 Y92.4954
G01 X56.8664 Y92.4980
G01 X56.8163 Y92.5214
G01 X56.7642 Y92.5397
G01 X56.7105 Y92.5529
G01 X56.6612 Y92.5602
G01 X56.6033 Y92.5633
G01 X55.3286 Y92.5633
G01 X55.2994 Y92.5956
G01 X55.2633 Y92.6286
G01 X55.2633 Y94.9152
G01 X55.2602 Y94.9731
G01 X55.2518 Y95.0277
G01 X55.2397 Y95.0761
G01 X55.2214 Y95.1282
G01 X55.2193 Y95.1332
G01 X55.1954 Y95.1830
G01 X55.1698 Y95.2258
G01 X55.1371 Y95.2704
G01 X55.0983 Y95.3135
G01 X55.0479 Y95.3638
G01 X55.0048 Y95.4026
G01 X54.9603 Y95.4353
G01 X54.9175 Y95.4610
G01 X54.8676 Y95.4848
G01 X54.8626 Y95.4869
G01 X54.8105 Y95.5053
G01 X54.7568 Y95.5185
G01 X54.7021 Y95.5263
G01 X54.6469 Y95.5287
G01 X54.5917 Y95.5258
G01 X54.5424 Y95.5185
G01 X54.4887 Y95.5053
G01 X54.4366 Y95.4869
G01 X54.3865 Y95.4635
G01 X54.3390 Y95.4353
G01 X54.2944 Y95.4026
G01 X54.2533 Y95.3657
G01 X54.2160 Y95.3249
G01 X54.1828 Y95.2807
G01 X54.1542 Y95.2334
G01 X54.1517 Y95.2287
G01 X54.1283 Y95.1786
G01 X54.1099 Y95.1265
G01 X54.0978 Y95.0781
G01 X54.0894 Y95.0234
G01 X54.0889 Y95.0181
G01 X54.0864 Y94.9629
G01 X54.0894 Y94.9077
G01 X54.0978 Y94.8530
G01 X54.1115 Y94.7995
G01 X54.1283 Y94.7525
G01 X54.1367 Y94.7340
G01 X54.1367 Y92.8174
G01 X44.3381 Y92.8174
G01 X38.6431 Y98.5123
G01 X38.5857 Y98.5644
G01 X38.5215 Y98.6124
G01 X38.4528 Y98.6539
G01 X38.4481 Y98.6564
G01 X38.3754 Y98.6905
G01 X38.3050 Y98.7157
G01 X38.2273 Y98.7354
G01 X38.1480 Y98.7475
G01 X38.1426 Y98.7480
G01 X38.0652 Y98.7517
G01 X32.8056 Y98.7517
G01 X32.7281 Y98.7480
G01 X32.6488 Y98.7365
G01 X32.5709 Y98.7172
G01 X32.5657 Y98.7157
G01 X32.4903 Y98.6884
G01 X32.4179 Y98.6539
G01 X32.3493 Y98.6124
G01 X32.2850 Y98.5644
G01 X32.2295 Y98.5142
G01 X29.7902 Y96.0749
G01 X29.7381 Y96.0175
G01 X29.6901 Y95.9533
G01 X29.6487 Y95.8846
G01 X29.6141 Y95.8122
G01 X29.5869 Y95.7368
G01 X29.5671 Y95.6591
G01 X29.5551 Y95.5798
G01 X29.5509 Y95.4997
G01 X29.5508 Y94.4318
G01 X29.5545 Y94.3544
G01 X29.5551 Y94.3490
G01 X29.5671 Y94.2697
G01 X29.5869 Y94.1920
G01 X29.6121 Y94.1215
G01 X29.6290 Y94.0851
G01 X29.6290 Y93.0840
G01 X29.6293 Y93.0786
G01 X29.6301 Y93.0733
G01 X29.6314 Y93.0680
G01 X29.6332 Y93.0630
G01 X29.6355 Y93.0581
G01 X29.6383 Y93.0534
G01 X29.6415 Y93.0491
G01 X29.6451 Y93.0451
G01 X29.6491 Y93.0415
G01 X29.6534 Y93.0383
G01 X29.6581 Y93.0355
G01 X29.6630 Y93.0332
G01 X29.6680 Y93.0314
G01 X29.6733 Y93.0301
G01 X29.6786 Y93.0293
G01 X29.6840 Y93.0290
G01 X29.8826 Y93.0290
G01 X29.8826 Y92.1719
G01 X29.3832 Y91.6724
G01 X23.9798 Y91.6724
G01 X21.8222 Y93.8301
G01 X21.5413 Y94.2567
G01 X21.5391 Y94.2952
G01 X21.5253 Y94.3868
G01 X21.5025 Y94.4766
G01 X21.4710 Y94.5637
G01 X21.4312 Y94.6473
G01 X21.3834 Y94.7267
G01 X21.3280 Y94.8009
G01 X21.2656 Y94.8694
G01 X21.2009 Y94.9280
G01 X21.1267 Y94.9834
G01 X21.0473 Y95.0312
G01 X21.0426 Y95.0337
G01 X20.9587 Y95.0731
G01 X20.8766 Y95.1025
G01 X20.7868 Y95.1253
G01 X20.6952 Y95.1391
G01 X20.6898 Y95.1397
G01 X20.5973 Y95.1439
G01 X20.5102 Y95.1397
G01 X20.4185 Y95.1263
G01 X20.4132 Y95.1253
G01 X20.3234 Y95.1025
G01 X20.2363 Y95.0710
G01 X20.1527 Y95.0312
G01 X20.0733 Y94.9834
G01 X19.9991 Y94.9280
G01 X19.9306 Y94.8656
G01 X19.8686 Y94.7967
G01 X19.8136 Y94.7222
G01 X19.7663 Y94.6426
G01 X19.7269 Y94.5587
G01 X19.6959 Y94.4714
G01 X19.6737 Y94.3815
G01 X19.6609 Y94.2952
G01 X19.6561 Y94.2027
G01 X19.6603 Y94.1102
G01 X19.6737 Y94.0185
G01 X19.6897 Y93.9535
G01 X19.6315 Y93.7329
G01 X11.0560 Y85.1574
G01 X10.5488 Y85.1574
G01 X10.5113 Y85.2195
G01 X10.4222 Y85.3396
G01 X10.4188 Y85.3438
G01 X10.3184 Y85.4546
G01 X10.3146 Y85.4584
G01 X10.2038 Y85.5588
G01 X10.1996 Y85.5622
G01 X10.0795 Y85.6513
G01 X10.0750 Y85.6543
G01 X9.9467 Y85.7312
G01 X9.9419 Y85.7338
G01 X9.8067 Y85.7977
G01 X9.8017 Y85.7998
G01 X9.6609 Y85.8502
G01 X9.6558 Y85.8517
G01 X9.5107 Y85.8881
G01 X9.5054 Y85.8891
G01 X9.3574 Y85.9111
G01 X9.3521 Y85.9116
G01 X9.2027 Y85.9189
G01 X9.1973 Y85.9189
G01 X9.0479 Y85.9116
G01 X9.0426 Y85.9111
G01 X8.8946 Y85.8891
G01 X8.8893 Y85.8881
G01 X8.7442 Y85.8517
G01 X8.7391 Y85.8502
G01 X8.5983 Y85.7998
G01 X8.5933 Y85.7977
G01 X8.4581 Y85.7338
G01 X8.4533 Y85.7312
G01 X8.3250 Y85.6543
G01 X8.3205 Y85.6513
G01 X8.2004 Y85.5622
G01 X8.1962 Y85.5588
G01 X8.0854 Y85.4584
G01 X8.0816 Y85.4546
G01 X7.9812 Y85.3438
G01 X7.9778 Y85.3396
G01 X7.8887 Y85.2195
G01 X7.8857 Y85.2150
G01 X7.8088 Y85.0867
G01 X7.8062 Y85.0819
G01 X7.7423 Y84.9467
G01 X7.7402 Y84.9417
G01 X7.6898 Y84.8009
G01 X7.6883 Y84.7958
G01 X7.6519 Y84.6507
G01 X7.6509 Y84.6454
G01 X7.6289 Y84.4974
G01 X7.6265 Y84.4543
G01 X7.5930 Y84.4442
G01 X6.4306 Y84.4441
G01 X6.3755 Y84.4411
G01 X6.3261 Y84.4338
G01 X6.2724 Y84.4206
G01 X6.2203 Y84.4023
G01 X6.2153 Y84.4002
G01 X6.1655 Y84.3763
G01 X6.1182 Y84.3477
G01 X6.0781 Y84.3180
G01 X6.0351 Y84.2792
G01 X5.9017 Y84.1458
G01 X5.8629 Y84.1028
G01 X5.8332 Y84.0627
G01 X5.8046 Y84.0154
G01 X5.7807 Y83.9656
G01 X5.7618 Y83.9136
G01 X5.7482 Y83.8601
G01 X5.7471 Y83.8548
G01 X5.7393 Y83.8001
G01 X5.7367 Y83.7476
G01 X5.7368 Y80.5820
G01 X5.7398 Y80.5268
G01 X5.7482 Y80.4721
G01 X5.7618 Y80.4186
G01 X5.7807 Y80.3666
G01 X5.8046 Y80.3168
G01 X5.8332 Y80.2695
G01 X5.8629 Y80.2295
G01 X5.8999 Y80.1883
G01 X5.9406 Y80.1510
G01 X5.9849 Y80.1179
G01 X6.0321 Y80.0892
G01 X6.0369 Y80.0867
G01 X6.0870 Y80.0633
G01 X6.1391 Y80.0449
G01 X6.1928 Y80.0318
G01 X6.2475 Y80.0239
G01 X6.2973 Y80.0215
G01 X10.5275 Y80.0214
G01 X11.0039 Y79.5450
G01 X11.0039 Y74.5633
G01 X3.2310 Y74.5633
G01 X3.1784 Y74.5607
G01 X3.1237 Y74.5529
G01 X3.0701 Y74.5397
G01 X3.0649 Y74.5382
G01 X3.0129 Y74.5193
G01 X2.9631 Y74.4954
G01 X2.9203 Y74.4698
G01 X2.8758 Y74.4371
G01 X2.8346 Y74.4001
G01 X2.7973 Y74.3594
G01 X2.7642 Y74.3151
G01 X2.7355 Y74.2679
G01 X2.7330 Y74.2631
G01 X2.7096 Y74.2130
G01 X2.6912 Y74.1609
G01 X2.6781 Y74.1072
G01 X2.6707 Y74.0579
G01 X2.6677 Y74.0000
G01 X2.6677 Y38.9090
G01 X2.6707 Y38.8512
G01 X2.6791 Y38.7965
G01 X2.6912 Y38.7481
G01 X2.7096 Y38.6960
G01 X2.7330 Y38.6459
G01 X2.7355 Y38.6412
G01 X2.7642 Y38.5939
G01 X2.7973 Y38.5497
G01 X2.8308 Y38.5127
G01 X5.1017 Y36.2417
G01 X5.1448 Y36.2029
G01 X5.1894 Y36.1702
G01 X5.2321 Y36.1446
G01 X5.2820 Y36.1207
G01 X5.2870 Y36.1186
G01 X5.3391 Y36.1003
G01 X5.3928 Y36.0871
G01 X5.4421 Y36.0798
G01 X5.4973 Y36.0768
G01 X7.5265 Y36.0767
G01 X7.5423 Y36.0333
G01 X7.6062 Y35.8981
G01 X7.6088 Y35.8933
G01 X7.6857 Y35.7650
G01 X7.6887 Y35.7605
G01 X7.7778 Y35.6404
G01 X7.7812 Y35.6362
G01 X7.8816 Y35.5254
G01 X7.8854 Y35.5216
G01 X7.9962 Y35.4212
G01 X8.0004 Y35.4178
G01 X8.1205 Y35.3287
G01 X8.1250 Y35.3257
G01 X8.2533 Y35.2488
G01 X8.2581 Y35.2462
G01 X8.3933 Y35.1823
G01 X8.4367 Y35.1665
G01 X8.4367 Y31.7535
G01 X8.3933 Y31.7377
G01 X8.2581 Y31.6738
G01 X8.2533 Y31.6712
G01 X8.1250 Y31.5943
G01 X8.1205 Y31.5913
G01 X8.0004 Y31.5022
G01 X7.9962 Y31.4988
G01 X7.8854 Y31.3984
G01 X7.8816 Y31.3946
G01 X7.7812 Y31.2838
G01 X7.7778 Y31.2796
G01 X7.6887 Y31.1595
G01 X7.6718 Y31.1318
G01 X7.4760 Y31.1366
G01 X4.2519 Y31.1366
G01 X4.1744 Y31.1329
G01 X4.0951 Y31.1213
G01 X4.0172 Y31.1021
G01 X3.9416 Y31.0753
G01 X3.8690 Y31.0413
G01 X3.8000 Y31.0003
G01 X3.7354 Y30.9527
G01 X3.6758 Y30.8990
G01 X2.5202 Y29.7434
G01 X2.4665 Y29.6838
G01 X2.4189 Y29.6192
G01 X2.3805 Y29.5550
G01 X2.3779 Y29.5502
G01 X2.3439 Y29.4776
G01 X2.3187 Y29.4072
G01 X2.2989 Y29.3294
G01 X2.2869 Y29.2501
G01 X2.2864 Y29.2448
G01 X2.2826 Y29.1673
G01 X2.2826 Y7.4822
G01 X2.2864 Y7.4047
G01 X2.2979 Y7.3254
G01 X2.3171 Y7.2475
G01 X2.3187 Y7.2423
G01 X2.3459 Y7.1669
G01 X2.3805 Y7.0945
G01 X2.4219 Y7.0259
G01 X2.4665 Y6.9658
G01 X2.4699 Y6.9616
G01 X2.5220 Y6.9042
G01 X2.7661 Y6.6602
G01 X2.8258 Y6.6065
G01 X2.8859 Y6.5619
G01 X2.9545 Y6.5205
G01 X3.0269 Y6.4859
G01 X3.0319 Y6.4839
G01 X3.1075 Y6.4571
G01 X3.1801 Y6.4389
G01 X3.2594 Y6.4269
G01 X3.2647 Y6.4264
G01 X3.3422 Y6.4226
G01 X7.4512 Y6.4226
G01 X7.4887 Y6.3605
G01 X7.5778 Y6.2404
G01 X7.5812 Y6.2362
G01 X7.6816 Y6.1254
G01 X7.6854 Y6.1216
G01 X7.7962 Y6.0212
G01 X7.8004 Y6.0178
G01 X7.9205 Y5.9287
G01 X7.9250 Y5.9257
G01 X8.0533 Y5.8488
G01 X8.0581 Y5.8462
G01 X8.1933 Y5.7823
G01 X8.1983 Y5.7802
G01 X8.3391 Y5.7298
G01 X8.3442 Y5.7283
G01 X8.4893 Y5.6919
G01 X8.4946 Y5.6909
G01 X8.6426 Y5.6689
G01 X8.6479 Y5.6684
G01 X8.7973 Y5.6611
G01 X8.8027 Y5.6611
G01 X8.9521 Y5.6684
G01 X8.9574 Y5.6689
G01 X9.1054 Y5.6909
G01 X9.1107 Y5.6919
G01 X9.2558 Y5.7283
G01 X9.2609 Y5.7298
G01 X9.4017 Y5.7802
G01 X9.4067 Y5.7823
G01 X9.5419 Y5.8462
G01 X9.5467 Y5.8488
G01 X9.6750 Y5.9257
G01 X9.6795 Y5.9287
G01 X9.7996 Y6.0178
G01 X9.8038 Y6.0212
G01 X9.9146 Y6.1216
G01 X9.9184 Y6.1254
G01 X10.0188 Y6.2362
G01 X10.0222 Y6.2404
G01 X10.1113 Y6.3605
G01 X10.1488 Y6.4226
G01 X16.4394 Y6.4226
G01 X16.5742 Y6.2879
G01 X16.6287 Y6.2384
G01 X16.6826 Y6.1979
G01 X16.6826 Y3.8000
G01 X16.6864 Y3.7226
G01 X16.6869 Y3.7172
G01 X16.6989 Y3.6379
G01 X16.7187 Y3.5602
G01 X16.7459 Y3.4847
G01 X16.7805 Y3.4123
G01 X16.8219 Y3.3437
G01 X16.8699 Y3.2794
G01 X16.9202 Y3.2240
G01 X18.0896 Y2.0545
G01 X18.1451 Y2.0043
G01 X18.2093 Y1.9563
G01 X18.2780 Y1.9148
G01 X18.2827 Y1.9123
G01 X18.3554 Y1.8782
G01 X18.4258 Y1.8530
G01 X18.5035 Y1.8333
G01 X18.5088 Y1.8322
G01 X18.5882 Y1.8207
G01 X18.6656 Y1.8170
G01 X32.1949 Y1.8170
G01 X32.2723 Y1.8207
G01 X32.3517 Y1.8322
G01 X32.3570 Y1.8333
G01 X32.4347 Y1.8530
G01 X32.5101 Y1.8803
G01 X32.5825 Y1.9148
G01 X32.6512 Y1.9563
G01 X32.7155 Y2.0043
G01 X32.7728 Y2.0564
G01 X33.0985 Y2.3820
G01 X33.1506 Y2.4394
G01 X33.1540 Y2.4436
G01 X33.2016 Y2.5082
G01 X33.2426 Y2.5771
G01 X33.2746 Y2.6447
G01 X33.3018 Y2.7202
G01 X33.3034 Y2.7253
G01 X33.3226 Y2.8032
G01 X33.3342 Y2.8826
G01 X33.3378 Y2.9573
G01 X33.3379 Y4.6840
G01 X33.3343 Y4.7598
