(G-CODE GENERATED BY FLATCAM v8.991 - www.flatcam.org - Version Date: 2019/12/27)

(Name: PCBaudio - CADCAM Bottom Copper.GBR_ncc_cnc)
(Type: G-code from Geometry)
(Units: MM)

(Created on Wednesday, 27 November 2024 at 11:12)

(TOOL DIAMETER: 0.11 mm)
(Feedrate: 45.0 mm/min)
(Feedrate_Z: 25.0 mm/min)
(Feedrate rapids 1500.0 mm/min)

(Z_Cut: -0.0187 mm)
(Z_Move: 2.0 mm)
(Z Toolchange: 15.0 mm)
(X,Y Toolchange: 0.0000, 0.0000 mm)
(Z Start: None mm)
(Z End: 15.0 mm)
(Steps per circle: 64)
(Preprocessor Geometry: default)

(X range:    0.3041 ...   76.2908  mm)
(Y range:    0.2567 ...   24.2433  mm)

(Spindle Speed: None RPM)
G21
G90
G94




G01 F45.00
G00 Z2.0000

M03
G00 X25.5145 Y9.5735
G01 F25.00
G01 Z-0.0187
G01 F45.00
G01 X25.5145 Y16.1371
G01 X25.5115 Y16.1950
G01 X25.5031 Y16.2496
G01 X25.4910 Y16.2980
G01 X25.4726 Y16.3501
G01 X25.4705 Y16.3551
G01 X25.4467 Y16.4050
G01 X25.4210 Y16.4478
G01 X25.3883 Y16.4923
G01 X25.3495 Y16.5354
G01 X23.2867 Y18.5983
G01 X23.2477 Y18.6336
G01 X23.2035 Y18.6668
G01 X23.1562 Y18.6954
G01 X23.1515 Y18.6980
G01 X23.1014 Y18.7214
G01 X23.0544 Y18.7382
G01 X23.0009 Y18.7518
G01 X22.9463 Y18.7602
G01 X22.8884 Y18.7633
G01 X7.9185 Y18.7633
G01 X7.9185 Y19.2160
G01 X7.9182 Y19.2214
G01 X7.9174 Y19.2267
G01 X7.9161 Y19.2320
G01 X7.9143 Y19.2370
G01 X7.9120 Y19.2419
G01 X7.9092 Y19.2466
G01 X7.9060 Y19.2509
G01 X7.9024 Y19.2549
G01 X7.8984 Y19.2585
G01 X7.8940 Y19.2617
G01 X7.8894 Y19.2645
G01 X7.8845 Y19.2668
G01 X7.8794 Y19.2686
G01 X7.8742 Y19.2699
G01 X7.8689 Y19.2707
G01 X7.8635 Y19.2710
G01 X5.8315 Y19.2710
G01 X5.8261 Y19.2707
G01 X5.8207 Y19.2699
G01 X5.8155 Y19.2686
G01 X5.8104 Y19.2668
G01 X5.8055 Y19.2645
G01 X5.8009 Y19.2617
G01 X5.7966 Y19.2585
G01 X5.7926 Y19.2549
G01 X5.7889 Y19.2509
G01 X5.7857 Y19.2466
G01 X5.7830 Y19.2419
G01 X5.7806 Y19.2370
G01 X5.7788 Y19.2320
G01 X5.7775 Y19.2267
G01 X5.7767 Y19.2214
G01 X5.7765 Y19.2160
G01 X5.7765 Y17.1840
G01 X5.7767 Y17.1786
G01 X5.7775 Y17.1733
G01 X5.7788 Y17.1680
G01 X5.7806 Y17.1630
G01 X5.7830 Y17.1581
G01 X5.7857 Y17.1534
G01 X5.7889 Y17.1491
G01 X5.7926 Y17.1451
G01 X5.7966 Y17.1415
G01 X5.8009 Y17.1383
G01 X5.8055 Y17.1355
G01 X5.8104 Y17.1332
G01 X5.8155 Y17.1314
G01 X5.8207 Y17.1301
G01 X5.8261 Y17.1293
G01 X5.8315 Y17.1290
G01 X7.8635 Y17.1290
G01 X7.8689 Y17.1293
G01 X7.8742 Y17.1301
G01 X7.8794 Y17.1314
G01 X7.8845 Y17.1332
G01 X7.8894 Y17.1355
G01 X7.8940 Y17.1383
G01 X7.8984 Y17.1415
G01 X7.9024 Y17.1451
G01 X7.9060 Y17.1491
G01 X7.9092 Y17.1534
G01 X7.9120 Y17.1581
G01 X7.9143 Y17.1630
G01 X7.9161 Y17.1680
G01 X7.9174 Y17.1733
G01 X7.9182 Y17.1786
G01 X7.9185 Y17.1840
G01 X7.9185 Y17.6367
G01 X22.6551 Y17.6367
G01 X24.3880 Y15.9038
G01 X24.3880 Y9.5735
G01 X24.3445 Y9.5577
G01 X24.2093 Y9.4938
G01 X24.2046 Y9.4912
G01 X24.0763 Y9.4143
G01 X24.0718 Y9.4113
G01 X23.9517 Y9.3222
G01 X23.9475 Y9.3188
G01 X23.8367 Y9.2184
G01 X23.8329 Y9.2146
G01 X23.7324 Y9.1038
G01 X23.7290 Y9.0996
G01 X23.6399 Y8.9795
G01 X23.6369 Y8.9750
G01 X23.5600 Y8.8467
G01 X23.5575 Y8.8419
G01 X23.4935 Y8.7067
G01 X23.4915 Y8.7017
G01 X23.4411 Y8.5609
G01 X23.4395 Y8.5558
G01 X23.4032 Y8.4107
G01 X23.4021 Y8.4054
G01 X23.3802 Y8.2574
G01 X23.3797 Y8.2521
G01 X23.3723 Y8.1027
G01 X23.3723 Y8.0973
G01 X23.3797 Y7.9479
G01 X23.3802 Y7.9426
G01 X23.4021 Y7.7946
G01 X23.4032 Y7.7893
G01 X23.4395 Y7.6442
G01 X23.4411 Y7.6391
G01 X23.4915 Y7.4983
G01 X23.4935 Y7.4933
G01 X23.5575 Y7.3581
G01 X23.5600 Y7.3533
G01 X23.6369 Y7.2250
G01 X23.6399 Y7.2205
G01 X23.7290 Y7.1004
G01 X23.7324 Y7.0962
G01 X23.8329 Y6.9854
G01 X23.8367 Y6.9816
G01 X23.9475 Y6.8812
G01 X23.9517 Y6.8778
G01 X24.0718 Y6.7887
G01 X24.0763 Y6.7857
G01 X24.2046 Y6.7088
G01 X24.2093 Y6.7062
G01 X24.3445 Y6.6423
G01 X24.3495 Y6.6402
G01 X24.4903 Y6.5898
G01 X24.4955 Y6.5883
G01 X24.6406 Y6.5519
G01 X24.6459 Y6.5509
G01 X24.7938 Y6.5289
G01 X24.7992 Y6.5284
G01 X24.9486 Y6.5211
G01 X24.9540 Y6.5211
G01 X25.1033 Y6.5284
G01 X25.1087 Y6.5289
G01 X25.2566 Y6.5509
G01 X25.2619 Y6.5519
G01 X25.4070 Y6.5883
G01 X25.4122 Y6.5898
G01 X25.5530 Y6.6402
G01 X25.5580 Y6.6423
G01 X25.6932 Y6.7062
G01 X25.6979 Y6.7088
G01 X25.8262 Y6.7857
G01 X25.8307 Y6.7887
G01 X25.9508 Y6.8778
G01 X25.9550 Y6.8812
G01 X26.0658 Y6.9816
G01 X26.0696 Y6.9854
G01 X26.1701 Y7.0962
G01 X26.1735 Y7.1004
G01 X26.2626 Y7.2205
G01 X26.2656 Y7.2250
G01 X26.3425 Y7.3533
G01 X26.3450 Y7.3581
G01 X26.4090 Y7.4933
G01 X26.4110 Y7.4983
G01 X26.4614 Y7.6391
G01 X26.4630 Y7.6442
G01 X26.4993 Y7.7893
G01 X26.5004 Y7.7946
G01 X26.5223 Y7.9426
G01 X26.5229 Y7.9479
G01 X26.5302 Y8.0973
G01 X26.5302 Y8.1027
G01 X26.5229 Y8.2521
G01 X26.5223 Y8.2574
G01 X26.5004 Y8.4054
G01 X26.4993 Y8.4107
G01 X26.4630 Y8.5558
G01 X26.4614 Y8.5609
G01 X26.4110 Y8.7017
G01 X26.4090 Y8.7067
G01 X26.3450 Y8.8419
G01 X26.3425 Y8.8467
G01 X26.2656 Y8.9750
G01 X26.2626 Y8.9795
G01 X26.1735 Y9.0996
G01 X26.1701 Y9.1038
G01 X26.0696 Y9.2146
G01 X26.0658 Y9.2184
G01 X25.9550 Y9.3188
G01 X25.9508 Y9.3222
G01 X25.8307 Y9.4113
G01 X25.8262 Y9.4143
G01 X25.6979 Y9.4912
G01 X25.6932 Y9.4938
G01 X25.5580 Y9.5577
G01 X25.5145 Y9.5735
G00 Z2.0000
G00 X30.3897 Y6.5830
G01 F25.00
G01 Z-0.0187
G01 F45.00
G01 X30.6488 Y6.2378
G01 X30.7010 Y6.1777
G01 X33.2325 Y3.6462
G01 X33.2714 Y3.6108
G01 X33.3157 Y3.5777
G01 X33.3202 Y3.5747
G01 X33.3677 Y3.5465
G01 X33.4178 Y3.5231
G01 X33.4647 Y3.5063
G01 X33.4699 Y3.5047
G01 X33.5236 Y3.4916
G01 X33.5783 Y3.4837
G01 X33.6308 Y3.4812
G01 X46.2475 Y3.4812
G01 X46.3053 Y3.4842
G01 X46.3600 Y3.4926
G01 X46.4135 Y3.5063
G01 X46.4605 Y3.5231
G01 X46.5106 Y3.5465
G01 X46.5153 Y3.5490
G01 X46.5626 Y3.5777
G01 X46.6068 Y3.6108
G01 X46.6476 Y3.6481
G01 X46.6811 Y3.6851
G01 X46.6845 Y3.6893
G01 X46.7172 Y3.7338
G01 X46.7429 Y3.7766
G01 X46.7667 Y3.8264
G01 X46.7856 Y3.8784
G01 X46.7993 Y3.9319
G01 X46.8077 Y3.9866
G01 X46.8082 Y3.9919
G01 X46.8107 Y4.0445
G01 X46.8107 Y10.5667
G01 X47.3808 Y11.1367
G01 X50.4142 Y11.1367
G01 X50.7842 Y10.7667
G01 X50.7843 Y4.4973
G01 X50.7872 Y4.4421
G01 X50.7956 Y4.3875
G01 X50.8093 Y4.3339
G01 X50.8282 Y4.2820
G01 X50.8520 Y4.2321
G01 X50.8777 Y4.1894
G01 X50.9104 Y4.1448
G01 X50.9473 Y4.1037
G01 X50.9881 Y4.0664
G01 X51.0323 Y4.0332
G01 X51.0796 Y4.0046
G01 X51.0844 Y4.0020
G01 X51.1344 Y3.9786
G01 X51.1866 Y3.9603
G01 X51.2402 Y3.9471
G01 X51.2949 Y3.9393
G01 X51.3475 Y3.9367
G01 X58.8949 Y3.9367
G01 X58.9474 Y3.9393
G01 X59.0021 Y3.9471
G01 X59.0558 Y3.9603
G01 X59.0610 Y3.9618
G01 X59.1129 Y3.9807
G01 X59.1628 Y4.0046
G01 X59.2101 Y4.0332
G01 X59.2543 Y4.0664
G01 X59.2932 Y4.1017
G01 X63.5282 Y8.3367
G01 X68.8765 Y8.3367
G01 X68.8765 Y7.8840
G01 X68.8767 Y7.8786
G01 X68.8775 Y7.8733
G01 X68.8788 Y7.8680
G01 X68.8806 Y7.8630
G01 X68.8830 Y7.8581
G01 X68.8857 Y7.8534
G01 X68.8889 Y7.8491
G01 X68.8926 Y7.8451
G01 X68.8966 Y7.8415
G01 X68.9009 Y7.8383
G01 X68.9055 Y7.8355
G01 X68.9104 Y7.8332
G01 X68.9155 Y7.8314
G01 X68.9207 Y7.8301
G01 X68.9261 Y7.8293
G01 X68.9315 Y7.8290
G01 X70.9635 Y7.8290
G01 X70.9689 Y7.8293
G01 X70.9742 Y7.8301
G01 X70.9794 Y7.8314
G01 X70.9845 Y7.8332
G01 X70.9894 Y7.8355
G01 X70.9940 Y7.8383
G01 X70.9984 Y7.8415
G01 X71.0024 Y7.8451
G01 X71.0060 Y7.8491
G01 X71.0092 Y7.8534
G01 X71.0120 Y7.8581
G01 X71.0143 Y7.8630
G01 X71.0161 Y7.8680
G01 X71.0174 Y7.8733
G01 X71.0182 Y7.8786
G01 X71.0185 Y7.8840
G01 X71.0185 Y9.9160
G01 X71.0182 Y9.9214
G01 X71.0174 Y9.9267
G01 X71.0161 Y9.9320
G01 X71.0143 Y9.9370
G01 X71.0120 Y9.9419
G01 X71.0092 Y9.9466
G01 X71.0060 Y9.9509
G01 X71.0024 Y9.9549
G01 X70.9984 Y9.9585
G01 X70.9940 Y9.9617
G01 X70.9894 Y9.9645
G01 X70.9845 Y9.9668
G01 X70.9794 Y9.9686
G01 X70.9742 Y9.9699
G01 X70.9689 Y9.9707
G01 X70.9635 Y9.9710
G01 X68.9315 Y9.9710
G01 X68.9261 Y9.9707
G01 X68.9207 Y9.9699
G01 X68.9155 Y9.9686
G01 X68.9104 Y9.9668
G01 X68.9055 Y9.9645
G01 X68.9009 Y9.9617
G01 X68.8966 Y9.9585
G01 X68.8926 Y9.9549
G01 X68.8889 Y9.9509
G01 X68.8857 Y9.9466
G01 X68.8830 Y9.9419
G01 X68.8806 Y9.9370
G01 X68.8788 Y9.9320
G01 X68.8775 Y9.9267
G01 X68.8767 Y9.9214
G01 X68.8765 Y9.9160
G01 X68.8765 Y9.4633
G01 X63.2949 Y9.4633
G01 X63.2424 Y9.4607
G01 X63.1877 Y9.4529
G01 X63.1340 Y9.4397
G01 X63.0819 Y9.4214
G01 X63.0318 Y9.3980
G01 X62.9843 Y9.3698
G01 X62.9397 Y9.3371
G01 X62.8966 Y9.2983
G01 X58.6616 Y5.0633
G01 X51.9107 Y5.0633
G01 X51.9107 Y11.0000
G01 X51.9082 Y11.0525
G01 X51.9004 Y11.1072
G01 X51.8993 Y11.1125
G01 X51.8856 Y11.1661
G01 X51.8688 Y11.2130
G01 X51.8454 Y11.2631
G01 X51.8172 Y11.3106
G01 X51.8142 Y11.3151
G01 X51.7811 Y11.3594
G01 X51.7457 Y11.3983
G01 X51.0457 Y12.0983
G01 X51.0068 Y12.1336
G01 X50.9626 Y12.1668
G01 X50.9581 Y12.1698
G01 X50.9106 Y12.1980
G01 X50.8655 Y12.2193
G01 X50.8135 Y12.2382
G01 X50.7600 Y12.2518
G01 X50.7053 Y12.2602
G01 X50.6475 Y12.2633
G01 X47.1475 Y12.2633
G01 X47.0949 Y12.2607
G01 X47.0402 Y12.2529
G01 X46.9866 Y12.2397
G01 X46.9344 Y12.2214
G01 X46.9294 Y12.2193
G01 X46.8796 Y12.1954
G01 X46.8323 Y12.1668
G01 X46.7881 Y12.1336
G01 X46.7492 Y12.0983
G01 X45.8492 Y11.1983
G01 X45.8138 Y11.1594
G01 X45.7807 Y11.1151
G01 X45.7777 Y11.1106
G01 X45.7520 Y11.0679
G01 X45.7282 Y11.0180
G01 X45.7093 Y10.9661
G01 X45.6956 Y10.9125
G01 X45.6946 Y10.9072
G01 X45.6867 Y10.8525
G01 X45.6842 Y10.8000
G01 X45.6842 Y4.6077
G01 X33.8641 Y4.6077
G01 X31.5257 Y6.9461
G01 X31.2902 Y7.2598
G01 X31.3463 Y7.3533
G01 X31.3488 Y7.3581
G01 X31.4128 Y7.4933
G01 X31.4148 Y7.4983
G01 X31.4652 Y7.6391
G01 X31.4668 Y7.6442
G01 X31.5031 Y7.7893
G01 X31.5042 Y7.7946
G01 X31.5261 Y7.9426
G01 X31.5267 Y7.9479
G01 X31.5340 Y8.0973
G01 X31.5340 Y8.1027
G01 X31.5267 Y8.2521
G01 X31.5261 Y8.2574
G01 X31.5042 Y8.4054
G01 X31.5031 Y8.4107
G01 X31.4668 Y8.5558
G01 X31.4652 Y8.5609
G01 X31.4148 Y8.7017
G01 X31.4128 Y8.7067
G01 X31.3488 Y8.8419
G01 X31.3463 Y8.8467
G01 X31.2694 Y8.9750
G01 X31.2664 Y8.9795
G01 X31.1773 Y9.0996
G01 X31.1739 Y9.1038
G01 X31.0734 Y9.2146
G01 X31.0696 Y9.2184
G01 X30.9588 Y9.3188
G01 X30.9546 Y9.3222
G01 X30.8345 Y9.4113
G01 X30.8300 Y9.4143
G01 X30.7017 Y9.4912
G01 X30.6970 Y9.4938
G01 X30.5618 Y9.5577
G01 X30.5568 Y9.5598
G01 X30.4160 Y9.6102
G01 X30.4108 Y9.6117
G01 X30.2657 Y9.6481
G01 X30.2604 Y9.6491
G01 X30.1125 Y9.6711
G01 X30.1071 Y9.6716
G01 X29.9578 Y9.6789
G01 X29.9524 Y9.6789
G01 X29.8030 Y9.6716
G01 X29.7976 Y9.6711
G01 X29.6497 Y9.6491
G01 X29.6444 Y9.6481
G01 X29.4993 Y9.6117
G01 X29.4941 Y9.6102
G01 X29.3533 Y9.5598
G01 X29.3483 Y9.5577
G01 X29.2131 Y9.4938
G01 X29.2084 Y9.4912
G01 X29.0801 Y9.4143
G01 X29.0756 Y9.4113
G01 X28.9555 Y9.3222
G01 X28.9513 Y9.3188
G01 X28.8405 Y9.2184
G01 X28.8367 Y9.2146
G01 X28.7362 Y9.1038
G01 X28.7328 Y9.0996
G01 X28.6437 Y8.9795
G01 X28.6407 Y8.9750
G01 X28.5638 Y8.8467
G01 X28.5613 Y8.8419
G01 X28.4973 Y8.7067
G01 X28.4953 Y8.7017
G01 X28.4449 Y8.5609
G01 X28.4433 Y8.5558
G01 X28.4070 Y8.4107
G01 X28.4059 Y8.4054
G01 X28.3840 Y8.2574
G01 X28.3835 Y8.2521
G01 X28.3761 Y8.1027
G01 X28.3761 Y8.0973
G01 X28.3835 Y7.9479
G01 X28.3840 Y7.9426
G01 X28.4059 Y7.7946
G01 X28.4070 Y7.7893
G01 X28.4433 Y7.6442
G01 X28.4449 Y7.6391
G01 X28.4953 Y7.4983
G01 X28.4973 Y7.4933
G01 X28.5613 Y7.3581
G01 X28.5638 Y7.3533
G01 X28.6407 Y7.2250
G01 X28.6437 Y7.2205
G01 X28.7328 Y7.1004
G01 X28.7362 Y7.0962
G01 X28.8367 Y6.9854
G01 X28.8405 Y6.9816
G01 X28.9513 Y6.8812
G01 X28.9555 Y6.8778
G01 X29.0756 Y6.7887
G01 X29.0801 Y6.7857
G01 X29.2084 Y6.7088
G01 X29.2131 Y6.7062
G01 X29.3483 Y6.6423
G01 X29.3533 Y6.6402
G01 X29.4941 Y6.5898
G01 X29.4993 Y6.5883
G01 X29.6444 Y6.5519
G01 X29.6497 Y6.5509
G01 X29.7976 Y6.5289
G01 X29.8030 Y6.5284
G01 X29.9524 Y6.5211
G01 X29.9578 Y6.5211
G01 X30.1071 Y6.5284
G01 X30.1125 Y6.5289
G01 X30.2604 Y6.5509
G01 X30.2657 Y6.5519
G01 X30.3897 Y6.5830
G00 Z2.0000
G00 X28.8606 Y20.1804
G01 F25.00
G01 Z-0.0187
G01 F45.00
G01 X28.8580 Y20.1693
G01 X28.8570 Y20.1609
G01 X28.8570 Y20.1492
G01 X28.8580 Y20.1408
G01 X28.8590 Y20.1355
G01 X28.8613 Y20.1273
G01 X28.8645 Y20.1194
G01 X28.8683 Y20.1118
G01 X28.8729 Y20.1046
G01 X28.8803 Y20.0957
G01 X28.8864 Y20.0897
G01 X28.8931 Y20.0845
G01 X28.9003 Y20.0799
G01 X28.9078 Y20.0760
G01 X28.9158 Y20.0729
G01 X28.9240 Y20.0705
G01 X28.9323 Y20.0690
G01 X28.9377 Y20.0685
G01 X29.3499 Y20.0683
G01 X29.3611 Y20.0690
G01 X29.3695 Y20.0705
G01 X29.3777 Y20.0729
G01 X29.3884 Y20.0773
G01 X29.3958 Y20.0815
G01 X29.4003 Y20.0845
G01 X29.4093 Y20.0918
G01 X29.4152 Y20.0980
G01 X29.4187 Y20.1021
G01 X29.4251 Y20.1118
G01 X29.4290 Y20.1194
G01 X29.4321 Y20.1273
G01 X29.4344 Y20.1355
G01 X29.4355 Y20.1408
G01 X29.4366 Y20.1524
G01 X29.4365 Y20.1609
G01 X29.4355 Y20.1693
G01 X29.4328 Y20.1805
G01 X29.4344 Y20.1863
G01 X29.4359 Y20.1947
G01 X29.4366 Y20.2032
G01 X29.4366 Y20.2085
G01 X29.4355 Y20.2201
G01 X29.4328 Y20.2313
G01 X29.4344 Y20.2371
G01 X29.4359 Y20.2455
G01 X29.4366 Y20.2540
G01 X29.4366 Y20.2593
G01 X29.4355 Y20.2709
G01 X29.4328 Y20.2821
G01 X29.4344 Y20.2879
G01 X29.4359 Y20.2963
G01 X29.4366 Y20.3048
G01 X29.4366 Y20.3101
G01 X29.4355 Y20.3217
G01 X29.4328 Y20.3329
G01 X29.4344 Y20.3387
G01 X29.4359 Y20.3471
G01 X29.4366 Y20.3556
G01 X29.4366 Y20.3609
G01 X29.4355 Y20.3725
G01 X29.4328 Y20.3837
G01 X29.4344 Y20.3895
G01 X29.4359 Y20.3979
G01 X29.4366 Y20.4064
G01 X29.4366 Y20.4117
G01 X29.4355 Y20.4233
G01 X29.4328 Y20.4345
G01 X29.4344 Y20.4403
G01 X29.4359 Y20.4487
G01 X29.4366 Y20.4572
G01 X29.4366 Y20.4625
G01 X29.4355 Y20.4741
G01 X29.4328 Y20.4853
G01 X29.4344 Y20.4911
G01 X29.4359 Y20.4995
G01 X29.4366 Y20.5080
G01 X29.4366 Y20.5133
G01 X29.4355 Y20.5249
G01 X29.4328 Y20.5361
G01 X29.4344 Y20.5419
G01 X29.4359 Y20.5503
G01 X29.4366 Y20.5588
G01 X29.4366 Y20.5641
G01 X29.4355 Y20.5757
G01 X29.4328 Y20.5869
G01 X29.4344 Y20.5927
G01 X29.4359 Y20.6011
G01 X29.4366 Y20.6096
G01 X29.4366 Y20.6149
G01 X29.4355 Y20.6265
G01 X29.4328 Y20.6377
G01 X29.4344 Y20.6435
G01 X29.4359 Y20.6519
G01 X29.4366 Y20.6604
G01 X29.4366 Y20.6657
G01 X29.4355 Y20.6773
G01 X29.4328 Y20.6885
G01 X29.4344 Y20.6943
G01 X29.4359 Y20.7027
G01 X29.4366 Y20.7112
G01 X29.4366 Y20.7165
G01 X29.4355 Y20.7281
G01 X29.4328 Y20.7393
G01 X29.4344 Y20.7451
G01 X29.4359 Y20.7535
G01 X29.4366 Y20.7620
G01 X29.4366 Y20.7673
G01 X29.4355 Y20.7789
G01 X29.4328 Y20.7901
G01 X29.4344 Y20.7959
G01 X29.4359 Y20.8043
G01 X29.4366 Y20.8128
G01 X29.4366 Y20.8181
G01 X29.4355 Y20.8297
G01 X29.4328 Y20.8409
G01 X29.4344 Y20.8467
G01 X29.4359 Y20.8551
G01 X29.4366 Y20.8636
G01 X29.4366 Y20.8689
G01 X29.4355 Y20.8805
G01 X29.4328 Y20.8917
G01 X29.4344 Y20.8975
G01 X29.4359 Y20.9059
G01 X29.4366 Y20.9144
G01 X29.4366 Y20.9197
G01 X29.4355 Y20.9313
G01 X29.4328 Y20.9425
G01 X29.4344 Y20.9483
G01 X29.4359 Y20.9567
G01 X29.4366 Y20.9652
G01 X29.4366 Y20.9705
G01 X29.4355 Y20.9821
G01 X29.4328 Y20.9933
G01 X29.4344 Y20.9991
G01 X29.4359 Y21.0075
G01 X29.4366 Y21.0160
G01 X29.4366 Y21.0213
G01 X29.4355 Y21.0329
G01 X29.4328 Y21.0441
G01 X29.4344 Y21.0499
G01 X29.4359 Y21.0583
G01 X29.4366 Y21.0668
G01 X29.4366 Y21.0721
G01 X29.4355 Y21.0837
G01 X29.4328 Y21.0949
G01 X29.4344 Y21.1007
G01 X29.4359 Y21.1091
G01 X29.4366 Y21.1176
G01 X29.4366 Y21.1229
G01 X29.4355 Y21.1345
G01 X29.4328 Y21.1457
G01 X29.4344 Y21.1515
G01 X29.4359 Y21.1599
G01 X29.4366 Y21.1684
G01 X29.4366 Y21.1737
G01 X29.4355 Y21.1853
G01 X29.4328 Y21.1965
G01 X29.4344 Y21.2023
G01 X29.4359 Y21.2107
G01 X29.4366 Y21.2192
G01 X29.4366 Y21.2245
G01 X29.4355 Y21.2361
G01 X29.4328 Y21.2473
G01 X29.4344 Y21.2531
G01 X29.4359 Y21.2615
G01 X29.4366 Y21.2700
G01 X29.4366 Y21.2753
G01 X29.4355 Y21.2869
G01 X29.4328 Y21.2981
G01 X29.4344 Y21.3039
G01 X29.4359 Y21.3123
G01 X29.4366 Y21.3208
G01 X29.4366 Y21.3261
G01 X29.4355 Y21.3377
G01 X29.4328 Y21.3489
G01 X29.4344 Y21.3547
G01 X29.4359 Y21.3631
G01 X29.4366 Y21.3716
G01 X29.4366 Y21.3769
G01 X29.4355 Y21.3885
G01 X29.4328 Y21.3997
G01 X29.4344 Y21.4055
G01 X29.4359 Y21.4139
G01 X29.4366 Y21.4224
G01 X29.4366 Y21.4277
G01 X29.4355 Y21.4393
G01 X29.4328 Y21.4505
G01 X29.4344 Y21.4563
G01 X29.4359 Y21.4647
G01 X29.4366 Y21.4732
G01 X29.4366 Y21.4785
G01 X29.4355 Y21.4901
G01 X29.4328 Y21.5013
G01 X29.4344 Y21.5071
G01 X29.4359 Y21.5155
G01 X29.4366 Y21.5240
G01 X29.4366 Y21.5293
G01 X29.4355 Y21.5409
G01 X29.4328 Y21.5521
G01 X29.4344 Y21.5579
G01 X29.4359 Y21.5663
G01 X29.4366 Y21.5748
G01 X29.4366 Y21.5801
G01 X29.4355 Y21.5917
G01 X29.4328 Y21.6029
G01 X29.4344 Y21.6087
G01 X29.4359 Y21.6171
G01 X29.4366 Y21.6256
G01 X29.4366 Y21.6309
G01 X29.4355 Y21.6425
G01 X29.4328 Y21.6537
G01 X29.4344 Y21.6595
G01 X29.4359 Y21.6679
G01 X29.4366 Y21.6764
G01 X29.4366 Y21.6817
G01 X29.4355 Y21.6933
G01 X29.4328 Y21.7045
G01 X29.4344 Y21.7103
G01 X29.4359 Y21.7187
G01 X29.4366 Y21.7272
G01 X29.4366 Y21.7325
G01 X29.4355 Y21.7441
G01 X29.4328 Y21.7553
G01 X29.4344 Y21.7611
G01 X29.4359 Y21.7695
G01 X29.4366 Y21.7780
G01 X29.4366 Y21.7833
G01 X29.4355 Y21.7949
G01 X29.4328 Y21.8061
G01 X29.4344 Y21.8119
G01 X29.4359 Y21.8203
G01 X29.4366 Y21.8288
G01 X29.4366 Y21.8341
G01 X29.4355 Y21.8457
G01 X29.4328 Y21.8569
G01 X29.4344 Y21.8627
G01 X29.4359 Y21.8711
G01 X29.4366 Y21.8796
G01 X29.4366 Y21.8849
G01 X29.4355 Y21.8965
G01 X29.4328 Y21.9077
G01 X29.4344 Y21.9135
G01 X29.4359 Y21.9219
G01 X29.4366 Y21.9304
G01 X29.4366 Y21.9357
G01 X29.4355 Y21.9473
G01 X29.4328 Y21.9585
G01 X29.4344 Y21.9643
G01 X29.4359 Y21.9727
G01 X29.4366 Y21.9812
G01 X29.4366 Y21.9865
G01 X29.4355 Y21.9981
G01 X29.4328 Y22.0093
G01 X29.4344 Y22.0151
G01 X29.4359 Y22.0235
G01 X29.4366 Y22.0320
G01 X29.4366 Y22.0373
G01 X29.4355 Y22.0489
G01 X29.4328 Y22.0601
G01 X29.4344 Y22.0659
G01 X29.4359 Y22.0743
G01 X29.4366 Y22.0828
G01 X29.4366 Y22.0881
G01 X29.4355 Y22.0997
G01 X29.4328 Y22.1109
G01 X29.4344 Y22.1167
G01 X29.4359 Y22.1251
G01 X29.4366 Y22.1336
G01 X29.4366 Y22.1389
G01 X29.4355 Y22.1505
G01 X29.4328 Y22.1617
G01 X29.4344 Y22.1675
G01 X29.4359 Y22.1759
G01 X29.4366 Y22.1844
G01 X29.4366 Y22.1897
G01 X29.4355 Y22.2013
G01 X29.4328 Y22.2125
G01 X29.4344 Y22.2183
G01 X29.4359 Y22.2267
G01 X29.4366 Y22.2352
G01 X29.4366 Y22.2405
G01 X29.4355 Y22.2521
G01 X29.4328 Y22.2633
G01 X29.4344 Y22.2691
G01 X29.4359 Y22.2775
G01 X29.4366 Y22.2860
G01 X29.4366 Y22.2913
G01 X29.4355 Y22.3029
G01 X29.4328 Y22.3141
G01 X29.4344 Y22.3199
G01 X29.4359 Y22.3283
G01 X29.4366 Y22.3368
G01 X29.4366 Y22.3421
G01 X29.4355 Y22.3537
G01 X29.4328 Y22.3649
G01 X29.4344 Y22.3707
G01 X29.4359 Y22.3791
G01 X29.4366 Y22.3876
G01 X29.4366 Y22.3929
G01 X29.4355 Y22.4045
G01 X29.4328 Y22.4157
G01 X29.4344 Y22.4215
G01 X29.4359 Y22.4299
G01 X29.4366 Y22.4384
G01 X29.4366 Y22.4437
G01 X29.4355 Y22.4553
G01 X29.4328 Y22.4665
G01 X29.4344 Y22.4723
G01 X29.4359 Y22.4807
G01 X29.4366 Y22.4892
G01 X29.4366 Y22.4945
G01 X29.4355 Y22.5061
G01 X29.4328 Y22.5173
G01 X29.4344 Y22.5231
G01 X29.4359 Y22.5315
G01 X29.4366 Y22.5400
G01 X29.4366 Y22.5453
G01 X29.4355 Y22.5569
G01 X29.4328 Y22.5681
G01 X29.4344 Y22.5739
G01 X29.4359 Y22.5823
G01 X29.4366 Y22.5908
G01 X29.4366 Y22.5961
G01 X29.4355 Y22.6077
G01 X29.4328 Y22.6189
G01 X29.4344 Y22.6247
G01 X29.4359 Y22.6331
G01 X29.4366 Y22.6416
G01 X29.4366 Y22.6469
G01 X29.4355 Y22.6585
G01 X29.4328 Y22.6697
G01 X29.4344 Y22.6755
G01 X29.4359 Y22.6839
G01 X29.4366 Y22.6924
G01 X29.4366 Y22.6977
G01 X29.4355 Y22.7093
G01 X29.4328 Y22.7205
G01 X29.4344 Y22.7263
G01 X29.4359 Y22.7347
G01 X29.4366 Y22.7432
G01 X29.4366 Y22.7485
G01 X29.4355 Y22.7601
G01 X29.4328 Y22.7713
G01 X29.4344 Y22.7771
G01 X29.4359 Y22.7855
G01 X29.4366 Y22.7940
G01 X29.4366 Y22.7993
G01 X29.4355 Y22.8109
G01 X29.4328 Y22.8221
G01 X29.4344 Y22.8279
G01 X29.4359 Y22.8363
G01 X29.4366 Y22.8448
G01 X29.4366 Y22.8501
G01 X29.4355 Y22.8617
G01 X29.4328 Y22.8729
G01 X29.4344 Y22.8787
G01 X29.4359 Y22.8871
G01 X29.4366 Y22.8956
G01 X29.4366 Y22.9009
G01 X29.4355 Y22.9125
G01 X29.4328 Y22.9237
G01 X29.4344 Y22.9295
G01 X29.4359 Y22.9379
G01 X29.4366 Y22.9464
G01 X29.4366 Y22.9517
G01 X29.4355 Y22.9633
G01 X29.4328 Y22.9745
G01 X29.4344 Y22.9803
G01 X29.4359 Y22.9887
G01 X29.4366 Y22.9972
G01 X29.4366 Y23.0025
G01 X29.4355 Y23.0141
G01 X29.4328 Y23.0253
G01 X29.4344 Y23.0311
G01 X29.4359 Y23.0395
G01 X29.4366 Y23.0480
G01 X29.4366 Y23.0533
G01 X29.4355 Y23.0649
G01 X29.4328 Y23.0761
G01 X29.4344 Y23.0819
G01 X29.4359 Y23.0903
G01 X29.4366 Y23.0988
G01 X29.4366 Y23.1041
G01 X29.4355 Y23.1157
G01 X29.4328 Y23.1269
G01 X29.4344 Y23.1327
G01 X29.4359 Y23.1411
G01 X29.4366 Y23.1496
G01 X29.4366 Y23.1549
G01 X29.4355 Y23.1665
G01 X29.4328 Y23.1777
G01 X29.4344 Y23.1835
G01 X29.4359 Y23.1919
G01 X29.4366 Y23.2004
G01 X29.4366 Y23.2057
G01 X29.4355 Y23.2173
G01 X29.4328 Y23.2285
G01 X29.4344 Y23.2343
G01 X29.4359 Y23.2427
G01 X29.4366 Y23.2512
G01 X29.4366 Y23.2565
G01 X29.4355 Y23.2681
G01 X29.4328 Y23.2793
G01 X29.4344 Y23.2851
G01 X29.4359 Y23.2935
G01 X29.4366 Y23.3020
G01 X29.4366 Y23.3073
G01 X29.4355 Y23.3189
G01 X29.4337 Y23.3272
G01 X29.4311 Y23.3353
G01 X29.4277 Y23.3431
G01 X29.4251 Y23.3479
G01 X29.4205 Y23.3551
G01 X29.4152 Y23.3617
G01 X29.4070 Y23.3700
G01 X29.4003 Y23.3752
G01 X29.3932 Y23.3798
G01 X29.3856 Y23.3837
G01 X29.3777 Y23.3868
G01 X29.3725 Y23.3884
G01 X29.3642 Y23.3902
G01 X29.3557 Y23.3912
G01 X29.3499 Y23.3914
G01 X28.9435 Y23.3914
G01 X28.9323 Y23.3907
G01 X28.9240 Y23.3892
G01 X28.9158 Y23.3868
G01 X28.9050 Y23.3824
G01 X28.8976 Y23.3782
G01 X28.8931 Y23.3752
G01 X28.8841 Y23.3679
G01 X28.8782 Y23.3617
G01 X28.8748 Y23.3576
G01 X28.8683 Y23.3479
G01 X28.8645 Y23.3403
G01 X28.8613 Y23.3324
G01 X28.8590 Y23.3242
G01 X28.8580 Y23.3189
G01 X28.8568 Y23.3073
G01 X28.8570 Y23.2988
G01 X28.8580 Y23.2904
G01 X28.8606 Y23.2792
G01 X28.8590 Y23.2734
G01 X28.8575 Y23.2650
G01 X28.8568 Y23.2565
G01 X28.8568 Y23.2512
G01 X28.8580 Y23.2396
G01 X28.8606 Y23.2284
G01 X28.8590 Y23.2226
G01 X28.8575 Y23.2142
G01 X28.8568 Y23.2057
G01 X28.8568 Y23.2004
G01 X28.8580 Y23.1888
G01 X28.8606 Y23.1776
G01 X28.8590 Y23.1718
G01 X28.8575 Y23.1634
G01 X28.8568 Y23.1549
G01 X28.8568 Y23.1496
G01 X28.8580 Y23.1380
G01 X28.8606 Y23.1268
G01 X28.8590 Y23.1210
G01 X28.8575 Y23.1126
G01 X28.8568 Y23.1041
G01 X28.8568 Y23.0988
G01 X28.8580 Y23.0872
G01 X28.8606 Y23.0760
G01 X28.8590 Y23.0702
G01 X28.8575 Y23.0618
G01 X28.8568 Y23.0533
G01 X28.8568 Y23.0480
G01 X28.8580 Y23.0364
G01 X28.8606 Y23.0252
G01 X28.8590 Y23.0194
G01 X28.8575 Y23.0110
G01 X28.8568 Y23.0025
G01 X28.8568 Y22.9972
G01 X28.8580 Y22.9856
G01 X28.8606 Y22.9744
G01 X28.8590 Y22.9686
G01 X28.8575 Y22.9602
G01 X28.8568 Y22.9517
G01 X28.8568 Y22.9464
G01 X28.8580 Y22.9348
G01 X28.8606 Y22.9236
G01 X28.8590 Y22.9178
G01 X28.8575 Y22.9094
G01 X28.8568 Y22.9009
G01 X28.8568 Y22.8956
G01 X28.8580 Y22.8840
G01 X28.8606 Y22.8728
G01 X28.8590 Y22.8670
G01 X28.8575 Y22.8586
G01 X28.8568 Y22.8501
G01 X28.8568 Y22.8448
G01 X28.8580 Y22.8332
G01 X28.8606 Y22.8220
G01 X28.8590 Y22.8162
G01 X28.8575 Y22.8078
G01 X28.8568 Y22.7993
G01 X28.8568 Y22.7940
G01 X28.8580 Y22.7824
G01 X28.8606 Y22.7712
G01 X28.8590 Y22.7654
G01 X28.8575 Y22.7570
G01 X28.8568 Y22.7485
G01 X28.8568 Y22.7432
G01 X28.8580 Y22.7316
G01 X28.8606 Y22.7204
G01 X28.8590 Y22.7146
G01 X28.8575 Y22.7062
G01 X28.8568 Y22.6977
G01 X28.8568 Y22.6924
G01 X28.8580 Y22.6808
G01 X28.8606 Y22.6696
G01 X28.8590 Y22.6638
G01 X28.8575 Y22.6554
G01 X28.8568 Y22.6469
G01 X28.8568 Y22.6416
G01 X28.8580 Y22.6300
G01 X28.8606 Y22.6188
G01 X28.8590 Y22.6130
G01 X28.8575 Y22.6046
G01 X28.8568 Y22.5961
G01 X28.8568 Y22.5908
G01 X28.8580 Y22.5792
G01 X28.8606 Y22.5680
G01 X28.8590 Y22.5622
G01 X28.8575 Y22.5538
G01 X28.8568 Y22.5453
G01 X28.8568 Y22.5400
G01 X28.8580 Y22.5284
G01 X28.8606 Y22.5172
G01 X28.8590 Y22.5114
G01 X28.8575 Y22.5030
G01 X28.8568 Y22.4945
G01 X28.8568 Y22.4892
G01 X28.8580 Y22.4776
G01 X28.8606 Y22.4664
G01 X28.8590 Y22.4606
G01 X28.8575 Y22.4522
G01 X28.8568 Y22.4437
G01 X28.8568 Y22.4384
G01 X28.8580 Y22.4268
G01 X28.8606 Y22.4156
G01 X28.8590 Y22.4098
G01 X28.8575 Y22.4014
G01 X28.8568 Y22.3929
G01 X28.8568 Y22.3876
G01 X28.8580 Y22.3760
G01 X28.8606 Y22.3648
G01 X28.8590 Y22.3590
G01 X28.8575 Y22.3506
G01 X28.8568 Y22.3421
G01 X28.8568 Y22.3368
G01 X28.8580 Y22.3252
G01 X28.8606 Y22.3140
G01 X28.8590 Y22.3082
G01 X28.8575 Y22.2998
G01 X28.8568 Y22.2913
G01 X28.8568 Y22.2860
G01 X28.8580 Y22.2744
G01 X28.8606 Y22.2632
G01 X28.8590 Y22.2574
G01 X28.8575 Y22.2490
G01 X28.8568 Y22.2405
G01 X28.8568 Y22.2352
G01 X28.8580 Y22.2236
G01 X28.8606 Y22.2124
G01 X28.8590 Y22.2066
G01 X28.8575 Y22.1982
G01 X28.8568 Y22.1897
G01 X28.8568 Y22.1844
G01 X28.8580 Y22.1728
G01 X28.8606 Y22.1616
G01 X28.8590 Y22.1558
G01 X28.8575 Y22.1474
G01 X28.8568 Y22.1389
G01 X28.8568 Y22.1336
G01 X28.8580 Y22.1220
G01 X28.8606 Y22.1108
G01 X28.8590 Y22.1050
G01 X28.8575 Y22.0966
G01 X28.8568 Y22.0881
G01 X28.8568 Y22.0828
G01 X28.8580 Y22.0712
G01 X28.8606 Y22.0600
G01 X28.8590 Y22.0542
G01 X28.8575 Y22.0458
G01 X28.8568 Y22.0373
G01 X28.8568 Y22.0320
G01 X28.8580 Y22.0204
G01 X28.8606 Y22.0092
G01 X28.8590 Y22.0034
G01 X28.8575 Y21.9950
G01 X28.8568 Y21.9865
G01 X28.8568 Y21.9812
G01 X28.8580 Y21.9696
G01 X28.8606 Y21.9584
G01 X28.8590 Y21.9526
G01 X28.8575 Y21.9442
G01 X28.8568 Y21.9357
G01 X28.8568 Y21.9304
G01 X28.8580 Y21.9188
G01 X28.8606 Y21.9076
G01 X28.8590 Y21.9018
G01 X28.8575 Y21.8934
G01 X28.8568 Y21.8849
G01 X28.8568 Y21.8796
G01 X28.8580 Y21.8680
G01 X28.8606 Y21.8568
G01 X28.8590 Y21.8510
G01 X28.8575 Y21.8426
G01 X28.8568 Y21.8341
G01 X28.8568 Y21.8288
G01 X28.8580 Y21.8172
G01 X28.8606 Y21.8060
G01 X28.8590 Y21.8002
G01 X28.8575 Y21.7918
G01 X28.8568 Y21.7833
G01 X28.8568 Y21.7780
G01 X28.8580 Y21.7664
G01 X28.8606 Y21.7552
G01 X28.8590 Y21.7494
G01 X28.8575 Y21.7410
G01 X28.8568 Y21.7325
G01 X28.8568 Y21.7272
G01 X28.8580 Y21.7156
G01 X28.8606 Y21.7044
G01 X28.8590 Y21.6986
G01 X28.8575 Y21.6902
G01 X28.8568 Y21.6817
G01 X28.8568 Y21.6764
G01 X28.8580 Y21.6648
G01 X28.8606 Y21.6536
G01 X28.8590 Y21.6478
G01 X28.8575 Y21.6394
G01 X28.8568 Y21.6309
G01 X28.8568 Y21.6256
G01 X28.8580 Y21.6140
G01 X28.8606 Y21.6028
G01 X28.8590 Y21.5970
G01 X28.8575 Y21.5886
G01 X28.8568 Y21.5801
G01 X28.8568 Y21.5748
G01 X28.8580 Y21.5632
G01 X28.8606 Y21.5520
G01 X28.8590 Y21.5462
G01 X28.8575 Y21.5378
G01 X28.8568 Y21.5293
G01 X28.8568 Y21.5240
G01 X28.8580 Y21.5124
G01 X28.8606 Y21.5012
G01 X28.8590 Y21.4954
G01 X28.8575 Y21.4870
G01 X28.8568 Y21.4785
G01 X28.8568 Y21.4732
G01 X28.8580 Y21.4616
G01 X28.8606 Y21.4504
G01 X28.8590 Y21.4446
G01 X28.8575 Y21.4362
G01 X28.8568 Y21.4277
G01 X28.8568 Y21.4224
G01 X28.8580 Y21.4108
G01 X28.8606 Y21.3996
G01 X28.8590 Y21.3938
G01 X28.8575 Y21.3854
G01 X28.8568 Y21.3769
G01 X28.8568 Y21.3716
G01 X28.8580 Y21.3600
G01 X28.8606 Y21.3488
G01 X28.8590 Y21.3430
G01 X28.8575 Y21.3346
G01 X28.8568 Y21.3261
G01 X28.8568 Y21.3208
G01 X28.8580 Y21.3092
G01 X28.8606 Y21.2980
G01 X28.8590 Y21.2922
G01 X28.8575 Y21.2838
G01 X28.8568 Y21.2753
G01 X28.8568 Y21.2700
G01 X28.8580 Y21.2584
G01 X28.8606 Y21.2472
G01 X28.8590 Y21.2414
G01 X28.8575 Y21.2330
G01 X28.8568 Y21.2245
G01 X28.8568 Y21.2192
G01 X28.8580 Y21.2076
G01 X28.8606 Y21.1964
G01 X28.8590 Y21.1906
G01 X28.8575 Y21.1822
G01 X28.8568 Y21.1737
G01 X28.8568 Y21.1684
G01 X28.8580 Y21.1568
G01 X28.8606 Y21.1456
G01 X28.8590 Y21.1398
G01 X28.8575 Y21.1314
G01 X28.8568 Y21.1229
G01 X28.8568 Y21.1176
G01 X28.8580 Y21.1060
G01 X28.8606 Y21.0948
G01 X28.8590 Y21.0890
G01 X28.8575 Y21.0806
G01 X28.8568 Y21.0721
G01 X28.8568 Y21.0668
G01 X28.8580 Y21.0552
G01 X28.8606 Y21.0440
G01 X28.8590 Y21.0382
G01 X28.8575 Y21.0298
G01 X28.8568 Y21.0213
G01 X28.8568 Y21.0160
G01 X28.8580 Y21.0044
G01 X28.8606 Y20.9932
G01 X28.8590 Y20.9874
G01 X28.8575 Y20.9790
G01 X28.8568 Y20.9705
G01 X28.8568 Y20.9652
G01 X28.8580 Y20.9536
G01 X28.8606 Y20.9424
G01 X28.8590 Y20.9366
G01 X28.8575 Y20.9282
G01 X28.8568 Y20.9197
G01 X28.8568 Y20.9144
G01 X28.8580 Y20.9028
G01 X28.8606 Y20.8916
G01 X28.8590 Y20.8858
G01 X28.8575 Y20.8774
G01 X28.8568 Y20.8689
G01 X28.8568 Y20.8636
G01 X28.8580 Y20.8520
G01 X28.8606 Y20.8408
G01 X28.8590 Y20.8350
G01 X28.8575 Y20.8266
G01 X28.8568 Y20.8181
G01 X28.8568 Y20.8128
G01 X28.8580 Y20.8012
G01 X28.8606 Y20.7900
G01 X28.8590 Y20.7842
G01 X28.8575 Y20.7758
G01 X28.8568 Y20.7673
G01 X28.8568 Y20.7620
G01 X28.8580 Y20.7504
G01 X28.8606 Y20.7392
G01 X28.8590 Y20.7334
G01 X28.8575 Y20.7250
G01 X28.8568 Y20.7165
G01 X28.8568 Y20.7112
G01 X28.8580 Y20.6996
G01 X28.8606 Y20.6884
G01 X28.8590 Y20.6826
G01 X28.8575 Y20.6742
G01 X28.8568 Y20.6657
G01 X28.8568 Y20.6604
G01 X28.8580 Y20.6488
G01 X28.8606 Y20.6376
G01 X28.8590 Y20.6318
G01 X28.8575 Y20.6234
G01 X28.8568 Y20.6149
G01 X28.8568 Y20.6096
G01 X28.8580 Y20.5980
G01 X28.8606 Y20.5868
G01 X28.8590 Y20.5810
G01 X28.8575 Y20.5726
G01 X28.8568 Y20.5641
G01 X28.8568 Y20.5588
G01 X28.8580 Y20.5472
G01 X28.8606 Y20.5360
G01 X28.8590 Y20.5302
G01 X28.8575 Y20.5218
G01 X28.8568 Y20.5133
G01 X28.8568 Y20.5080
G01 X28.8580 Y20.4964
G01 X28.8606 Y20.4852
G01 X28.8590 Y20.4794
G01 X28.8575 Y20.4710
G01 X28.8568 Y20.4625
G01 X28.8568 Y20.4572
G01 X28.8580 Y20.4456
G01 X28.8606 Y20.4344
G01 X28.8590 Y20.4286
G01 X28.8575 Y20.4202
G01 X28.8568 Y20.4117
G01 X28.8568 Y20.4064
G01 X28.8580 Y20.3948
G01 X28.8606 Y20.3836
G01 X28.8590 Y20.3778
G01 X28.8575 Y20.3694
G01 X28.8568 Y20.3609
G01 X28.8568 Y20.3556
G01 X28.8580 Y20.3440
G01 X28.8606 Y20.3328
G01 X28.8590 Y20.3270
G01 X28.8575 Y20.3186
G01 X28.8568 Y20.3101
G01 X28.8568 Y20.3048
G01 X28.8580 Y20.2932
G01 X28.8606 Y20.2820
G01 X28.8590 Y20.2762
G01 X28.8575 Y20.2678
G01 X28.8568 Y20.2593
G01 X28.8568 Y20.2540
G01 X28.8580 Y20.2424
G01 X28.8606 Y20.2312
G01 X28.8590 Y20.2254
G01 X28.8575 Y20.2170
G01 X28.8568 Y20.2085
G01 X28.8568 Y20.2032
G01 X28.8580 Y20.1916
G01 X28.8606 Y20.1804
G00 Z2.0000
G00 X29.6734 Y20.9932
G01 F25.00
G01 Z-0.0187
G01 F45.00
G01 X29.6718 Y20.9874
G01 X29.6703 Y20.9790
G01 X29.6696 Y20.9705
G01 X29.6698 Y20.9620
G01 X29.6703 Y20.9567
G01 X29.6718 Y20.9483
G01 X29.6741 Y20.9401
G01 X29.6773 Y20.9322
G01 X29.6811 Y20.9246
G01 X29.6857 Y20.9174
G01 X29.6910 Y20.9108
G01 X29.6969 Y20.9046
G01 X29.7034 Y20.8991
G01 X29.7104 Y20.8943
G01 X29.7178 Y20.8901
G01 X29.7231 Y20.8878
G01 X29.7211 Y20.8774
G01 X29.7204 Y20.8689
G01 X29.7204 Y20.8636
G01 X29.7216 Y20.8520
G01 X29.7242 Y20.8408
G01 X29.7226 Y20.8350
G01 X29.7211 Y20.8266
G01 X29.7204 Y20.8181
G01 X29.7204 Y20.8128
G01 X29.7216 Y20.8012
G01 X29.7234 Y20.7929
G01 X29.7260 Y20.7848
G01 X29.7294 Y20.7770
G01 X29.7335 Y20.7695
G01 X29.7384 Y20.7625
G01 X29.7439 Y20.7561
G01 X29.7500 Y20.7501
G01 X29.7567 Y20.7449
G01 X29.7639 Y20.7403
G01 X29.7739 Y20.7354
G01 X29.7719 Y20.7250
G01 X29.7712 Y20.7165
G01 X29.7712 Y20.7112
G01 X29.7724 Y20.6996
G01 X29.7750 Y20.6884
G01 X29.7734 Y20.6826
G01 X29.7719 Y20.6742
G01 X29.7712 Y20.6657
G01 X29.7712 Y20.6604
G01 X29.7724 Y20.6488
G01 X29.7734 Y20.6435
G01 X29.7757 Y20.6353
G01 X29.7789 Y20.6274
G01 X29.7827 Y20.6198
G01 X29.7873 Y20.6126
G01 X29.7947 Y20.6037
G01 X29.8008 Y20.5977
G01 X29.8075 Y20.5925
G01 X29.8147 Y20.5879
G01 X29.8247 Y20.5830
G01 X29.8227 Y20.5726
G01 X29.8220 Y20.5641
G01 X29.8222 Y20.5556
G01 X29.8232 Y20.5472
G01 X29.8250 Y20.5389
G01 X29.8276 Y20.5308
G01 X29.8310 Y20.5230
G01 X29.8351 Y20.5155
G01 X29.8400 Y20.5085
G01 X29.8455 Y20.5021
G01 X29.8516 Y20.4961
G01 X29.8558 Y20.4927
G01 X29.8655 Y20.4863
G01 X29.8730 Y20.4824
G01 X29.8783 Y20.4802
G01 X29.8818 Y20.4722
G01 X29.8859 Y20.4647
G01 X29.8908 Y20.4577
G01 X29.8963 Y20.4513
G01 X29.9024 Y20.4453
G01 X29.9066 Y20.4419
G01 X29.9136 Y20.4371
G01 X29.9210 Y20.4329
G01 X29.9291 Y20.4294
G01 X29.9326 Y20.4214
G01 X29.9367 Y20.4139
G01 X29.9416 Y20.4069
G01 X29.9471 Y20.4005
G01 X29.9532 Y20.3945
G01 X29.9574 Y20.3911
G01 X29.9644 Y20.3863
G01 X29.9718 Y20.3821
G01 X29.9799 Y20.3786
G01 X29.9834 Y20.3706
G01 X29.9875 Y20.3631
G01 X29.9924 Y20.3561
G01 X29.9979 Y20.3497
G01 X30.0040 Y20.3437
G01 X30.0082 Y20.3403
G01 X30.0152 Y20.3355
G01 X30.0226 Y20.3313
G01 X30.0307 Y20.3278
G01 X30.0342 Y20.3198
G01 X30.0383 Y20.3123
G01 X30.0432 Y20.3053
G01 X30.0487 Y20.2989
G01 X30.0548 Y20.2929
G01 X30.0590 Y20.2895
G01 X30.0660 Y20.2847
G01 X30.0734 Y20.2805
G01 X30.0815 Y20.2770
G01 X30.0850 Y20.2690
G01 X30.0891 Y20.2615
G01 X30.0940 Y20.2545
G01 X30.0995 Y20.2481
G01 X30.1056 Y20.2421
G01 X30.1098 Y20.2387
G01 X30.1168 Y20.2339
G01 X30.1242 Y20.2297
G01 X30.1323 Y20.2262
G01 X30.1345 Y20.2210
G01 X30.1383 Y20.2134
G01 X30.1429 Y20.2062
G01 X30.1482 Y20.1996
G01 X30.1564 Y20.1913
G01 X30.1631 Y20.1861
G01 X30.1703 Y20.1815
G01 X30.1778 Y20.1776
G01 X30.1858 Y20.1745
G01 X30.1909 Y20.1729
G01 X30.1993 Y20.1711
G01 X30.2108 Y20.1700
G01 X30.2362 Y20.1699
G01 X30.2415 Y20.1599
G01 X30.2445 Y20.1554
G01 X30.2498 Y20.1488
G01 X30.2580 Y20.1405
G01 X30.2622 Y20.1371
G01 X30.2692 Y20.1323
G01 X30.2766 Y20.1281
G01 X30.2844 Y20.1247
G01 X30.2925 Y20.1221
G01 X30.3009 Y20.1203
G01 X30.3124 Y20.1192
G01 X30.3378 Y20.1191
G01 X30.3431 Y20.1091
G01 X30.3480 Y20.1021
G01 X30.3535 Y20.0957
G01 X30.3596 Y20.0897
G01 X30.3663 Y20.0845
G01 X30.3735 Y20.0799
G01 X30.3810 Y20.0760
G01 X30.3890 Y20.0729
G01 X30.3941 Y20.0713
G01 X30.4025 Y20.0695
G01 X30.4140 Y20.0684
G01 X30.4902 Y20.0683
G01 X30.4955 Y20.0583
G01 X30.4985 Y20.0538
G01 X30.5038 Y20.0472
G01 X30.5120 Y20.0389
G01 X30.5187 Y20.0337
G01 X30.5259 Y20.0291
G01 X30.5306 Y20.0265
G01 X30.5414 Y20.0221
G01 X30.5496 Y20.0197
G01 X30.5579 Y20.0182
G01 X30.5633 Y20.0177
G01 X31.1337 Y20.0177
G01 X31.1422 Y20.0187
G01 X31.1475 Y20.0197
G01 X31.1586 Y20.0231
G01 X31.1636 Y20.0252
G01 X31.1712 Y20.0291
G01 X31.1783 Y20.0337
G01 X31.1850 Y20.0389
G01 X31.1932 Y20.0472
G01 X31.1967 Y20.0513
G01 X31.2015 Y20.0583
G01 X31.2068 Y20.0683
G01 X31.3338 Y20.0684
G01 X31.3423 Y20.0690
G01 X31.3507 Y20.0705
G01 X31.3589 Y20.0729
G01 X31.3668 Y20.0760
G01 X31.3744 Y20.0799
G01 X31.3815 Y20.0845
G01 X31.3905 Y20.0918
G01 X31.3964 Y20.0980
G01 X31.4017 Y20.1046
G01 X31.4063 Y20.1118
G01 X31.4100 Y20.1191
G01 X31.4327 Y20.1191
G01 X31.4439 Y20.1198
G01 X31.4553 Y20.1221
G01 X31.4634 Y20.1247
G01 X31.4712 Y20.1281
G01 X31.4786 Y20.1323
G01 X31.4856 Y20.1371
G01 X31.4921 Y20.1426
G01 X31.4980 Y20.1488
G01 X31.5033 Y20.1554
G01 X31.5079 Y20.1626
G01 X31.5116 Y20.1699
G01 X31.5401 Y20.1701
G01 X31.5486 Y20.1711
G01 X31.5539 Y20.1721
G01 X31.5621 Y20.1745
G01 X31.5728 Y20.1789
G01 X31.5802 Y20.1831
G01 X31.5872 Y20.1879
G01 X31.5914 Y20.1913
G01 X31.5975 Y20.1973
G01 X31.6049 Y20.2062
G01 X31.6095 Y20.2134
G01 X31.6121 Y20.2182
G01 X31.6155 Y20.2262
G01 X31.6236 Y20.2297
G01 X31.6310 Y20.2339
G01 X31.6355 Y20.2369
G01 X31.6422 Y20.2421
G01 X31.6504 Y20.2504
G01 X31.6557 Y20.2570
G01 X31.6603 Y20.2642
G01 X31.6642 Y20.2718
G01 X31.6663 Y20.2770
G01 X31.6744 Y20.2805
G01 X31.6818 Y20.2847
G01 X31.6888 Y20.2895
G01 X31.6930 Y20.2929
G01 X31.6991 Y20.2989
G01 X31.7047 Y20.3053
G01 X31.7095 Y20.3123
G01 X31.7137 Y20.3198
G01 X31.7171 Y20.3278
G01 X31.7252 Y20.3313
G01 X31.7326 Y20.3355
G01 X31.7396 Y20.3403
G01 X31.7438 Y20.3437
G01 X31.7499 Y20.3497
G01 X31.7555 Y20.3561
G01 X31.7603 Y20.3631
G01 X31.7645 Y20.3706
G01 X31.7679 Y20.3786
G01 X31.7760 Y20.3821
G01 X31.7834 Y20.3863
G01 X31.7879 Y20.3893
G01 X31.7969 Y20.3966
G01 X31.8028 Y20.4028
G01 X31.8063 Y20.4069
G01 X31.8111 Y20.4139
G01 X31.8153 Y20.4214
G01 X31.8197 Y20.4321
G01 X31.8220 Y20.4403
G01 X31.8235 Y20.4487
G01 X31.8242 Y20.4572
G01 X31.8242 Y20.4625
G01 X31.8235 Y20.4710
G01 X31.8215 Y20.4814
G01 X31.8316 Y20.4863
G01 X31.8387 Y20.4909
G01 X31.8454 Y20.4961
G01 X31.8515 Y20.5021
G01 X31.8571 Y20.5085
G01 X31.8619 Y20.5155
G01 X31.8661 Y20.5230
G01 X31.8695 Y20.5308
G01 X31.8728 Y20.5419
G01 X31.8739 Y20.5472
G01 X31.8749 Y20.5556
G01 X31.8749 Y20.5673
G01 X31.8739 Y20.5757
G01 X31.8723 Y20.5830
G01 X31.8776 Y20.5853
G01 X31.8850 Y20.5895
G01 X31.8920 Y20.5943
G01 X31.8985 Y20.5998
G01 X31.9044 Y20.6060
G01 X31.9097 Y20.6126
G01 X31.9143 Y20.6198
G01 X31.9182 Y20.6274
G01 X31.9213 Y20.6353
G01 X31.9236 Y20.6435
G01 X31.9247 Y20.6488
G01 X31.9257 Y20.6572
G01 X31.9257 Y20.6689
G01 X31.9247 Y20.6773
G01 X31.9231 Y20.6846
G01 X31.9332 Y20.6895
G01 X31.9403 Y20.6941
G01 X31.9470 Y20.6993
G01 X31.9531 Y20.7053
G01 X31.9605 Y20.7142
G01 X31.9651 Y20.7214
G01 X31.9690 Y20.7290
G01 X31.9721 Y20.7369
G01 X31.9744 Y20.7451
G01 X31.9755 Y20.7504
G01 X31.9766 Y20.7620
G01 X31.9765 Y20.7705
G01 X31.9759 Y20.7758
G01 X31.9744 Y20.7842
G01 X31.9711 Y20.7953
G01 X31.9677 Y20.8031
G01 X31.9651 Y20.8079
G01 X31.9587 Y20.8176
G01 X31.9531 Y20.8240
G01 X31.9493 Y20.8279
G01 X31.9403 Y20.8352
G01 X31.9332 Y20.8398
G01 X31.9284 Y20.8424
G01 X31.9177 Y20.8468
G01 X31.9095 Y20.8492
G01 X31.9011 Y20.8507
G01 X31.8899 Y20.8514
G01 X31.7656 Y20.8514
G01 X31.7603 Y20.8614
G01 X31.7573 Y20.8659
G01 X31.7520 Y20.8725
G01 X31.7438 Y20.8808
G01 X31.7371 Y20.8860
G01 X31.7300 Y20.8906
G01 X31.7252 Y20.8932
G01 X31.7174 Y20.8966
G01 X31.7093 Y20.8992
G01 X31.6979 Y20.9015
G01 X31.6867 Y20.9022
G01 X31.4835 Y20.9022
G01 X31.4723 Y20.9015
G01 X31.4609 Y20.8992
G01 X31.4528 Y20.8966
G01 X31.4478 Y20.8945
G01 X31.4403 Y20.8906
G01 X31.4331 Y20.8860
G01 X31.4264 Y20.8808
G01 X31.4182 Y20.8725
G01 X31.4129 Y20.8659
G01 X31.4083 Y20.8587
G01 X31.4058 Y20.8539
G01 X31.4023 Y20.8459
G01 X31.3942 Y20.8424
G01 X31.3868 Y20.8382
G01 X31.3823 Y20.8352
G01 X31.3756 Y20.8300
G01 X31.3674 Y20.8217
G01 X31.3640 Y20.8176
G01 X31.3591 Y20.8106
G01 X31.3550 Y20.8031
G01 X31.3505 Y20.7924
G01 X31.3482 Y20.7842
G01 X31.3467 Y20.7758
G01 X31.3460 Y20.7673
G01 X31.3460 Y20.7620
G01 X31.3467 Y20.7535
G01 X31.3487 Y20.7431
G01 X31.3434 Y20.7408
G01 X31.3360 Y20.7366
G01 X31.3290 Y20.7318
G01 X31.3225 Y20.7263
G01 X31.3166 Y20.7201
G01 X31.3132 Y20.7160
G01 X31.3083 Y20.7090
G01 X31.3042 Y20.7015
G01 X31.3007 Y20.6935
G01 X31.2926 Y20.6900
G01 X31.2852 Y20.6858
G01 X31.2782 Y20.6810
G01 X31.2717 Y20.6755
G01 X31.2658 Y20.6693
G01 X31.2624 Y20.6652
G01 X31.2575 Y20.6582
G01 X31.2534 Y20.6507
G01 X31.2499 Y20.6427
G01 X31.2418 Y20.6392
G01 X31.2344 Y20.6350
G01 X31.2274 Y20.6302
G01 X31.2209 Y20.6247
G01 X31.2150 Y20.6185
G01 X31.2097 Y20.6119
G01 X31.2051 Y20.6047
G01 X31.2014 Y20.5974
G01 X31.1787 Y20.5974
G01 X31.1675 Y20.5967
G01 X31.1592 Y20.5952
G01 X31.1510 Y20.5928
G01 X31.1402 Y20.5884
G01 X31.1328 Y20.5842
G01 X31.1283 Y20.5812
G01 X31.1216 Y20.5760
G01 X31.1155 Y20.5700
G01 X31.1081 Y20.5611
G01 X31.1035 Y20.5539
G01 X31.0998 Y20.5466
G01 X31.0744 Y20.5465
G01 X31.0629 Y20.5454
G01 X31.0545 Y20.5436
G01 X31.0464 Y20.5410
G01 X31.0386 Y20.5376
G01 X31.0312 Y20.5334
G01 X31.0267 Y20.5304
G01 X31.0200 Y20.5252
G01 X31.0118 Y20.5169
G01 X31.0084 Y20.5128
G01 X31.0035 Y20.5058
G01 X30.9982 Y20.4958
G01 X30.7496 Y20.4958
G01 X30.7443 Y20.5058
G01 X30.7395 Y20.5128
G01 X30.7339 Y20.5192
G01 X30.7278 Y20.5252
G01 X30.7211 Y20.5304
G01 X30.7140 Y20.5350
G01 X30.7064 Y20.5389
G01 X30.6985 Y20.5420
G01 X30.6933 Y20.5436
G01 X30.6850 Y20.5454
G01 X30.6734 Y20.5465
G01 X30.5972 Y20.5466
G01 X30.5935 Y20.5539
G01 X30.5889 Y20.5611
G01 X30.5836 Y20.5677
G01 X30.5777 Y20.5739
G01 X30.5712 Y20.5794
G01 X30.5642 Y20.5842
G01 X30.5568 Y20.5884
G01 X30.5487 Y20.5919
G01 X30.5453 Y20.5999
G01 X30.5411 Y20.6074
G01 X30.5381 Y20.6119
G01 X30.5328 Y20.6185
G01 X30.5269 Y20.6247
G01 X30.5204 Y20.6302
G01 X30.5134 Y20.6350
G01 X30.5060 Y20.6392
G01 X30.4979 Y20.6427
G01 X30.4945 Y20.6507
G01 X30.4903 Y20.6582
G01 X30.4873 Y20.6627
G01 X30.4820 Y20.6693
G01 X30.4761 Y20.6755
G01 X30.4696 Y20.6810
G01 X30.4626 Y20.6858
G01 X30.4552 Y20.6900
G01 X30.4471 Y20.6935
G01 X30.4437 Y20.7015
G01 X30.4395 Y20.7090
G01 X30.4365 Y20.7135
G01 X30.4312 Y20.7201
G01 X30.4253 Y20.7263
G01 X30.4188 Y20.7318
G01 X30.4118 Y20.7366
G01 X30.4044 Y20.7408
G01 X30.3963 Y20.7443
G01 X30.3929 Y20.7523
G01 X30.3887 Y20.7598
G01 X30.3857 Y20.7643
G01 X30.3804 Y20.7709
G01 X30.3745 Y20.7771
G01 X30.3680 Y20.7826
G01 X30.3610 Y20.7874
G01 X30.3536 Y20.7916
G01 X30.3483 Y20.7939
G01 X30.3499 Y20.8012
G01 X30.3509 Y20.8096
G01 X30.3510 Y20.8181
G01 X30.3503 Y20.8266
G01 X30.3488 Y20.8350
G01 X30.3465 Y20.8432
G01 X30.3421 Y20.8539
G01 X30.3395 Y20.8587
G01 X30.3349 Y20.8659
G01 X30.3296 Y20.8725
G01 X30.3237 Y20.8787
G01 X30.3172 Y20.8842
G01 X30.3102 Y20.8890
G01 X30.3028 Y20.8932
G01 X30.2975 Y20.8955
G01 X30.2995 Y20.9059
G01 X30.3002 Y20.9144
G01 X30.3002 Y20.9197
G01 X30.2991 Y20.9313
G01 X30.2964 Y20.9425
G01 X30.2980 Y20.9483
G01 X30.2995 Y20.9567
G01 X30.3002 Y20.9652
G01 X30.3002 Y20.9705
G01 X30.2991 Y20.9821
G01 X30.2973 Y20.9904
G01 X30.2947 Y20.9985
G01 X30.2913 Y21.0063
G01 X30.2871 Y21.0138
G01 X30.2823 Y21.0208
G01 X30.2767 Y21.0272
G01 X30.2706 Y21.0332
G01 X30.2639 Y21.0384
G01 X30.2568 Y21.0430
G01 X30.2467 Y21.0479
G01 X30.2487 Y21.0583
G01 X30.2494 Y21.0668
G01 X30.2493 Y21.0753
G01 X30.2487 Y21.0806
G01 X30.2472 Y21.0890
G01 X30.2456 Y21.0949
G01 X30.2483 Y21.1060
G01 X30.2493 Y21.1144
G01 X30.2493 Y21.1261
G01 X30.2482 Y21.1351
G01 X31.8899 Y21.1351
G01 X31.9011 Y21.1358
G01 X31.9095 Y21.1373
G01 X31.9177 Y21.1397
G01 X31.9284 Y21.1441
G01 X31.9358 Y21.1483
G01 X31.9403 Y21.1513
G01 X31.9470 Y21.1565
G01 X31.9552 Y21.1648
G01 X31.9605 Y21.1714
G01 X31.9651 Y21.1786
G01 X31.9677 Y21.1834
G01 X31.9711 Y21.1912
G01 X31.9744 Y21.2023
G01 X31.9759 Y21.2107
G01 X31.9766 Y21.2192
G01 X31.9765 Y21.2277
G01 X31.9755 Y21.2361
G01 X31.9728 Y21.2473
G01 X31.9744 Y21.2531
G01 X31.9759 Y21.2615
G01 X31.9766 Y21.2700
G01 X31.9766 Y21.2753
G01 X31.9755 Y21.2869
G01 X31.9728 Y21.2981
G01 X31.9744 Y21.3039
G01 X31.9759 Y21.3123
G01 X31.9766 Y21.3208
G01 X31.9766 Y21.3261
G01 X31.9755 Y21.3377
G01 X31.9728 Y21.3489
G01 X31.9744 Y21.3547
G01 X31.9759 Y21.3631
G01 X31.9766 Y21.3716
G01 X31.9766 Y21.3769
G01 X31.9755 Y21.3885
G01 X31.9728 Y21.3997
G01 X31.9744 Y21.4055
G01 X31.9759 Y21.4139
G01 X31.9766 Y21.4224
G01 X31.9766 Y21.4277
G01 X31.9755 Y21.4393
G01 X31.9728 Y21.4505
G01 X31.9744 Y21.4563
G01 X31.9759 Y21.4647
G01 X31.9766 Y21.4732
G01 X31.9766 Y21.4785
G01 X31.9755 Y21.4901
G01 X31.9728 Y21.5013
G01 X31.9744 Y21.5071
G01 X31.9759 Y21.5155
G01 X31.9766 Y21.5240
G01 X31.9766 Y21.5293
G01 X31.9755 Y21.5409
G01 X31.9728 Y21.5521
G01 X31.9744 Y21.5579
G01 X31.9759 Y21.5663
G01 X31.9766 Y21.5748
G01 X31.9765 Y21.5833
G01 X31.9759 Y21.5886
G01 X31.9744 Y21.5970
G01 X31.9711 Y21.6081
G01 X31.9677 Y21.6159
G01 X31.9651 Y21.6207
G01 X31.9605 Y21.6279
G01 X31.9531 Y21.6368
G01 X31.9470 Y21.6428
G01 X31.9428 Y21.6462
G01 X31.9332 Y21.6526
G01 X31.9231 Y21.6575
G01 X31.9251 Y21.6679
G01 X31.9258 Y21.6764
G01 X31.9257 Y21.6849
G01 X31.9251 Y21.6902
G01 X31.9236 Y21.6986
G01 X31.9220 Y21.7045
G01 X31.9247 Y21.7156
G01 X31.9258 Y21.7272
G01 X31.9257 Y21.7357
G01 X31.9251 Y21.7410
G01 X31.9236 Y21.7494
G01 X31.9220 Y21.7553
G01 X31.9247 Y21.7664
G01 X31.9257 Y21.7748
G01 X31.9257 Y21.7865
G01 X31.9247 Y21.7949
G01 X31.9236 Y21.8002
G01 X31.9213 Y21.8084
G01 X31.9182 Y21.8163
G01 X31.9143 Y21.8239
G01 X31.9079 Y21.8336
G01 X31.9023 Y21.8400
G01 X31.8985 Y21.8439
G01 X31.8920 Y21.8494
G01 X31.8824 Y21.8558
G01 X31.8723 Y21.8607
G01 X31.8743 Y21.8711
G01 X31.8750 Y21.8796
G01 X31.8750 Y21.8849
G01 X31.8739 Y21.8965
G01 X31.8712 Y21.9077
G01 X31.8728 Y21.9135
G01 X31.8743 Y21.9219
G01 X31.8750 Y21.9304
G01 X31.8750 Y21.9357
G01 X31.8743 Y21.9442
G01 X31.8728 Y21.9526
G01 X31.8705 Y21.9608
G01 X31.8674 Y21.9687
G01 X31.8635 Y21.9763
G01 X31.8589 Y21.9835
G01 X31.8536 Y21.9901
G01 X31.8477 Y21.9963
G01 X31.8412 Y22.0018
G01 X31.8342 Y22.0066
G01 X31.8268 Y22.0108
G01 X31.8215 Y22.0131
G01 X31.8235 Y22.0235
G01 X31.8242 Y22.0320
G01 X31.8241 Y22.0405
G01 X31.8235 Y22.0458
G01 X31.8220 Y22.0542
G01 X31.8187 Y22.0653
G01 X31.8153 Y22.0731
G01 X31.8111 Y22.0806
G01 X31.8081 Y22.0851
G01 X31.8028 Y22.0917
G01 X31.7946 Y22.1000
G01 X31.7879 Y22.1052
G01 X31.7808 Y22.1098
G01 X31.7760 Y22.1124
G01 X31.7679 Y22.1159
G01 X31.7645 Y22.1239
G01 X31.7619 Y22.1287
G01 X31.7573 Y22.1359
G01 X31.7499 Y22.1448
G01 X31.7438 Y22.1508
G01 X31.7371 Y22.1560
G01 X31.7300 Y22.1606
G01 X31.7224 Y22.1645
G01 X31.7171 Y22.1667
G01 X31.7137 Y22.1747
G01 X31.7095 Y22.1822
G01 X31.7065 Y22.1867
G01 X31.7012 Y22.1933
G01 X31.6953 Y22.1995
G01 X31.6888 Y22.2050
G01 X31.6818 Y22.2098
G01 X31.6744 Y22.2140
G01 X31.6663 Y22.2175
G01 X31.6629 Y22.2255
G01 X31.6587 Y22.2330
G01 X31.6557 Y22.2375
G01 X31.6504 Y22.2441
G01 X31.6445 Y22.2503
G01 X31.6380 Y22.2558
G01 X31.6310 Y22.2606
G01 X31.6236 Y22.2648
G01 X31.6155 Y22.2683
G01 X31.6121 Y22.2763
G01 X31.6079 Y22.2838
G01 X31.6049 Y22.2883
G01 X31.5996 Y22.2949
G01 X31.5937 Y22.3011
G01 X31.5872 Y22.3066
G01 X31.5802 Y22.3114
G01 X31.5728 Y22.3156
G01 X31.5647 Y22.3191
G01 X31.5613 Y22.3271
G01 X31.5571 Y22.3346
G01 X31.5541 Y22.3391
G01 X31.5488 Y22.3457
G01 X31.5429 Y22.3519
G01 X31.5364 Y22.3574
G01 X31.5294 Y22.3622
G01 X31.5220 Y22.3664
G01 X31.5139 Y22.3699
G01 X31.5105 Y22.3779
G01 X31.5063 Y22.3854
G01 X31.5033 Y22.3899
G01 X31.4980 Y22.3965
G01 X31.4921 Y22.4027
G01 X31.4856 Y22.4082
G01 X31.4760 Y22.4146
G01 X31.4712 Y22.4172
G01 X31.4634 Y22.4206
G01 X31.4553 Y22.4232
G01 X31.4470 Y22.4250
G01 X31.4385 Y22.4260
G01 X31.4100 Y22.4262
G01 X31.4063 Y22.4335
G01 X31.4017 Y22.4407
G01 X31.3964 Y22.4473
G01 X31.3905 Y22.4535
G01 X31.3840 Y22.4590
G01 X31.3770 Y22.4638
G01 X31.3696 Y22.4680
G01 X31.3618 Y22.4714
G01 X31.3537 Y22.4740
G01 X31.3423 Y22.4763
G01 X31.3311 Y22.4770
G01 X31.3084 Y22.4770
G01 X31.3047 Y22.4843
G01 X31.3001 Y22.4915
G01 X31.2948 Y22.4981
G01 X31.2889 Y22.5043
G01 X31.2824 Y22.5098
G01 X31.2754 Y22.5146
G01 X31.2680 Y22.5188
G01 X31.2602 Y22.5222
G01 X31.2491 Y22.5256
G01 X31.2407 Y22.5271
G01 X31.2353 Y22.5276
G01 X31.1560 Y22.5278
G01 X31.1507 Y22.5378
G01 X31.1477 Y22.5423
G01 X31.1424 Y22.5489
G01 X31.1342 Y22.5572
G01 X31.1275 Y22.5624
G01 X31.1204 Y22.5670
G01 X31.1156 Y22.5696
G01 X31.1049 Y22.5740
G01 X31.0967 Y22.5764
G01 X31.0883 Y22.5779
G01 X31.0829 Y22.5784
G01 X30.5691 Y22.5786
G01 X30.5579 Y22.5779
G01 X30.5465 Y22.5756
G01 X30.5414 Y22.5740
G01 X30.5334 Y22.5709
G01 X30.5232 Y22.5654
G01 X30.5187 Y22.5624
G01 X30.5120 Y22.5572
G01 X30.5038 Y22.5489
G01 X30.5004 Y22.5448
G01 X30.4955 Y22.5378
G01 X30.4902 Y22.5278
G01 X30.4109 Y22.5276
G01 X30.4025 Y22.5266
G01 X30.3941 Y22.5248
G01 X30.3890 Y22.5232
G01 X30.3810 Y22.5201
G01 X30.3735 Y22.5162
G01 X30.3663 Y22.5116
G01 X30.3573 Y22.5043
G01 X30.3514 Y22.4981
G01 X30.3461 Y22.4915
G01 X30.3415 Y22.4843
G01 X30.3378 Y22.4770
G01 X30.3151 Y22.4770
G01 X30.3039 Y22.4763
G01 X30.2925 Y22.4740
G01 X30.2844 Y22.4714
G01 X30.2766 Y22.4680
G01 X30.2692 Y22.4638
G01 X30.2622 Y22.4590
G01 X30.2557 Y22.4535
G01 X30.2498 Y22.4473
G01 X30.2445 Y22.4407
G01 X30.2399 Y22.4335
G01 X30.2362 Y22.4262
G01 X30.2077 Y22.4260
G01 X30.1993 Y22.4250
G01 X30.1940 Y22.4240
G01 X30.1858 Y22.4216
G01 X30.1750 Y22.4172
G01 X30.1676 Y22.4130
G01 X30.1606 Y22.4082
G01 X30.1564 Y22.4048
G01 X30.1503 Y22.3988
G01 X30.1429 Y22.3899
G01 X30.1383 Y22.3827
G01 X30.1358 Y22.3779
G01 X30.1323 Y22.3699
G01 X30.1242 Y22.3664
G01 X30.1168 Y22.3622
G01 X30.1123 Y22.3592
G01 X30.1056 Y22.3540
G01 X30.0974 Y22.3457
G01 X30.0921 Y22.3391
G01 X30.0875 Y22.3319
G01 X30.0837 Y22.3243
G01 X30.0815 Y22.3191
G01 X30.0734 Y22.3156
G01 X30.0660 Y22.3114
G01 X30.0590 Y22.3066
G01 X30.0548 Y22.3032
G01 X30.0487 Y22.2972
G01 X30.0432 Y22.2908
G01 X30.0383 Y22.2838
G01 X30.0342 Y22.2763
G01 X30.0307 Y22.2683
G01 X30.0226 Y22.2648
G01 X30.0152 Y22.2606
G01 X30.0082 Y22.2558
G01 X30.0040 Y22.2524
G01 X29.9979 Y22.2464
G01 X29.9924 Y22.2400
G01 X29.9875 Y22.2330
G01 X29.9834 Y22.2255
G01 X29.9799 Y22.2175
G01 X29.9718 Y22.2140
G01 X29.9644 Y22.2098
G01 X29.9574 Y22.2050
G01 X29.9532 Y22.2016
G01 X29.9471 Y22.1956
G01 X29.9416 Y22.1892
G01 X29.9367 Y22.1822
G01 X29.9326 Y22.1747
G01 X29.9291 Y22.1667
G01 X29.9210 Y22.1632
G01 X29.9136 Y22.1590
G01 X29.9066 Y22.1542
G01 X29.9024 Y22.1508
G01 X29.8963 Y22.1448
G01 X29.8889 Y22.1359
G01 X29.8843 Y22.1287
G01 X29.8805 Y22.1211
G01 X29.8773 Y22.1132
G01 X29.8758 Y22.1080
G01 X29.8740 Y22.0997
G01 X29.8728 Y22.0881
G01 X29.8730 Y22.0796
G01 X29.8735 Y22.0743
G01 X29.8755 Y22.0639
G01 X29.8655 Y22.0590
G01 X29.8583 Y22.0544
G01 X29.8516 Y22.0492
G01 X29.8455 Y22.0432
G01 X29.8400 Y22.0368
G01 X29.8351 Y22.0298
G01 X29.8310 Y22.0223
G01 X29.8276 Y22.0145
G01 X29.8242 Y22.0034
G01 X29.8232 Y21.9981
G01 X29.8222 Y21.9897
G01 X29.8222 Y21.9780
G01 X29.8232 Y21.9696
G01 X29.8247 Y21.9623
G01 X29.8194 Y21.9600
G01 X29.8120 Y21.9558
G01 X29.8050 Y21.9510
G01 X29.7985 Y21.9455
G01 X29.7926 Y21.9393
G01 X29.7873 Y21.9327
G01 X29.7827 Y21.9255
G01 X29.7789 Y21.9179
G01 X29.7757 Y21.9100
G01 X29.7734 Y21.9018
G01 X29.7724 Y21.8965
G01 X29.7714 Y21.8881
G01 X29.7714 Y21.8764
G01 X29.7724 Y21.8680
G01 X29.7739 Y21.8607
G01 X29.7686 Y21.8584
G01 X29.7612 Y21.8542
G01 X29.7542 Y21.8494
G01 X29.7477 Y21.8439
G01 X29.7418 Y21.8377
G01 X29.7365 Y21.8311
G01 X29.7319 Y21.8239
G01 X29.7281 Y21.8163
G01 X29.7249 Y21.8084
G01 X29.7226 Y21.8002
G01 X29.7211 Y21.7918
G01 X29.7204 Y21.7833
G01 X29.7206 Y21.7748
G01 X29.7211 Y21.7695
G01 X29.7226 Y21.7611
G01 X29.7242 Y21.7552
G01 X29.7216 Y21.7441
G01 X29.7204 Y21.7325
G01 X29.7206 Y21.7240
G01 X29.7211 Y21.7187
G01 X29.7226 Y21.7103
G01 X29.7242 Y21.7044
G01 X29.7216 Y21.6933
G01 X29.7204 Y21.6817
G01 X29.7206 Y21.6732
G01 X29.7211 Y21.6679
G01 X29.7231 Y21.6575
G01 X29.7131 Y21.6526
G01 X29.7034 Y21.6462
G01 X29.6992 Y21.6428
G01 X29.6931 Y21.6368
G01 X29.6857 Y21.6279
G01 X29.6811 Y21.6207
G01 X29.6786 Y21.6159
G01 X29.6741 Y21.6052
G01 X29.6718 Y21.5970
G01 X29.6708 Y21.5917
G01 X29.6698 Y21.5833
G01 X29.6696 Y21.5748
G01 X29.6703 Y21.5663
G01 X29.6718 Y21.5579
G01 X29.6734 Y21.5520
G01 X29.6718 Y21.5462
G01 X29.6703 Y21.5378
G01 X29.6696 Y21.5293
G01 X29.6696 Y21.5240
G01 X29.6708 Y21.5124
G01 X29.6734 Y21.5012
G01 X29.6718 Y21.4954
G01 X29.6703 Y21.4870
G01 X29.6696 Y21.4785
G01 X29.6696 Y21.4732
G01 X29.6708 Y21.4616
G01 X29.6734 Y21.4504
G01 X29.6718 Y21.4446
G01 X29.6703 Y21.4362
G01 X29.6696 Y21.4277
G01 X29.6696 Y21.4224
G01 X29.6708 Y21.4108
G01 X29.6734 Y21.3996
G01 X29.6718 Y21.3938
G01 X29.6703 Y21.3854
G01 X29.6696 Y21.3769
G01 X29.6696 Y21.3716
G01 X29.6708 Y21.3600
G01 X29.6734 Y21.3488
G01 X29.6718 Y21.3430
G01 X29.6703 Y21.3346
G01 X29.6696 Y21.3261
G01 X29.6696 Y21.3208
G01 X29.6708 Y21.3092
G01 X29.6734 Y21.2980
G01 X29.6718 Y21.2922
G01 X29.6703 Y21.2838
G01 X29.6696 Y21.2753
G01 X29.6696 Y21.2700
G01 X29.6708 Y21.2584
G01 X29.6734 Y21.2472
G01 X29.6718 Y21.2414
G01 X29.6703 Y21.2330
G01 X29.6696 Y21.2245
G01 X29.6696 Y21.2192
G01 X29.6708 Y21.2076
G01 X29.6734 Y21.1964
G01 X29.6718 Y21.1906
G01 X29.6703 Y21.1822
G01 X29.6696 Y21.1737
G01 X29.6696 Y21.1684
G01 X29.6708 Y21.1568
G01 X29.6734 Y21.1456
G01 X29.6718 Y21.1398
G01 X29.6703 Y21.1314
G01 X29.6696 Y21.1229
G01 X29.6696 Y21.1176
G01 X29.6708 Y21.1060
G01 X29.6734 Y21.0948
G01 X29.6718 Y21.0890
G01 X29.6703 Y21.0806
G01 X29.6696 Y21.0721
G01 X29.6696 Y21.0668
G01 X29.6708 Y21.0552
G01 X29.6734 Y21.0440
G01 X29.6718 Y21.0382
G01 X29.6703 Y21.0298
G01 X29.6696 Y21.0213
G01 X29.6696 Y21.0160
G01 X29.6708 Y21.0044
G01 X29.6734 Y20.9932
G00 Z2.0000
G00 X30.2482 Y21.6134
G01 F25.00
G01 Z-0.0187
G01 F45.00
G01 X31.3981 Y21.6134
G01 X31.3970 Y21.6224
G01 X31.3968 Y21.6309
G01 X31.3975 Y21.6394
G01 X31.3995 Y21.6498
G01 X31.3895 Y21.6547
G01 X31.3823 Y21.6593
G01 X31.3756 Y21.6645
G01 X31.3695 Y21.6705
G01 X31.3621 Y21.6794
G01 X31.3575 Y21.6866
G01 X31.3537 Y21.6942
G01 X31.3505 Y21.7021
G01 X31.3482 Y21.7103
G01 X31.3472 Y21.7156
G01 X31.3460 Y21.7272
G01 X31.3460 Y21.7325
G01 X31.3467 Y21.7410
G01 X31.3482 Y21.7494
G01 X31.3498 Y21.7552
G01 X31.3472 Y21.7664
G01 X31.3460 Y21.7780
G01 X31.3460 Y21.7833
G01 X31.3467 Y21.7918
G01 X31.3487 Y21.8022
G01 X31.3434 Y21.8045
G01 X31.3360 Y21.8087
G01 X31.3290 Y21.8135
G01 X31.3225 Y21.8190
G01 X31.3166 Y21.8252
G01 X31.3113 Y21.8318
G01 X31.3083 Y21.8363
G01 X31.3042 Y21.8438
G01 X31.3007 Y21.8518
G01 X31.2926 Y21.8553
G01 X31.2852 Y21.8595
G01 X31.2782 Y21.8643
G01 X31.2717 Y21.8698
G01 X31.2658 Y21.8760
G01 X31.2605 Y21.8826
G01 X31.2575 Y21.8871
G01 X31.2534 Y21.8946
G01 X31.2499 Y21.9026
G01 X31.2418 Y21.9061
G01 X31.2344 Y21.9103
G01 X31.2274 Y21.9151
G01 X31.2209 Y21.9206
G01 X31.2150 Y21.9268
G01 X31.2097 Y21.9334
G01 X31.2067 Y21.9379
G01 X31.2026 Y21.9454
G01 X31.1991 Y21.9534
G01 X31.1910 Y21.9569
G01 X31.1836 Y21.9611
G01 X31.1766 Y21.9659
G01 X31.1701 Y21.9714
G01 X31.1642 Y21.9776
G01 X31.1589 Y21.9842
G01 X31.1559 Y21.9887
G01 X31.1518 Y21.9962
G01 X31.1483 Y22.0042
G01 X31.1402 Y22.0077
G01 X31.1328 Y22.0119
G01 X31.1258 Y22.0167
G01 X31.1193 Y22.0222
G01 X31.1134 Y22.0284
G01 X31.1081 Y22.0350
G01 X31.1035 Y22.0422
G01 X31.0998 Y22.0495
G01 X31.0236 Y22.0496
G01 X31.0121 Y22.0507
G01 X31.0037 Y22.0525
G01 X30.9986 Y22.0541
G01 X30.9906 Y22.0572
G01 X30.9831 Y22.0611
G01 X30.9759 Y22.0657
G01 X30.9692 Y22.0709
G01 X30.9631 Y22.0769
G01 X30.9576 Y22.0833
G01 X30.9527 Y22.0903
G01 X30.9474 Y22.1003
G01 X30.6988 Y22.1003
G01 X30.6935 Y22.0903
G01 X30.6887 Y22.0833
G01 X30.6852 Y22.0792
G01 X30.6770 Y22.0709
G01 X30.6703 Y22.0657
G01 X30.6658 Y22.0627
G01 X30.6584 Y22.0585
G01 X30.6506 Y22.0551
G01 X30.6425 Y22.0525
G01 X30.6342 Y22.0507
G01 X30.6226 Y22.0496
G01 X30.5972 Y22.0495
G01 X30.5935 Y22.0422
G01 X30.5889 Y22.0350
G01 X30.5815 Y22.0261
G01 X30.5754 Y22.0201
G01 X30.5687 Y22.0149
G01 X30.5642 Y22.0119
G01 X30.5568 Y22.0077
G01 X30.5461 Y22.0033
G01 X30.5379 Y22.0009
G01 X30.5295 Y21.9994
G01 X30.5183 Y21.9987
G01 X30.4956 Y21.9987
G01 X30.4919 Y21.9914
G01 X30.4873 Y21.9842
G01 X30.4820 Y21.9776
G01 X30.4761 Y21.9714
G01 X30.4696 Y21.9659
G01 X30.4626 Y21.9611
G01 X30.4552 Y21.9569
G01 X30.4471 Y21.9534
G01 X30.4437 Y21.9454
G01 X30.4395 Y21.9379
G01 X30.4347 Y21.9309
G01 X30.4312 Y21.9268
G01 X30.4253 Y21.9206
G01 X30.4188 Y21.9151
G01 X30.4118 Y21.9103
G01 X30.4044 Y21.9061
G01 X30.3963 Y21.9026
G01 X30.3929 Y21.8946
G01 X30.3887 Y21.8871
G01 X30.3839 Y21.8801
G01 X30.3804 Y21.8760
G01 X30.3745 Y21.8698
G01 X30.3680 Y21.8643
G01 X30.3610 Y21.8595
G01 X30.3536 Y21.8553
G01 X30.3483 Y21.8530
G01 X30.3499 Y21.8457
G01 X30.3509 Y21.8373
G01 X30.3509 Y21.8256
G01 X30.3499 Y21.8172
G01 X30.3488 Y21.8119
G01 X30.3465 Y21.8037
G01 X30.3434 Y21.7958
G01 X30.3395 Y21.7882
G01 X30.3349 Y21.7810
G01 X30.3296 Y21.7744
G01 X30.3237 Y21.7682
G01 X30.3172 Y21.7627
G01 X30.3102 Y21.7579
G01 X30.3028 Y21.7537
G01 X30.2975 Y21.7514
G01 X30.2991 Y21.7441
G01 X30.3001 Y21.7357
G01 X30.3001 Y21.7240
G01 X30.2991 Y21.7156
G01 X30.2980 Y21.7103
G01 X30.2947 Y21.6992
G01 X30.2913 Y21.6914
G01 X30.2871 Y21.6839
G01 X30.2823 Y21.6769
G01 X30.2767 Y21.6705
G01 X30.2706 Y21.6645
G01 X30.2639 Y21.6593
G01 X30.2568 Y21.6547
G01 X30.2467 Y21.6498
G01 X30.2487 Y21.6394
G01 X30.2494 Y21.6309
G01 X30.2493 Y21.6224
G01 X30.2482 Y21.6134
G00 Z2.0000
G00 X32.1118 Y21.0440
G01 F25.00
G01 Z-0.0187
G01 F45.00
G01 X32.1102 Y21.0382
G01 X32.1087 Y21.0298
G01 X32.1080 Y21.0213
G01 X32.1082 Y21.0128
G01 X32.1087 Y21.0075
G01 X32.1102 Y20.9991
G01 X32.1125 Y20.9909
G01 X32.1157 Y20.9830
G01 X32.1195 Y20.9754
G01 X32.1241 Y20.9682
G01 X32.1294 Y20.9616
G01 X32.1353 Y20.9554
G01 X32.1418 Y20.9499
G01 X32.1488 Y20.9451
G01 X32.1562 Y20.9409
G01 X32.1615 Y20.9386
G01 X32.1595 Y20.9282
G01 X32.1588 Y20.9197
G01 X32.1588 Y20.9144
G01 X32.1600 Y20.9028
G01 X32.1626 Y20.8916
G01 X32.1610 Y20.8858
G01 X32.1595 Y20.8774
G01 X32.1588 Y20.8689
G01 X32.1588 Y20.8636
G01 X32.1600 Y20.8520
G01 X32.1626 Y20.8408
G01 X32.1610 Y20.8350
G01 X32.1595 Y20.8266
G01 X32.1588 Y20.8181
G01 X32.1588 Y20.8128
G01 X32.1600 Y20.8012
G01 X32.1626 Y20.7900
G01 X32.1610 Y20.7842
G01 X32.1595 Y20.7758
G01 X32.1588 Y20.7673
G01 X32.1588 Y20.7620
G01 X32.1600 Y20.7504
G01 X32.1610 Y20.7451
G01 X32.1633 Y20.7369
G01 X32.1665 Y20.7290
G01 X32.1703 Y20.7214
G01 X32.1749 Y20.7142
G01 X32.1823 Y20.7053
G01 X32.1884 Y20.6993
G01 X32.1951 Y20.6941
G01 X32.2023 Y20.6895
G01 X32.2123 Y20.6846
G01 X32.2103 Y20.6742
G01 X32.2096 Y20.6657
G01 X32.2098 Y20.6572
G01 X32.2108 Y20.6488
G01 X32.2126 Y20.6405
G01 X32.2152 Y20.6324
G01 X32.2186 Y20.6246
G01 X32.2227 Y20.6171
G01 X32.2257 Y20.6126
G01 X32.2310 Y20.6060
G01 X32.2392 Y20.5977
G01 X32.2434 Y20.5943
G01 X32.2504 Y20.5895
G01 X32.2578 Y20.5853
G01 X32.2631 Y20.5830
G01 X32.2616 Y20.5757
G01 X32.2606 Y20.5673
G01 X32.2604 Y20.5588
G01 X32.2611 Y20.5503
G01 X32.2626 Y20.5419
G01 X32.2649 Y20.5337
G01 X32.2681 Y20.5258
G01 X32.2719 Y20.5182
G01 X32.2765 Y20.5110
G01 X32.2818 Y20.5044
G01 X32.2900 Y20.4961
G01 X32.2967 Y20.4909
G01 X32.3039 Y20.4863
G01 X32.3114 Y20.4824
G01 X32.3167 Y20.4802
G01 X32.3202 Y20.4722
G01 X32.3243 Y20.4647
G01 X32.3273 Y20.4602
G01 X32.3326 Y20.4536
G01 X32.3385 Y20.4474
G01 X32.3450 Y20.4419
G01 X32.3520 Y20.4371
G01 X32.3594 Y20.4329
G01 X32.3647 Y20.4306
G01 X32.3627 Y20.4202
G01 X32.3620 Y20.4117
G01 X32.3620 Y20.4064
G01 X32.3627 Y20.3979
G01 X32.3650 Y20.3865
G01 X32.3676 Y20.3784
G01 X32.3697 Y20.3734
G01 X32.3735 Y20.3658
G01 X32.3781 Y20.3586
G01 X32.3855 Y20.3497
G01 X32.3916 Y20.3437
G01 X32.3958 Y20.3403
G01 X32.4028 Y20.3355
G01 X32.4102 Y20.3313
G01 X32.4183 Y20.3278
G01 X32.4205 Y20.3226
G01 X32.4243 Y20.3150
G01 X32.4289 Y20.3078
G01 X32.4342 Y20.3012
G01 X32.4424 Y20.2929
G01 X32.4491 Y20.2877
G01 X32.4563 Y20.2831
G01 X32.4610 Y20.2805
G01 X32.4691 Y20.2770
G01 X32.4726 Y20.2690
G01 X32.4751 Y20.2642
G01 X32.4797 Y20.2570
G01 X32.4871 Y20.2481
G01 X32.4932 Y20.2421
G01 X32.4974 Y20.2387
G01 X32.5071 Y20.2323
G01 X32.5146 Y20.2284
G01 X32.5226 Y20.2253
G01 X32.5308 Y20.2229
G01 X32.5391 Y20.2214
G01 X32.5445 Y20.2209
G01 X32.5730 Y20.2207
G01 X32.5767 Y20.2134
G01 X32.5813 Y20.2062
G01 X32.5887 Y20.1973
G01 X32.5948 Y20.1913
G01 X32.5990 Y20.1879
G01 X32.6060 Y20.1831
G01 X32.6134 Y20.1789
G01 X32.6215 Y20.1754
G01 X32.6237 Y20.1702
G01 X32.6275 Y20.1626
G01 X32.6340 Y20.1529
G01 X32.6395 Y20.1465
G01 X32.6456 Y20.1405
G01 X32.6498 Y20.1371
G01 X32.6568 Y20.1323
G01 X32.6642 Y20.1281
G01 X32.6720 Y20.1247
G01 X32.6801 Y20.1221
G01 X32.6885 Y20.1203
G01 X32.7000 Y20.1192
G01 X32.7254 Y20.1191
G01 X32.7307 Y20.1091
G01 X32.7356 Y20.1021
G01 X32.7411 Y20.0957
G01 X32.7449 Y20.0918
G01 X32.7514 Y20.0863
G01 X32.7611 Y20.0799
G01 X32.7686 Y20.0760
G01 X32.7766 Y20.0729
G01 X32.7848 Y20.0705
G01 X32.7931 Y20.0690
G01 X32.8043 Y20.0683
G01 X32.9286 Y20.0683
G01 X32.9339 Y20.0583
G01 X32.9369 Y20.0538
G01 X32.9422 Y20.0472
G01 X32.9504 Y20.0389
G01 X32.9571 Y20.0337
G01 X32.9643 Y20.0291
G01 X32.9690 Y20.0265
G01 X32.9798 Y20.0221
G01 X32.9880 Y20.0197
G01 X32.9963 Y20.0182
G01 X33.0017 Y20.0177
G01 X33.5213 Y20.0177
G01 X33.5298 Y20.0187
G01 X33.5351 Y20.0197
G01 X33.5462 Y20.0231
G01 X33.5512 Y20.0252
G01 X33.5588 Y20.0291
G01 X33.5659 Y20.0337
G01 X33.5726 Y20.0389
G01 X33.5808 Y20.0472
G01 X33.5843 Y20.0513
G01 X33.5891 Y20.0583
G01 X33.5944 Y20.0683
G01 X33.6737 Y20.0685
G01 X33.6822 Y20.0695
G01 X33.6905 Y20.0713
G01 X33.6957 Y20.0729
G01 X33.7036 Y20.0760
G01 X33.7112 Y20.0799
G01 X33.7183 Y20.0845
G01 X33.7273 Y20.0918
G01 X33.7332 Y20.0980
G01 X33.7385 Y20.1046
G01 X33.7431 Y20.1118
G01 X33.7468 Y20.1191
G01 X33.7753 Y20.1193
G01 X33.7838 Y20.1203
G01 X33.7891 Y20.1213
G01 X33.7973 Y20.1237
G01 X33.8052 Y20.1268
G01 X33.8128 Y20.1307
G01 X33.8199 Y20.1353
G01 X33.8289 Y20.1426
G01 X33.8348 Y20.1488
G01 X33.8383 Y20.1529
G01 X33.8447 Y20.1626
G01 X33.8486 Y20.1702
G01 X33.8507 Y20.1754
G01 X33.8588 Y20.1789
G01 X33.8662 Y20.1831
G01 X33.8732 Y20.1879
G01 X33.8797 Y20.1934
G01 X33.8856 Y20.1996
G01 X33.8909 Y20.2062
G01 X33.8955 Y20.2134
G01 X33.8992 Y20.2207
G01 X33.9277 Y20.2209
G01 X33.9362 Y20.2219
G01 X33.9445 Y20.2237
G01 X33.9526 Y20.2263
G01 X33.9576 Y20.2284
G01 X33.9652 Y20.2323
G01 X33.9723 Y20.2369
G01 X33.9790 Y20.2421
G01 X33.9872 Y20.2504
G01 X33.9925 Y20.2570
G01 X33.9971 Y20.2642
G01 X33.9997 Y20.2690
G01 X34.0031 Y20.2770
G01 X34.0084 Y20.2792
G01 X34.0160 Y20.2831
G01 X34.0231 Y20.2877
G01 X34.0298 Y20.2929
G01 X34.0380 Y20.3012
G01 X34.0433 Y20.3078
G01 X34.0479 Y20.3150
G01 X34.0505 Y20.3198
G01 X34.0539 Y20.3278
G01 X34.0592 Y20.3300
G01 X34.0668 Y20.3339
G01 X34.0764 Y20.3403
G01 X34.0806 Y20.3437
G01 X34.0867 Y20.3497
G01 X34.0941 Y20.3586
G01 X34.0987 Y20.3658
G01 X34.1026 Y20.3734
G01 X34.1057 Y20.3813
G01 X34.1073 Y20.3865
G01 X34.1091 Y20.3948
G01 X34.1101 Y20.4032
G01 X34.1102 Y20.4117
G01 X34.1095 Y20.4202
G01 X34.1075 Y20.4306
G01 X34.1128 Y20.4329
G01 X34.1202 Y20.4371
G01 X34.1272 Y20.4419
G01 X34.1337 Y20.4474
G01 X34.1396 Y20.4536
G01 X34.1431 Y20.4577
G01 X34.1479 Y20.4647
G01 X34.1521 Y20.4722
G01 X34.1555 Y20.4802
G01 X34.1608 Y20.4824
G01 X34.1684 Y20.4863
G01 X34.1780 Y20.4927
G01 X34.1822 Y20.4961
G01 X34.1883 Y20.5021
G01 X34.1939 Y20.5085
G01 X34.1987 Y20.5155
G01 X34.2029 Y20.5230
G01 X34.2063 Y20.5308
G01 X34.2089 Y20.5389
G01 X34.2107 Y20.5472
G01 X34.2117 Y20.5556
G01 X34.2118 Y20.5641
G01 X34.2111 Y20.5726
G01 X34.2091 Y20.5830
G01 X34.2192 Y20.5879
G01 X34.2263 Y20.5925
G01 X34.2330 Y20.5977
G01 X34.2412 Y20.6060
G01 X34.2447 Y20.6101
G01 X34.2495 Y20.6171
G01 X34.2537 Y20.6246
G01 X34.2581 Y20.6353
G01 X34.2604 Y20.6435
G01 X34.2619 Y20.6519
G01 X34.2626 Y20.6604
G01 X34.2626 Y20.6657
G01 X34.2615 Y20.6773
G01 X34.2588 Y20.6885
G01 X34.2604 Y20.6943
G01 X34.2619 Y20.7027
G01 X34.2626 Y20.7112
G01 X34.2626 Y20.7165
G01 X34.2615 Y20.7281
G01 X34.2588 Y20.7393
G01 X34.2604 Y20.7451
G01 X34.2619 Y20.7535
G01 X34.2626 Y20.7620
G01 X34.2626 Y20.7673
G01 X34.2619 Y20.7758
G01 X34.2599 Y20.7862
G01 X34.2700 Y20.7911
G01 X34.2771 Y20.7957
G01 X34.2838 Y20.8009
G01 X34.2920 Y20.8092
G01 X34.2955 Y20.8133
G01 X34.3003 Y20.8203
G01 X34.3045 Y20.8278
G01 X34.3089 Y20.8385
G01 X34.3112 Y20.8467
G01 X34.3127 Y20.8551
G01 X34.3134 Y20.8636
G01 X34.3134 Y20.8689
G01 X34.3123 Y20.8805
G01 X34.3096 Y20.8917
G01 X34.3123 Y20.9028
G01 X34.3133 Y20.9112
G01 X34.3134 Y20.9197
G01 X34.3127 Y20.9282
G01 X34.3112 Y20.9366
G01 X34.3079 Y20.9477
G01 X34.3045 Y20.9555
G01 X34.3019 Y20.9603
G01 X34.2973 Y20.9675
G01 X34.2920 Y20.9741
G01 X34.2861 Y20.9803
G01 X34.2796 Y20.9858
G01 X34.2726 Y20.9906
G01 X34.2652 Y20.9948
G01 X34.2574 Y20.9982
G01 X34.2493 Y21.0008
G01 X34.2410 Y21.0026
G01 X34.2325 Y21.0036
G01 X34.2267 Y21.0038
G01 X34.1024 Y21.0038
G01 X34.0971 Y21.0138
G01 X34.0923 Y21.0208
G01 X34.0867 Y21.0272
G01 X34.0829 Y21.0311
G01 X34.0764 Y21.0366
G01 X34.0668 Y21.0430
G01 X34.0592 Y21.0469
G01 X34.0513 Y21.0500
G01 X34.0461 Y21.0516
G01 X34.0378 Y21.0534
G01 X34.0293 Y21.0544
G01 X34.0235 Y21.0546
G01 X33.8203 Y21.0546
G01 X33.8145 Y21.0544
G01 X33.8061 Y21.0534
G01 X33.7977 Y21.0516
G01 X33.7896 Y21.0490
G01 X33.7846 Y21.0469
G01 X33.7771 Y21.0430
G01 X33.7674 Y21.0366
G01 X33.7632 Y21.0332
G01 X33.7571 Y21.0272
G01 X33.7497 Y21.0183
G01 X33.7451 Y21.0111
G01 X33.7413 Y21.0035
G01 X33.7381 Y20.9956
G01 X33.7366 Y20.9904
G01 X33.7348 Y20.9821
G01 X33.7338 Y20.9737
G01 X33.7336 Y20.9652
G01 X33.7343 Y20.9567
G01 X33.7363 Y20.9463
G01 X33.7310 Y20.9440
G01 X33.7236 Y20.9398
G01 X33.7166 Y20.9350
G01 X33.7101 Y20.9295
G01 X33.7042 Y20.9233
G01 X33.6989 Y20.9167
G01 X33.6943 Y20.9095
G01 X33.6905 Y20.9019
G01 X33.6873 Y20.8940
G01 X33.6850 Y20.8858
G01 X33.6835 Y20.8774
G01 X33.6828 Y20.8689
G01 X33.6830 Y20.8604
G01 X33.6835 Y20.8551
G01 X33.6850 Y20.8467
G01 X33.6866 Y20.8408
G01 X33.6840 Y20.8297
G01 X33.6828 Y20.8181
G01 X33.6830 Y20.8096
G01 X33.6835 Y20.8043
G01 X33.6855 Y20.7939
G01 X33.6802 Y20.7916
G01 X33.6728 Y20.7874
G01 X33.6658 Y20.7826
G01 X33.6593 Y20.7771
G01 X33.6534 Y20.7709
G01 X33.6481 Y20.7643
G01 X33.6435 Y20.7571
G01 X33.6410 Y20.7523
G01 X33.6376 Y20.7445
G01 X33.6350 Y20.7364
G01 X33.6327 Y20.7250
G01 X33.6320 Y20.7165
G01 X33.6322 Y20.7080
G01 X33.6332 Y20.6996
G01 X33.6347 Y20.6923
G01 X33.6294 Y20.6900
G01 X33.6220 Y20.6858
G01 X33.6150 Y20.6810
G01 X33.6085 Y20.6755
G01 X33.6026 Y20.6693
G01 X33.5992 Y20.6652
G01 X33.5943 Y20.6582
G01 X33.5902 Y20.6507
G01 X33.5867 Y20.6427
G01 X33.5786 Y20.6392
G01 X33.5712 Y20.6350
G01 X33.5642 Y20.6302
G01 X33.5577 Y20.6247
G01 X33.5518 Y20.6185
G01 X33.5484 Y20.6144
G01 X33.5435 Y20.6074
G01 X33.5394 Y20.5999
G01 X33.5359 Y20.5919
G01 X33.5278 Y20.5884
G01 X33.5204 Y20.5842
G01 X33.5134 Y20.5794
G01 X33.5069 Y20.5739
G01 X33.5010 Y20.5677
G01 X33.4957 Y20.5611
G01 X33.4911 Y20.5539
G01 X33.4874 Y20.5466
G01 X33.4112 Y20.5465
G01 X33.3997 Y20.5454
G01 X33.3913 Y20.5436
G01 X33.3862 Y20.5420
G01 X33.3782 Y20.5389
G01 X33.3707 Y20.5350
G01 X33.3635 Y20.5304
G01 X33.3568 Y20.5252
G01 X33.3507 Y20.5192
G01 X33.3452 Y20.5128
G01 X33.3403 Y20.5058
G01 X33.3350 Y20.4958
G01 X33.1372 Y20.4958
G01 X33.1319 Y20.5058
G01 X33.1289 Y20.5103
G01 X33.1236 Y20.5169
G01 X33.1154 Y20.5252
G01 X33.1112 Y20.5286
G01 X33.1042 Y20.5334
G01 X33.0968 Y20.5376
G01 X33.0890 Y20.5410
G01 X33.0809 Y20.5436
G01 X33.0726 Y20.5454
G01 X33.0610 Y20.5465
G01 X33.0356 Y20.5466
G01 X33.0319 Y20.5539
G01 X33.0273 Y20.5611
G01 X33.0199 Y20.5700
G01 X33.0138 Y20.5760
G01 X33.0096 Y20.5794
G01 X33.0026 Y20.5842
G01 X32.9952 Y20.5884
G01 X32.9845 Y20.5928
G01 X32.9763 Y20.5952
G01 X32.9679 Y20.5967
G01 X32.9567 Y20.5974
G01 X32.9340 Y20.5974
G01 X32.9303 Y20.6047
G01 X32.9257 Y20.6119
G01 X32.9204 Y20.6185
G01 X32.9145 Y20.6247
G01 X32.9080 Y20.6302
G01 X32.9010 Y20.6350
G01 X32.8936 Y20.6392
G01 X32.8855 Y20.6427
G01 X32.8821 Y20.6507
G01 X32.8779 Y20.6582
G01 X32.8749 Y20.6627
G01 X32.8696 Y20.6693
G01 X32.8637 Y20.6755
G01 X32.8572 Y20.6810
G01 X32.8502 Y20.6858
G01 X32.8428 Y20.6900
G01 X32.8347 Y20.6935
G01 X32.8313 Y20.7015
G01 X32.8271 Y20.7090
G01 X32.8241 Y20.7135
G01 X32.8188 Y20.7201
G01 X32.8129 Y20.7263
G01 X32.8064 Y20.7318
G01 X32.7994 Y20.7366
G01 X32.7920 Y20.7408
G01 X32.7867 Y20.7431
G01 X32.7883 Y20.7504
G01 X32.7893 Y20.7588
G01 X32.7894 Y20.7673
G01 X32.7887 Y20.7758
G01 X32.7872 Y20.7842
G01 X32.7849 Y20.7924
G01 X32.7805 Y20.8031
G01 X32.7779 Y20.8079
G01 X32.7733 Y20.8151
G01 X32.7680 Y20.8217
G01 X32.7621 Y20.8279
G01 X32.7556 Y20.8334
G01 X32.7486 Y20.8382
G01 X32.7412 Y20.8424
G01 X32.7359 Y20.8447
G01 X32.7379 Y20.8551
G01 X32.7386 Y20.8636
G01 X32.7385 Y20.8721
G01 X32.7379 Y20.8774
G01 X32.7364 Y20.8858
G01 X32.7348 Y20.8917
G01 X32.7375 Y20.9028
G01 X32.7386 Y20.9144
G01 X32.7385 Y20.9229
G01 X32.7379 Y20.9282
G01 X32.7364 Y20.9366
G01 X32.7348 Y20.9425
G01 X32.7375 Y20.9536
G01 X32.7386 Y20.9652
G01 X32.7385 Y20.9737
G01 X32.7379 Y20.9790
G01 X32.7364 Y20.9874
G01 X32.7331 Y20.9985
G01 X32.7297 Y21.0063
G01 X32.7255 Y21.0138
G01 X32.7225 Y21.0183
G01 X32.7172 Y21.0249
G01 X32.7090 Y21.0332
G01 X32.7023 Y21.0384
G01 X32.6952 Y21.0430
G01 X32.6851 Y21.0479
G01 X32.6871 Y21.0583
G01 X32.6878 Y21.0668
G01 X32.6878 Y21.0721
G01 X32.6867 Y21.0837
G01 X32.6840 Y21.0949
G01 X32.6867 Y21.1060
G01 X32.6878 Y21.1176
G01 X32.6877 Y21.1261
G01 X32.6871 Y21.1314
G01 X32.6856 Y21.1398
G01 X32.6840 Y21.1457
G01 X32.6867 Y21.1568
G01 X32.6878 Y21.1684
G01 X32.6877 Y21.1769
G01 X32.6871 Y21.1822
G01 X32.6856 Y21.1906
G01 X32.6840 Y21.1965
G01 X32.6867 Y21.2076
G01 X32.6878 Y21.2192
G01 X32.6877 Y21.2277
G01 X32.6871 Y21.2330
G01 X32.6856 Y21.2414
G01 X32.6840 Y21.2473
G01 X32.6867 Y21.2584
G01 X32.6878 Y21.2700
G01 X32.6877 Y21.2785
G01 X32.6871 Y21.2838
G01 X32.6856 Y21.2922
G01 X32.6840 Y21.2981
G01 X32.6867 Y21.3092
G01 X32.6878 Y21.3208
G01 X32.6877 Y21.3293
G01 X32.6871 Y21.3346
G01 X32.6856 Y21.3430
G01 X32.6840 Y21.3489
G01 X32.6867 Y21.3600
G01 X32.6878 Y21.3716
G01 X32.6877 Y21.3801
G01 X32.6871 Y21.3854
G01 X32.6856 Y21.3938
G01 X32.6840 Y21.3997
G01 X32.6867 Y21.4108
G01 X32.6878 Y21.4224
G01 X32.6877 Y21.4309
G01 X32.6871 Y21.4362
G01 X32.6856 Y21.4446
G01 X32.6840 Y21.4505
G01 X32.6867 Y21.4616
G01 X32.6878 Y21.4732
G01 X32.6877 Y21.4817
G01 X32.6871 Y21.4870
G01 X32.6856 Y21.4954
G01 X32.6840 Y21.5013
G01 X32.6867 Y21.5124
G01 X32.6878 Y21.5240
G01 X32.6877 Y21.5325
G01 X32.6871 Y21.5378
G01 X32.6851 Y21.5482
G01 X32.6904 Y21.5505
G01 X32.6978 Y21.5547
G01 X32.7048 Y21.5595
G01 X32.7113 Y21.5650
G01 X32.7172 Y21.5712
G01 X32.7225 Y21.5778
G01 X32.7271 Y21.5850
G01 X32.7310 Y21.5926
G01 X32.7341 Y21.6005
G01 X32.7364 Y21.6087
G01 X32.7379 Y21.6171
G01 X32.7386 Y21.6256
G01 X32.7385 Y21.6341
G01 X32.7379 Y21.6394
G01 X32.7364 Y21.6478
G01 X32.7348 Y21.6537
G01 X32.7375 Y21.6648
G01 X32.7386 Y21.6764
G01 X32.7385 Y21.6849
G01 X32.7379 Y21.6902
G01 X32.7359 Y21.7006
G01 X32.7412 Y21.7029
G01 X32.7486 Y21.7071
G01 X32.7556 Y21.7119
G01 X32.7621 Y21.7174
G01 X32.7680 Y21.7236
G01 X32.7733 Y21.7302
G01 X32.7779 Y21.7374
G01 X32.7805 Y21.7422
G01 X32.7839 Y21.7500
G01 X32.7865 Y21.7581
G01 X32.7887 Y21.7695
G01 X32.7894 Y21.7780
G01 X32.7893 Y21.7865
G01 X32.7883 Y21.7949
G01 X32.7867 Y21.8022
G01 X32.7968 Y21.8071
G01 X32.8039 Y21.8117
G01 X32.8106 Y21.8169
G01 X32.8167 Y21.8229
G01 X32.8241 Y21.8318
G01 X32.8287 Y21.8390
G01 X32.8326 Y21.8466
G01 X32.8357 Y21.8545
G01 X32.8380 Y21.8627
G01 X32.8391 Y21.8680
G01 X32.8402 Y21.8796
G01 X32.8401 Y21.8881
G01 X32.8395 Y21.8934
G01 X32.8375 Y21.9038
G01 X32.8428 Y21.9061
G01 X32.8502 Y21.9103
G01 X32.8572 Y21.9151
G01 X32.8637 Y21.9206
G01 X32.8696 Y21.9268
G01 X32.8731 Y21.9309
G01 X32.8779 Y21.9379
G01 X32.8821 Y21.9454
G01 X32.8855 Y21.9534
G01 X32.8936 Y21.9569
G01 X32.9010 Y21.9611
G01 X32.9080 Y21.9659
G01 X32.9145 Y21.9714
G01 X32.9204 Y21.9776
G01 X32.9257 Y21.9842
G01 X32.9303 Y21.9914
G01 X32.9340 Y21.9987
G01 X32.9567 Y21.9987
G01 X32.9679 Y21.9994
G01 X32.9763 Y22.0009
G01 X32.9845 Y22.0033
G01 X32.9952 Y22.0077
G01 X33.0026 Y22.0119
G01 X33.0071 Y22.0149
G01 X33.0138 Y22.0201
G01 X33.0199 Y22.0261
G01 X33.0273 Y22.0350
G01 X33.0319 Y22.0422
G01 X33.0356 Y22.0495
G01 X33.0610 Y22.0496
G01 X33.0726 Y22.0507
G01 X33.0809 Y22.0525
G01 X33.0890 Y22.0551
G01 X33.0968 Y22.0585
G01 X33.1042 Y22.0627
G01 X33.1087 Y22.0657
G01 X33.1154 Y22.0709
G01 X33.1236 Y22.0792
G01 X33.1271 Y22.0833
G01 X33.1319 Y22.0903
G01 X33.1372 Y22.1003
G01 X33.3350 Y22.1003
G01 X33.3387 Y22.0930
G01 X33.3433 Y22.0858
G01 X33.3507 Y22.0769
G01 X33.3568 Y22.0709
G01 X33.3610 Y22.0675
G01 X33.3680 Y22.0627
G01 X33.3754 Y22.0585
G01 X33.3862 Y22.0541
G01 X33.3944 Y22.0517
G01 X33.4027 Y22.0502
G01 X33.4139 Y22.0495
G01 X33.4366 Y22.0495
G01 X33.4403 Y22.0422
G01 X33.4449 Y22.0350
G01 X33.4523 Y22.0261
G01 X33.4584 Y22.0201
G01 X33.4626 Y22.0167
G01 X33.4696 Y22.0119
G01 X33.4770 Y22.0077
G01 X33.4878 Y22.0033
G01 X33.4929 Y22.0017
G01 X33.5013 Y21.9999
G01 X33.5128 Y21.9988
G01 X33.5317 Y21.9987
G01 X33.5306 Y21.9897
G01 X33.5304 Y21.9812
G01 X33.5311 Y21.9727
G01 X33.5326 Y21.9643
G01 X33.5349 Y21.9561
G01 X33.5381 Y21.9482
G01 X33.5419 Y21.9406
G01 X33.5465 Y21.9334
G01 X33.5539 Y21.9245
G01 X33.5600 Y21.9185
G01 X33.5642 Y21.9151
G01 X33.5739 Y21.9087
G01 X33.5814 Y21.9048
G01 X33.5867 Y21.9026
G01 X33.5902 Y21.8946
G01 X33.5943 Y21.8871
G01 X33.5973 Y21.8826
G01 X33.6026 Y21.8760
G01 X33.6085 Y21.8698
G01 X33.6150 Y21.8643
G01 X33.6220 Y21.8595
G01 X33.6294 Y21.8553
G01 X33.6347 Y21.8530
G01 X33.6332 Y21.8457
G01 X33.6322 Y21.8373
G01 X33.6322 Y21.8256
G01 X33.6327 Y21.8203
G01 X33.6342 Y21.8119
G01 X33.6376 Y21.8008
G01 X33.6410 Y21.7930
G01 X33.6451 Y21.7855
G01 X33.6500 Y21.7785
G01 X33.6555 Y21.7721
G01 X33.6616 Y21.7661
G01 X33.6683 Y21.7609
G01 X33.6755 Y21.7563
G01 X33.6855 Y21.7514
G01 X33.6835 Y21.7410
G01 X33.6828 Y21.7325
G01 X33.6830 Y21.7240
G01 X33.6840 Y21.7156
G01 X33.6858 Y21.7073
G01 X33.6884 Y21.6992
G01 X33.6918 Y21.6914
G01 X33.6959 Y21.6839
G01 X33.6989 Y21.6794
G01 X33.7042 Y21.6728
G01 X33.7101 Y21.6666
G01 X33.7166 Y21.6611
G01 X33.7263 Y21.6547
G01 X33.7338 Y21.6508
G01 X33.7418 Y21.6477
G01 X33.7500 Y21.6453
G01 X33.7583 Y21.6438
G01 X33.7637 Y21.6433
G01 X33.9727 Y21.6431
G01 X33.9785 Y21.6433
G01 X33.9870 Y21.6443
G01 X33.9953 Y21.6461
G01 X34.0005 Y21.6477
G01 X34.0084 Y21.6508
G01 X34.0186 Y21.6563
G01 X34.0256 Y21.6611
G01 X34.0321 Y21.6666
G01 X34.0380 Y21.6728
G01 X34.0415 Y21.6769
G01 X34.0463 Y21.6839
G01 X34.0516 Y21.6939
G01 X34.1759 Y21.6939
G01 X34.1871 Y21.6946
G01 X34.1985 Y21.6969
G01 X34.2037 Y21.6985
G01 X34.2116 Y21.7016
G01 X34.2218 Y21.7071
G01 X34.2263 Y21.7101
G01 X34.2330 Y21.7153
G01 X34.2391 Y21.7213
G01 X34.2447 Y21.7277
G01 X34.2511 Y21.7374
G01 X34.2537 Y21.7422
G01 X34.2571 Y21.7500
G01 X34.2604 Y21.7611
G01 X34.2619 Y21.7695
G01 X34.2626 Y21.7780
G01 X34.2626 Y21.7833
G01 X34.2615 Y21.7949
G01 X34.2588 Y21.8061
G01 X34.2604 Y21.8119
G01 X34.2619 Y21.8203
G01 X34.2626 Y21.8288
G01 X34.2625 Y21.8373
G01 X34.2619 Y21.8426
G01 X34.2604 Y21.8510
G01 X34.2571 Y21.8621
G01 X34.2537 Y21.8699
G01 X34.2511 Y21.8747
G01 X34.2465 Y21.8819
G01 X34.2391 Y21.8908
G01 X34.2330 Y21.8968
G01 X34.2288 Y21.9002
G01 X34.2192 Y21.9066
G01 X34.2091 Y21.9115
G01 X34.2111 Y21.9219
G01 X34.2118 Y21.9304
G01 X34.2118 Y21.9357
G01 X34.2107 Y21.9473
G01 X34.2080 Y21.9585
G01 X34.2096 Y21.9643
G01 X34.2111 Y21.9727
G01 X34.2118 Y21.9812
G01 X34.2118 Y21.9865
G01 X34.2111 Y21.9950
G01 X34.2096 Y22.0034
G01 X34.2073 Y22.0116
G01 X34.2042 Y22.0195
G01 X34.2003 Y22.0271
G01 X34.1957 Y22.0343
G01 X34.1904 Y22.0409
G01 X34.1845 Y22.0471
G01 X34.1780 Y22.0526
G01 X34.1710 Y22.0574
G01 X34.1636 Y22.0616
G01 X34.1583 Y22.0639
G01 X34.1603 Y22.0743
G01 X34.1610 Y22.0828
G01 X34.1609 Y22.0913
G01 X34.1603 Y22.0966
G01 X34.1588 Y22.1050
G01 X34.1555 Y22.1161
G01 X34.1521 Y22.1239
G01 X34.1479 Y22.1314
G01 X34.1431 Y22.1384
G01 X34.1375 Y22.1448
G01 X34.1337 Y22.1487
G01 X34.1247 Y22.1560
G01 X34.1176 Y22.1606
G01 X34.1128 Y22.1632
G01 X34.1047 Y22.1667
G01 X34.1013 Y22.1747
G01 X34.0987 Y22.1795
G01 X34.0941 Y22.1867
G01 X34.0867 Y22.1956
G01 X34.0806 Y22.2016
G01 X34.0764 Y22.2050
G01 X34.0694 Y22.2098
G01 X34.0620 Y22.2140
G01 X34.0567 Y22.2163
G01 X34.0587 Y22.2267
G01 X34.0594 Y22.2352
G01 X34.0593 Y22.2437
G01 X34.0583 Y22.2521
G01 X34.0572 Y22.2574
G01 X34.0549 Y22.2656
G01 X34.0518 Y22.2735
G01 X34.0479 Y22.2811
G01 X34.0433 Y22.2883
G01 X34.0359 Y22.2972
G01 X34.0298 Y22.3032
G01 X34.0256 Y22.3066
G01 X34.0160 Y22.3130
G01 X34.0084 Y22.3169
G01 X34.0031 Y22.3191
G01 X33.9997 Y22.3271
G01 X33.9971 Y22.3319
G01 X33.9925 Y22.3391
G01 X33.9851 Y22.3480
G01 X33.9790 Y22.3540
G01 X33.9723 Y22.3592
G01 X33.9652 Y22.3638
G01 X33.9604 Y22.3664
G01 X33.9526 Y22.3698
G01 X33.9445 Y22.3724
G01 X33.9362 Y22.3742
G01 X33.9277 Y22.3752
G01 X33.8992 Y22.3754
G01 X33.8955 Y22.3827
G01 X33.8909 Y22.3899
G01 X33.8835 Y22.3988
G01 X33.8774 Y22.4048
G01 X33.8732 Y22.4082
G01 X33.8662 Y22.4130
G01 X33.8588 Y22.4172
G01 X33.8507 Y22.4207
G01 X33.8486 Y22.4259
G01 X33.8447 Y22.4335
G01 X33.8401 Y22.4407
G01 X33.8348 Y22.4473
G01 X33.8289 Y22.4535
G01 X33.8224 Y22.4590
G01 X33.8154 Y22.4638
G01 X33.8080 Y22.4680
G01 X33.7973 Y22.4724
G01 X33.7891 Y22.4748
G01 X33.7807 Y22.4763
G01 X33.7695 Y22.4770
G01 X33.7468 Y22.4770
G01 X33.7415 Y22.4870
G01 X33.7367 Y22.4940
G01 X33.7311 Y22.5004
G01 X33.7250 Y22.5064
G01 X33.7183 Y22.5116
G01 X33.7112 Y22.5162
G01 X33.7064 Y22.5188
G01 X33.6986 Y22.5222
G01 X33.6905 Y22.5248
G01 X33.6791 Y22.5271
G01 X33.6706 Y22.5277
G01 X33.5944 Y22.5278
G01 X33.5891 Y22.5378
G01 X33.5843 Y22.5448
G01 X33.5787 Y22.5512
G01 X33.5726 Y22.5572
G01 X33.5659 Y22.5624
G01 X33.5588 Y22.5670
G01 X33.5540 Y22.5696
G01 X33.5462 Y22.5730
G01 X33.5381 Y22.5756
G01 X33.5267 Y22.5779
G01 X33.5155 Y22.5786
G01 X33.0075 Y22.5786
G01 X32.9963 Y22.5779
G01 X32.9849 Y22.5756
G01 X32.9768 Y22.5730
G01 X32.9718 Y22.5709
G01 X32.9643 Y22.5670
G01 X32.9571 Y22.5624
G01 X32.9504 Y22.5572
G01 X32.9422 Y22.5489
G01 X32.9388 Y22.5448
G01 X32.9339 Y22.5378
G01 X32.9286 Y22.5278
G01 X32.8493 Y22.5276
G01 X32.8409 Y22.5266
G01 X32.8325 Y22.5248
G01 X32.8274 Y22.5232
G01 X32.8194 Y22.5201
G01 X32.8119 Y22.5162
G01 X32.8047 Y22.5116
G01 X32.7957 Y22.5043
G01 X32.7898 Y22.4981
G01 X32.7845 Y22.4915
G01 X32.7799 Y22.4843
G01 X32.7762 Y22.4770
G01 X32.6969 Y22.4768
G01 X32.6885 Y22.4758
G01 X32.6801 Y22.4740
G01 X32.6750 Y22.4724
G01 X32.6670 Y22.4693
G01 X32.6595 Y22.4654
G01 X32.6523 Y22.4608
G01 X32.6433 Y22.4535
G01 X32.6374 Y22.4473
G01 X32.6340 Y22.4432
G01 X32.6291 Y22.4362
G01 X32.6250 Y22.4287
G01 X32.6215 Y22.4207
G01 X32.6134 Y22.4172
G01 X32.6060 Y22.4130
G01 X32.5990 Y22.4082
G01 X32.5925 Y22.4027
G01 X32.5866 Y22.3965
G01 X32.5813 Y22.3899
G01 X32.5767 Y22.3827
G01 X32.5730 Y22.3754
G01 X32.5445 Y22.3752
G01 X32.5361 Y22.3742
G01 X32.5308 Y22.3732
G01 X32.5226 Y22.3708
G01 X32.5118 Y22.3664
G01 X32.5044 Y22.3622
G01 X32.4974 Y22.3574
G01 X32.4932 Y22.3540
G01 X32.4871 Y22.3480
G01 X32.4797 Y22.3391
G01 X32.4751 Y22.3319
G01 X32.4726 Y22.3271
G01 X32.4691 Y22.3191
G01 X32.4610 Y22.3156
G01 X32.4536 Y22.3114
G01 X32.4491 Y22.3084
G01 X32.4424 Y22.3032
G01 X32.4342 Y22.2949
G01 X32.4289 Y22.2883
G01 X32.4243 Y22.2811
G01 X32.4205 Y22.2735
G01 X32.4183 Y22.2683
G01 X32.4102 Y22.2648
G01 X32.4028 Y22.2606
G01 X32.3983 Y22.2576
G01 X32.3916 Y22.2524
G01 X32.3834 Y22.2441
G01 X32.3800 Y22.2400
G01 X32.3751 Y22.2330
G01 X32.3710 Y22.2255
G01 X32.3665 Y22.2148
G01 X32.3642 Y22.2066
G01 X32.3627 Y22.1982
G01 X32.3620 Y22.1897
G01 X32.3620 Y22.1844
G01 X32.3627 Y22.1759
G01 X32.3647 Y22.1655
G01 X32.3594 Y22.1632
G01 X32.3520 Y22.1590
G01 X32.3450 Y22.1542
G01 X32.3385 Y22.1487
G01 X32.3326 Y22.1425
G01 X32.3292 Y22.1384
G01 X32.3243 Y22.1314
G01 X32.3202 Y22.1239
G01 X32.3167 Y22.1159
G01 X32.3114 Y22.1137
G01 X32.3039 Y22.1098
G01 X32.2942 Y22.1034
G01 X32.2900 Y22.1000
G01 X32.2839 Y22.0940
G01 X32.2765 Y22.0851
G01 X32.2719 Y22.0779
G01 X32.2681 Y22.0703
G01 X32.2649 Y22.0624
G01 X32.2634 Y22.0572
G01 X32.2616 Y22.0489
G01 X32.2606 Y22.0405
G01 X32.2604 Y22.0320
G01 X32.2611 Y22.0235
G01 X32.2631 Y22.0131
G01 X32.2531 Y22.0082
G01 X32.2459 Y22.0036
G01 X32.2392 Y21.9984
G01 X32.2331 Y21.9924
G01 X32.2276 Y21.9860
G01 X32.2227 Y21.9790
G01 X32.2186 Y21.9715
G01 X32.2152 Y21.9637
G01 X32.2118 Y21.9526
G01 X32.2103 Y21.9442
G01 X32.2096 Y21.9357
G01 X32.2098 Y21.9272
G01 X32.2103 Y21.9219
G01 X32.2118 Y21.9135
G01 X32.2134 Y21.9076
G01 X32.2108 Y21.8965
G01 X32.2096 Y21.8849
G01 X32.2098 Y21.8764
G01 X32.2103 Y21.8711
G01 X32.2123 Y21.8607
G01 X32.2023 Y21.8558
G01 X32.1926 Y21.8494
G01 X32.1861 Y21.8439
G01 X32.1802 Y21.8377
G01 X32.1768 Y21.8336
G01 X32.1703 Y21.8239
G01 X32.1665 Y21.8163
G01 X32.1633 Y21.8084
G01 X32.1618 Y21.8032
G01 X32.1600 Y21.7949
G01 X32.1588 Y21.7833
G01 X32.1590 Y21.7748
G01 X32.1600 Y21.7664
G01 X32.1626 Y21.7552
G01 X32.1610 Y21.7494
G01 X32.1595 Y21.7410
G01 X32.1588 Y21.7325
G01 X32.1588 Y21.7272
G01 X32.1600 Y21.7156
G01 X32.1626 Y21.7044
G01 X32.1610 Y21.6986
G01 X32.1595 Y21.6902
G01 X32.1588 Y21.6817
G01 X32.1588 Y21.6764
G01 X32.1595 Y21.6679
G01 X32.1615 Y21.6575
G01 X32.1515 Y21.6526
G01 X32.1418 Y21.6462
G01 X32.1353 Y21.6407
G01 X32.1294 Y21.6345
G01 X32.1260 Y21.6304
G01 X32.1195 Y21.6207
G01 X32.1157 Y21.6131
G01 X32.1125 Y21.6052
G01 X32.1110 Y21.6000
G01 X32.1087 Y21.5886
G01 X32.1080 Y21.5801
G01 X32.1082 Y21.5716
G01 X32.1092 Y21.5632
G01 X32.1118 Y21.5520
G01 X32.1102 Y21.5462
G01 X32.1087 Y21.5378
G01 X32.1080 Y21.5293
G01 X32.1080 Y21.5240
G01 X32.1092 Y21.5124
G01 X32.1118 Y21.5012
G01 X32.1102 Y21.4954
G01 X32.1087 Y21.4870
G01 X32.1080 Y21.4785
G01 X32.1080 Y21.4732
G01 X32.1092 Y21.4616
G01 X32.1118 Y21.4504
G01 X32.1102 Y21.4446
G01 X32.1087 Y21.4362
G01 X32.1080 Y21.4277
G01 X32.1080 Y21.4224
G01 X32.1092 Y21.4108
G01 X32.1118 Y21.3996
G01 X32.1102 Y21.3938
G01 X32.1087 Y21.3854
G01 X32.1080 Y21.3769
G01 X32.1080 Y21.3716
G01 X32.1092 Y21.3600
G01 X32.1118 Y21.3488
G01 X32.1102 Y21.3430
G01 X32.1087 Y21.3346
G01 X32.1080 Y21.3261
G01 X32.1080 Y21.3208
G01 X32.1092 Y21.3092
G01 X32.1118 Y21.2980
G01 X32.1102 Y21.2922
G01 X32.1087 Y21.2838
G01 X32.1080 Y21.2753
G01 X32.1080 Y21.2700
G01 X32.1092 Y21.2584
G01 X32.1118 Y21.2472
G01 X32.1102 Y21.2414
G01 X32.1087 Y21.2330
G01 X32.1080 Y21.2245
G01 X32.1080 Y21.2192
G01 X32.1092 Y21.2076
G01 X32.1118 Y21.1964
G01 X32.1102 Y21.1906
G01 X32.1087 Y21.1822
G01 X32.1080 Y21.1737
G01 X32.1080 Y21.1684
G01 X32.1092 Y21.1568
G01 X32.1118 Y21.1456
G01 X32.1102 Y21.1398
G01 X32.1087 Y21.1314
G01 X32.1080 Y21.1229
G01 X32.1080 Y21.1176
G01 X32.1092 Y21.1060
G01 X32.1118 Y21.0948
G01 X32.1102 Y21.0890
G01 X32.1087 Y21.0806
G01 X32.1080 Y21.0721
G01 X32.1080 Y21.0668
G01 X32.1092 Y21.0552
G01 X32.1118 Y21.0440
G00 Z2.0000
G00 X34.2454 Y22.1616
G01 F25.00
G01 Z-0.0187
G01 F45.00
G01 X34.2438 Y22.1558
G01 X34.2423 Y22.1474
G01 X34.2416 Y22.1389
G01 X34.2418 Y22.1304
G01 X34.2428 Y22.1220
G01 X34.2446 Y22.1137
G01 X34.2472 Y22.1056
G01 X34.2506 Y22.0978
G01 X34.2547 Y22.0903
G01 X34.2596 Y22.0833
G01 X34.2651 Y22.0769
G01 X34.2712 Y22.0709
G01 X34.2779 Y22.0657
G01 X34.2851 Y22.0611
G01 X34.2898 Y22.0585
G01 X34.2976 Y22.0551
G01 X34.3057 Y22.0525
G01 X34.3141 Y22.0507
G01 X34.3225 Y22.0497
G01 X34.3283 Y22.0495
G01 X34.5477 Y22.0495
G01 X34.5466 Y22.0405
G01 X34.5466 Y22.0288
G01 X34.5476 Y22.0204
G01 X34.5502 Y22.0092
G01 X34.5486 Y22.0034
G01 X34.5471 Y21.9950
G01 X34.5464 Y21.9865
G01 X34.5464 Y21.9812
G01 X34.5476 Y21.9696
G01 X34.5502 Y21.9584
G01 X34.5486 Y21.9526
G01 X34.5471 Y21.9442
G01 X34.5464 Y21.9357
G01 X34.5464 Y21.9304
G01 X34.5476 Y21.9188
G01 X34.5502 Y21.9076
G01 X34.5486 Y21.9018
G01 X34.5471 Y21.8934
G01 X34.5464 Y21.8849
G01 X34.5464 Y21.8796
G01 X34.5476 Y21.8680
G01 X34.5502 Y21.8568
G01 X34.5486 Y21.8510
G01 X34.5471 Y21.8426
G01 X34.5464 Y21.8341
G01 X34.5464 Y21.8288
G01 X34.5476 Y21.8172
G01 X34.5502 Y21.8060
G01 X34.5486 Y21.8002
G01 X34.5471 Y21.7918
G01 X34.5464 Y21.7833
G01 X34.5464 Y21.7780
G01 X34.5476 Y21.7664
G01 X34.5502 Y21.7552
G01 X34.5486 Y21.7494
G01 X34.5471 Y21.7410
G01 X34.5464 Y21.7325
G01 X34.5464 Y21.7272
G01 X34.5476 Y21.7156
G01 X34.5502 Y21.7044
G01 X34.5486 Y21.6986
G01 X34.5471 Y21.6902
G01 X34.5464 Y21.6817
G01 X34.5464 Y21.6764
G01 X34.5476 Y21.6648
G01 X34.5502 Y21.6536
G01 X34.5486 Y21.6478
G01 X34.5471 Y21.6394
G01 X34.5464 Y21.6309
G01 X34.5464 Y21.6256
G01 X34.5476 Y21.6140
G01 X34.5502 Y21.6028
G01 X34.5486 Y21.5970
G01 X34.5471 Y21.5886
G01 X34.5464 Y21.5801
G01 X34.5464 Y21.5748
G01 X34.5476 Y21.5632
G01 X34.5502 Y21.5520
G01 X34.5486 Y21.5462
G01 X34.5471 Y21.5378
G01 X34.5464 Y21.5293
G01 X34.5464 Y21.5240
G01 X34.5476 Y21.5124
G01 X34.5502 Y21.5012
G01 X34.5486 Y21.4954
G01 X34.5471 Y21.4870
G01 X34.5464 Y21.4785
G01 X34.5464 Y21.4732
G01 X34.5476 Y21.4616
G01 X34.5502 Y21.4504
G01 X34.5486 Y21.4446
G01 X34.5471 Y21.4362
G01 X34.5464 Y21.4277
G01 X34.5464 Y21.4224
G01 X34.5476 Y21.4108
G01 X34.5502 Y21.3996
G01 X34.5486 Y21.3938
G01 X34.5471 Y21.3854
G01 X34.5464 Y21.3769
G01 X34.5464 Y21.3716
G01 X34.5476 Y21.3600
G01 X34.5502 Y21.3488
G01 X34.5486 Y21.3430
G01 X34.5471 Y21.3346
G01 X34.5464 Y21.3261
G01 X34.5464 Y21.3208
G01 X34.5476 Y21.3092
G01 X34.5502 Y21.2980
G01 X34.5486 Y21.2922
G01 X34.5471 Y21.2838
G01 X34.5464 Y21.2753
G01 X34.5464 Y21.2700
G01 X34.5476 Y21.2584
G01 X34.5502 Y21.2472
G01 X34.5486 Y21.2414
G01 X34.5471 Y21.2330
G01 X34.5464 Y21.2245
G01 X34.5464 Y21.2192
G01 X34.5476 Y21.2076
G01 X34.5502 Y21.1964
G01 X34.5486 Y21.1906
G01 X34.5471 Y21.1822
G01 X34.5464 Y21.1737
G01 X34.5464 Y21.1684
G01 X34.5476 Y21.1568
G01 X34.5502 Y21.1456
G01 X34.5486 Y21.1398
G01 X34.5471 Y21.1314
G01 X34.5464 Y21.1229
G01 X34.5464 Y21.1176
G01 X34.5476 Y21.1060
G01 X34.5502 Y21.0948
G01 X34.5486 Y21.0890
G01 X34.5471 Y21.0806
G01 X34.5464 Y21.0721
G01 X34.5464 Y21.0668
G01 X34.5476 Y21.0552
G01 X34.5502 Y21.0440
G01 X34.5486 Y21.0382
G01 X34.5471 Y21.0298
G01 X34.5464 Y21.0213
G01 X34.5464 Y21.0160
G01 X34.5476 Y21.0044
G01 X34.5502 Y20.9932
G01 X34.5486 Y20.9874
G01 X34.5471 Y20.9790
G01 X34.5464 Y20.9705
G01 X34.5464 Y20.9652
G01 X34.5476 Y20.9536
G01 X34.5502 Y20.9424
G01 X34.5486 Y20.9366
G01 X34.5471 Y20.9282
G01 X34.5464 Y20.9197
G01 X34.5464 Y20.9144
G01 X34.5476 Y20.9028
G01 X34.5502 Y20.8916
G01 X34.5486 Y20.8858
G01 X34.5471 Y20.8774
G01 X34.5464 Y20.8689
G01 X34.5464 Y20.8636
G01 X34.5476 Y20.8520
G01 X34.5502 Y20.8408
G01 X34.5486 Y20.8350
G01 X34.5471 Y20.8266
G01 X34.5464 Y20.8181
G01 X34.5464 Y20.8128
G01 X34.5476 Y20.8012
G01 X34.5502 Y20.7900
G01 X34.5486 Y20.7842
G01 X34.5471 Y20.7758
G01 X34.5464 Y20.7673
G01 X34.5464 Y20.7620
G01 X34.5476 Y20.7504
G01 X34.5502 Y20.7392
G01 X34.5486 Y20.7334
G01 X34.5471 Y20.7250
G01 X34.5464 Y20.7165
G01 X34.5464 Y20.7112
G01 X34.5476 Y20.6996
G01 X34.5502 Y20.6884
G01 X34.5486 Y20.6826
G01 X34.5471 Y20.6742
G01 X34.5464 Y20.6657
G01 X34.5464 Y20.6604
G01 X34.5476 Y20.6488
G01 X34.5502 Y20.6376
G01 X34.5486 Y20.6318
G01 X34.5471 Y20.6234
G01 X34.5464 Y20.6149
G01 X34.5464 Y20.6096
G01 X34.5476 Y20.5980
G01 X34.5502 Y20.5868
G01 X34.5486 Y20.5810
G01 X34.5471 Y20.5726
G01 X34.5464 Y20.5641
G01 X34.5464 Y20.5588
G01 X34.5476 Y20.5472
G01 X34.5502 Y20.5360
G01 X34.5486 Y20.5302
G01 X34.5471 Y20.5218
G01 X34.5464 Y20.5133
G01 X34.5464 Y20.5080
G01 X34.5476 Y20.4964
G01 X34.5502 Y20.4852
G01 X34.5486 Y20.4794
G01 X34.5471 Y20.4710
G01 X34.5464 Y20.4625
G01 X34.5464 Y20.4572
G01 X34.5476 Y20.4456
G01 X34.5502 Y20.4344
G01 X34.5486 Y20.4286
G01 X34.5471 Y20.4202
G01 X34.5464 Y20.4117
G01 X34.5464 Y20.4064
G01 X34.5476 Y20.3948
G01 X34.5486 Y20.3895
G01 X34.5509 Y20.3813
G01 X34.5554 Y20.3706
G01 X34.5579 Y20.3658
G01 X34.5625 Y20.3586
G01 X34.5699 Y20.3497
G01 X34.5760 Y20.3437
G01 X34.5802 Y20.3403
G01 X34.5899 Y20.3339
G01 X34.5999 Y20.3290
G01 X34.5984 Y20.3217
G01 X34.5974 Y20.3133
G01 X34.5972 Y20.3048
G01 X34.5979 Y20.2963
G01 X34.5994 Y20.2879
G01 X34.6017 Y20.2797
G01 X34.6049 Y20.2718
G01 X34.6087 Y20.2642
G01 X34.6133 Y20.2570
G01 X34.6186 Y20.2504
G01 X34.6268 Y20.2421
G01 X34.6335 Y20.2369
G01 X34.6407 Y20.2323
G01 X34.6482 Y20.2284
G01 X34.6535 Y20.2262
G01 X34.6570 Y20.2182
G01 X34.6611 Y20.2107
G01 X34.6641 Y20.2062
G01 X34.6694 Y20.1996
G01 X34.6753 Y20.1934
G01 X34.6818 Y20.1879
G01 X34.6888 Y20.1831
G01 X34.6962 Y20.1789
G01 X34.7043 Y20.1754
G01 X34.7078 Y20.1674
G01 X34.7119 Y20.1599
G01 X34.7149 Y20.1554
G01 X34.7202 Y20.1488
G01 X34.7261 Y20.1426
G01 X34.7326 Y20.1371
G01 X34.7396 Y20.1323
G01 X34.7470 Y20.1281
G01 X34.7551 Y20.1246
G01 X34.7586 Y20.1166
G01 X34.7611 Y20.1118
G01 X34.7657 Y20.1046
G01 X34.7731 Y20.0957
G01 X34.7792 Y20.0897
G01 X34.7834 Y20.0863
G01 X34.7931 Y20.0799
G01 X34.8006 Y20.0760
G01 X34.8086 Y20.0729
G01 X34.8168 Y20.0705
G01 X34.8251 Y20.0690
G01 X34.8305 Y20.0685
G01 X34.8590 Y20.0683
G01 X34.8643 Y20.0583
G01 X34.8692 Y20.0513
G01 X34.8747 Y20.0449
G01 X34.8808 Y20.0389
G01 X34.8875 Y20.0337
G01 X34.8947 Y20.0291
G01 X34.8994 Y20.0265
G01 X34.9072 Y20.0231
G01 X34.9153 Y20.0205
G01 X34.9267 Y20.0182
G01 X34.9379 Y20.0175
G01 X35.3951 Y20.0175
G01 X35.4063 Y20.0182
G01 X35.4177 Y20.0205
G01 X35.4258 Y20.0231
G01 X35.4308 Y20.0252
G01 X35.4384 Y20.0291
G01 X35.4480 Y20.0355
G01 X35.4545 Y20.0410
G01 X35.4604 Y20.0472
G01 X35.4657 Y20.0538
G01 X35.4703 Y20.0610
G01 X35.4742 Y20.0686
G01 X35.4763 Y20.0738
G01 X35.4844 Y20.0773
G01 X35.4918 Y20.0815
G01 X35.4963 Y20.0845
G01 X35.5053 Y20.0918
G01 X35.5112 Y20.0980
G01 X35.5147 Y20.1021
G01 X35.5211 Y20.1118
G01 X35.5237 Y20.1166
G01 X35.5271 Y20.1244
G01 X35.5304 Y20.1355
G01 X35.5315 Y20.1408
G01 X35.5325 Y20.1492
G01 X35.5326 Y20.1577
G01 X35.5319 Y20.1662
G01 X35.5304 Y20.1746
G01 X35.5288 Y20.1805
G01 X35.5315 Y20.1916
G01 X35.5326 Y20.2032
G01 X35.5325 Y20.2117
G01 X35.5319 Y20.2170
G01 X35.5304 Y20.2254
G01 X35.5288 Y20.2313
G01 X35.5315 Y20.2424
G01 X35.5326 Y20.2540
G01 X35.5325 Y20.2625
G01 X35.5319 Y20.2678
G01 X35.5304 Y20.2762
G01 X35.5271 Y20.2873
G01 X35.5237 Y20.2951
G01 X35.5195 Y20.3026
G01 X35.5165 Y20.3071
G01 X35.5112 Y20.3137
G01 X35.5030 Y20.3220
G01 X35.4963 Y20.3272
G01 X35.4892 Y20.3318
G01 X35.4791 Y20.3367
G01 X35.4811 Y20.3471
G01 X35.4818 Y20.3556
G01 X35.4818 Y20.3609
G01 X35.4807 Y20.3725
G01 X35.4780 Y20.3837
G01 X35.4796 Y20.3895
G01 X35.4811 Y20.3979
G01 X35.4818 Y20.4064
G01 X35.4817 Y20.4149
G01 X35.4807 Y20.4233
G01 X35.4796 Y20.4286
G01 X35.4773 Y20.4368
G01 X35.4742 Y20.4447
G01 X35.4703 Y20.4523
G01 X35.4657 Y20.4595
G01 X35.4583 Y20.4684
G01 X35.4522 Y20.4744
G01 X35.4455 Y20.4796
G01 X35.4384 Y20.4842
G01 X35.4336 Y20.4868
G01 X35.4258 Y20.4902
G01 X35.4177 Y20.4928
G01 X35.4094 Y20.4946
G01 X35.4009 Y20.4956
G01 X35.3951 Y20.4958
G01 X35.2200 Y20.4958
G01 X35.2163 Y20.5031
G01 X35.2117 Y20.5103
G01 X35.2064 Y20.5169
G01 X35.2005 Y20.5231
G01 X35.1940 Y20.5286
G01 X35.1870 Y20.5334
G01 X35.1796 Y20.5376
G01 X35.1715 Y20.5411
G01 X35.1681 Y20.5491
G01 X35.1639 Y20.5566
G01 X35.1609 Y20.5611
G01 X35.1556 Y20.5677
G01 X35.1497 Y20.5739
G01 X35.1432 Y20.5794
G01 X35.1362 Y20.5842
G01 X35.1288 Y20.5884
G01 X35.1235 Y20.5907
G01 X35.1255 Y20.6011
G01 X35.1262 Y20.6096
G01 X35.1262 Y20.6149
G01 X35.1251 Y20.6265
G01 X35.1224 Y20.6377
G01 X35.1240 Y20.6435
G01 X35.1255 Y20.6519
G01 X35.1262 Y20.6604
G01 X35.1262 Y20.6657
G01 X35.1251 Y20.6773
G01 X35.1224 Y20.6885
G01 X35.1240 Y20.6943
G01 X35.1255 Y20.7027
G01 X35.1262 Y20.7112
G01 X35.1262 Y20.7165
G01 X35.1251 Y20.7281
G01 X35.1224 Y20.7393
G01 X35.1240 Y20.7451
G01 X35.1255 Y20.7535
G01 X35.1262 Y20.7620
G01 X35.1262 Y20.7673
G01 X35.1251 Y20.7789
G01 X35.1224 Y20.7901
G01 X35.1240 Y20.7959
G01 X35.1255 Y20.8043
G01 X35.1262 Y20.8128
G01 X35.1262 Y20.8181
G01 X35.1251 Y20.8297
G01 X35.1224 Y20.8409
G01 X35.1240 Y20.8467
G01 X35.1255 Y20.8551
G01 X35.1262 Y20.8636
G01 X35.1262 Y20.8689
G01 X35.1251 Y20.8805
G01 X35.1224 Y20.8917
G01 X35.1240 Y20.8975
G01 X35.1255 Y20.9059
G01 X35.1262 Y20.9144
G01 X35.1262 Y20.9197
G01 X35.1251 Y20.9313
G01 X35.1224 Y20.9425
G01 X35.1240 Y20.9483
G01 X35.1255 Y20.9567
G01 X35.1262 Y20.9652
G01 X35.1262 Y20.9705
G01 X35.1251 Y20.9821
G01 X35.1224 Y20.9933
G01 X35.1240 Y20.9991
G01 X35.1255 Y21.0075
G01 X35.1262 Y21.0160
G01 X35.1262 Y21.0213
G01 X35.1251 Y21.0329
G01 X35.1224 Y21.0441
G01 X35.1240 Y21.0499
G01 X35.1255 Y21.0583
G01 X35.1262 Y21.0668
G01 X35.1262 Y21.0721
G01 X35.1251 Y21.0837
G01 X35.1224 Y21.0949
G01 X35.1240 Y21.1007
G01 X35.1255 Y21.1091
G01 X35.1262 Y21.1176
G01 X35.1262 Y21.1229
G01 X35.1251 Y21.1345
G01 X35.1224 Y21.1457
G01 X35.1240 Y21.1515
G01 X35.1255 Y21.1599
G01 X35.1262 Y21.1684
G01 X35.1262 Y21.1737
G01 X35.1251 Y21.1853
G01 X35.1224 Y21.1965
G01 X35.1240 Y21.2023
G01 X35.1255 Y21.2107
G01 X35.1262 Y21.2192
G01 X35.1262 Y21.2245
G01 X35.1251 Y21.2361
G01 X35.1224 Y21.2473
G01 X35.1240 Y21.2531
G01 X35.1255 Y21.2615
G01 X35.1262 Y21.2700
G01 X35.1262 Y21.2753
G01 X35.1251 Y21.2869
G01 X35.1224 Y21.2981
G01 X35.1240 Y21.3039
G01 X35.1255 Y21.3123
G01 X35.1262 Y21.3208
G01 X35.1262 Y21.3261
G01 X35.1251 Y21.3377
G01 X35.1224 Y21.3489
G01 X35.1240 Y21.3547
G01 X35.1255 Y21.3631
G01 X35.1262 Y21.3716
G01 X35.1262 Y21.3769
G01 X35.1251 Y21.3885
G01 X35.1224 Y21.3997
G01 X35.1240 Y21.4055
G01 X35.1255 Y21.4139
G01 X35.1262 Y21.4224
G01 X35.1262 Y21.4277
G01 X35.1251 Y21.4393
G01 X35.1224 Y21.4505
G01 X35.1240 Y21.4563
G01 X35.1255 Y21.4647
G01 X35.1262 Y21.4732
G01 X35.1262 Y21.4785
G01 X35.1251 Y21.4901
G01 X35.1224 Y21.5013
G01 X35.1240 Y21.5071
G01 X35.1255 Y21.5155
G01 X35.1262 Y21.5240
G01 X35.1262 Y21.5293
G01 X35.1251 Y21.5409
G01 X35.1224 Y21.5521
G01 X35.1240 Y21.5579
G01 X35.1255 Y21.5663
G01 X35.1262 Y21.5748
G01 X35.1262 Y21.5801
G01 X35.1251 Y21.5917
G01 X35.1224 Y21.6029
G01 X35.1240 Y21.6087
G01 X35.1255 Y21.6171
G01 X35.1262 Y21.6256
G01 X35.1262 Y21.6309
G01 X35.1251 Y21.6425
G01 X35.1224 Y21.6537
G01 X35.1240 Y21.6595
G01 X35.1255 Y21.6679
G01 X35.1262 Y21.6764
G01 X35.1262 Y21.6817
G01 X35.1251 Y21.6933
G01 X35.1224 Y21.7045
G01 X35.1240 Y21.7103
G01 X35.1255 Y21.7187
G01 X35.1262 Y21.7272
G01 X35.1262 Y21.7325
G01 X35.1251 Y21.7441
G01 X35.1224 Y21.7553
G01 X35.1240 Y21.7611
G01 X35.1255 Y21.7695
G01 X35.1262 Y21.7780
G01 X35.1262 Y21.7833
G01 X35.1251 Y21.7949
G01 X35.1224 Y21.8061
G01 X35.1240 Y21.8119
G01 X35.1255 Y21.8203
G01 X35.1262 Y21.8288
G01 X35.1262 Y21.8341
G01 X35.1251 Y21.8457
G01 X35.1224 Y21.8569
G01 X35.1240 Y21.8627
G01 X35.1255 Y21.8711
G01 X35.1262 Y21.8796
G01 X35.1262 Y21.8849
G01 X35.1251 Y21.8965
G01 X35.1224 Y21.9077
G01 X35.1240 Y21.9135
G01 X35.1255 Y21.9219
G01 X35.1262 Y21.9304
G01 X35.1262 Y21.9357
G01 X35.1251 Y21.9473
G01 X35.1224 Y21.9585
G01 X35.1240 Y21.9643
G01 X35.1255 Y21.9727
G01 X35.1262 Y21.9812
G01 X35.1262 Y21.9865
G01 X35.1251 Y21.9981
G01 X35.1224 Y22.0093
G01 X35.1251 Y22.0204
G01 X35.1261 Y22.0288
G01 X35.1261 Y22.0405
G01 X35.1250 Y22.0495
G01 X35.3951 Y22.0495
G01 X35.4063 Y22.0502
G01 X35.4147 Y22.0517
G01 X35.4229 Y22.0541
G01 X35.4308 Y22.0572
G01 X35.4384 Y22.0611
G01 X35.4455 Y22.0657
G01 X35.4522 Y22.0709
G01 X35.4583 Y22.0769
G01 X35.4639 Y22.0833
G01 X35.4703 Y22.0930
G01 X35.4742 Y22.1006
G01 X35.4773 Y22.1085
G01 X35.4796 Y22.1167
G01 X35.4807 Y22.1220
G01 X35.4818 Y22.1336
G01 X35.4817 Y22.1421
G01 X35.4811 Y22.1474
G01 X35.4796 Y22.1558
G01 X35.4780 Y22.1617
G01 X35.4807 Y22.1728
G01 X35.4818 Y22.1844
G01 X35.4817 Y22.1929
G01 X35.4811 Y22.1982
G01 X35.4796 Y22.2066
G01 X35.4780 Y22.2125
G01 X35.4807 Y22.2236
G01 X35.4818 Y22.2352
G01 X35.4817 Y22.2437
G01 X35.4811 Y22.2490
G01 X35.4796 Y22.2574
G01 X35.4780 Y22.2633
G01 X35.4807 Y22.2744
G01 X35.4818 Y22.2860
G01 X35.4817 Y22.2945
G01 X35.4811 Y22.2998
G01 X35.4796 Y22.3082
G01 X35.4780 Y22.3141
G01 X35.4807 Y22.3252
G01 X35.4818 Y22.3368
G01 X35.4817 Y22.3453
G01 X35.4811 Y22.3506
G01 X35.4796 Y22.3590
G01 X35.4780 Y22.3649
G01 X35.4807 Y22.3760
G01 X35.4818 Y22.3876
G01 X35.4817 Y22.3961
G01 X35.4811 Y22.4014
G01 X35.4796 Y22.4098
G01 X35.4780 Y22.4157
G01 X35.4807 Y22.4268
G01 X35.4817 Y22.4352
G01 X35.4818 Y22.4437
G01 X35.4811 Y22.4522
G01 X35.4796 Y22.4606
G01 X35.4773 Y22.4688
G01 X35.4729 Y22.4795
G01 X35.4703 Y22.4843
G01 X35.4657 Y22.4915
G01 X35.4583 Y22.5004
G01 X35.4522 Y22.5064
G01 X35.4480 Y22.5098
G01 X35.4384 Y22.5162
G01 X35.4336 Y22.5188
G01 X35.4258 Y22.5222
G01 X35.4147 Y22.5256
G01 X35.4063 Y22.5271
G01 X35.3951 Y22.5278
G01 X35.1250 Y22.5278
G01 X35.1261 Y22.5368
G01 X35.1261 Y22.5485
G01 X35.1251 Y22.5569
G01 X35.1224 Y22.5681
G01 X35.1240 Y22.5739
G01 X35.1255 Y22.5823
G01 X35.1262 Y22.5908
G01 X35.1262 Y22.5961
G01 X35.1251 Y22.6077
G01 X35.1224 Y22.6189
G01 X35.1240 Y22.6247
G01 X35.1255 Y22.6331
G01 X35.1262 Y22.6416
G01 X35.1262 Y22.6469
G01 X35.1251 Y22.6585
G01 X35.1224 Y22.6697
G01 X35.1240 Y22.6755
G01 X35.1255 Y22.6839
G01 X35.1262 Y22.6924
G01 X35.1262 Y22.6977
G01 X35.1251 Y22.7093
G01 X35.1224 Y22.7205
G01 X35.1240 Y22.7263
G01 X35.1255 Y22.7347
G01 X35.1262 Y22.7432
G01 X35.1262 Y22.7485
G01 X35.1251 Y22.7601
G01 X35.1224 Y22.7713
G01 X35.1240 Y22.7771
G01 X35.1255 Y22.7855
G01 X35.1262 Y22.7940
G01 X35.1262 Y22.7993
G01 X35.1251 Y22.8109
G01 X35.1224 Y22.8221
G01 X35.1240 Y22.8279
G01 X35.1255 Y22.8363
G01 X35.1262 Y22.8448
G01 X35.1262 Y22.8501
G01 X35.1251 Y22.8617
G01 X35.1224 Y22.8729
G01 X35.1240 Y22.8787
G01 X35.1255 Y22.8871
G01 X35.1262 Y22.8956
G01 X35.1262 Y22.9009
G01 X35.1251 Y22.9125
G01 X35.1224 Y22.9237
G01 X35.1240 Y22.9295
G01 X35.1255 Y22.9379
G01 X35.1262 Y22.9464
G01 X35.1262 Y22.9517
G01 X35.1251 Y22.9633
G01 X35.1224 Y22.9745
G01 X35.1240 Y22.9803
G01 X35.1255 Y22.9887
G01 X35.1262 Y22.9972
G01 X35.1262 Y23.0025
G01 X35.1251 Y23.0141
G01 X35.1224 Y23.0253
G01 X35.1240 Y23.0311
G01 X35.1255 Y23.0395
G01 X35.1262 Y23.0480
G01 X35.1262 Y23.0533
G01 X35.1251 Y23.0649
G01 X35.1224 Y23.0761
G01 X35.1240 Y23.0819
G01 X35.1255 Y23.0903
G01 X35.1262 Y23.0988
G01 X35.1262 Y23.1041
G01 X35.1251 Y23.1157
G01 X35.1224 Y23.1269
G01 X35.1240 Y23.1327
G01 X35.1255 Y23.1411
G01 X35.1262 Y23.1496
G01 X35.1262 Y23.1549
G01 X35.1251 Y23.1665
G01 X35.1224 Y23.1777
G01 X35.1240 Y23.1835
G01 X35.1255 Y23.1919
G01 X35.1262 Y23.2004
G01 X35.1262 Y23.2057
G01 X35.1255 Y23.2142
G01 X35.1240 Y23.2226
G01 X35.1207 Y23.2337
G01 X35.1173 Y23.2415
G01 X35.1131 Y23.2490
G01 X35.1083 Y23.2560
G01 X35.1027 Y23.2624
G01 X35.0989 Y23.2663
G01 X35.0924 Y23.2718
G01 X35.0828 Y23.2782
G01 X35.0780 Y23.2808
G01 X35.0702 Y23.2842
G01 X35.0591 Y23.2876
G01 X35.0507 Y23.2891
G01 X35.0453 Y23.2896
G01 X34.9321 Y23.2896
G01 X34.9237 Y23.2886
G01 X34.9153 Y23.2868
